luts/BlueBoost.cube
#Generated by wwww.onlinelutcreator.com 
LUT_3D_SIZE 32 
0.098039 0.000000 0.152941
0.109804 0.000000 0.149020
0.121569 0.000000 0.149020
0.129412 0.000000 0.145098
0.141176 0.000000 0.145098
0.152941 0.000000 0.145098
0.168627 0.000000 0.141176
0.184314 0.000000 0.141176
0.203922 0.000000 0.137255
0.227451 0.000000 0.137255
0.258824 0.000000 0.129412
0.294118 0.000000 0.125490
0.329412 0.000000 0.121569
0.372549 0.000000 0.113725
0.411765 0.000000 0.105882
0.454902 0.000000 0.101961
0.494118 0.000000 0.094118
0.537255 0.000000 0.086275
0.580392 0.000000 0.082353
0.619608 0.000000 0.074510
0.662745 0.000000 0.070588
0.698039 0.000000 0.062745
0.737255 0.000000 0.058824
0.768627 0.000000 0.054902
0.800000 0.000000 0.054902
0.827451 0.000000 0.050980
0.850980 0.000000 0.050980
0.878431 0.000000 0.050980
0.901961 0.000000 0.050980
0.921569 0.000000 0.050980
0.945098 0.000000 0.050980
0.968627 0.000000 0.050980
0.098039 0.000000 0.152941
0.109804 0.000000 0.152941
0.121569 0.000000 0.149020
0.133333 0.000000 0.149020
0.145098 0.000000 0.145098
0.156863 0.000000 0.145098
0.168627 0.000000 0.145098
0.188235 0.000000 0.141176
0.207843 0.000000 0.141176
0.231373 0.000000 0.137255
0.258824 0.000000 0.133333
0.294118 0.000000 0.129412
0.333333 0.000000 0.121569
0.372549 0.000000 0.117647
0.415686 0.000000 0.109804
0.458824 0.000000 0.101961
0.498039 0.000000 0.098039
0.541176 0.000000 0.090196
0.584314 0.000000 0.086275
0.623529 0.000000 0.078431
0.666667 0.000000 0.074510
0.705882 0.000000 0.066667
0.741176 0.000000 0.062745
0.772549 0.000000 0.062745
0.803922 0.000000 0.058824
0.831373 0.000000 0.054902
0.858824 0.000000 0.054902
0.882353 0.000000 0.054902
0.905882 0.000000 0.054902
0.929412 0.000000 0.054902
0.952941 0.000000 0.058824
0.976471 0.000000 0.058824
0.094118 0.007843 0.152941
0.105882 0.007843 0.152941
0.121569 0.007843 0.149020
0.137255 0.007843 0.149020
0.145098 0.007843 0.149020
0.156863 0.003922 0.149020
0.172549 0.000000 0.145098
0.188235 0.000000 0.145098
0.207843 0.000000 0.141176
0.231373 0.000000 0.137255
0.262745 0.000000 0.133333
0.298039 0.000000 0.129412
0.337255 0.000000 0.125490
0.376471 0.000000 0.117647
0.419608 0.000000 0.109804
0.458824 0.000000 0.105882
0.501961 0.000000 0.098039
0.545098 0.000000 0.094118
0.588235 0.000000 0.086275
0.627451 0.000000 0.082353
0.670588 0.000000 0.078431
0.709804 0.000000 0.070588
0.745098 0.000000 0.070588
0.780392 0.000000 0.066667
0.811765 0.000000 0.062745
0.839216 0.000000 0.062745
0.866667 0.000000 0.062745
0.890196 0.000000 0.062745
0.913725 0.000000 0.062745
0.937255 0.000000 0.062745
0.960784 0.000000 0.066667
0.984314 0.000000 0.066667
0.094118 0.027451 0.152941
0.105882 0.031373 0.152941
0.121569 0.031373 0.152941
0.133333 0.031373 0.152941
0.145098 0.031373 0.152941
0.156863 0.019608 0.152941
0.172549 0.015686 0.149020
0.188235 0.007843 0.149020
0.207843 0.003922 0.145098
0.231373 0.000000 0.141176
0.262745 0.000000 0.137255
0.298039 0.000000 0.133333
0.337255 0.000000 0.125490
0.380392 0.000000 0.121569
0.419608 0.000000 0.113725
0.462745 0.000000 0.109804
0.505882 0.000000 0.101961
0.549020 0.000000 0.098039
0.592157 0.000000 0.090196
0.635294 0.000000 0.086275
0.674510 0.000000 0.082353
0.713725 0.000000 0.078431
0.752941 0.000000 0.074510
0.784314 0.000000 0.070588
0.815686 0.000000 0.070588
0.847059 0.000000 0.070588
0.874510 0.000000 0.070588
0.898039 0.000000 0.070588
0.925490 0.000000 0.070588
0.949020 0.000000 0.074510
0.972549 0.000000 0.074510
0.992157 0.000000 0.078431
0.094118 0.066667 0.152941
0.105882 0.070588 0.152941
0.117647 0.070588 0.152941
0.129412 0.070588 0.152941
0.141176 0.074510 0.152941
0.156863 0.066667 0.152941
0.168627 0.054902 0.152941
0.184314 0.039216 0.149020
0.207843 0.023529 0.149020
0.231373 0.015686 0.145098
0.262745 0.007843 0.141176
0.301961 0.000000 0.133333
0.341176 0.000000 0.129412
0.380392 0.000000 0.121569
0.423529 0.000000 0.117647
0.466667 0.000000 0.113725
0.509804 0.000000 0.105882
0.552941 0.000000 0.101961
0.596078 0.000000 0.098039
0.639216 0.000000 0.090196
0.682353 0.000000 0.086275
0.721569 0.000000 0.082353
0.756863 0.000000 0.082353
0.792157 0.000000 0.078431
0.823529 0.000000 0.078431
0.854902 0.000000 0.078431
0.882353 0.000000 0.078431
0.909804 0.000000 0.078431
0.933333 0.000000 0.082353
0.956863 0.000000 0.082353
0.984314 0.000000 0.086275
0.996078 0.000000 0.090196
0.094118 0.101961 0.152941
0.101961 0.105882 0.152941
0.113725 0.105882 0.152941
0.125490 0.105882 0.152941
0.137255 0.105882 0.152941
0.152941 0.105882 0.152941
0.164706 0.105882 0.152941
0.184314 0.094118 0.152941
0.203922 0.078431 0.149020
0.227451 0.054902 0.149020
0.262745 0.031373 0.141176
0.301961 0.011765 0.137255
0.341176 0.003922 0.129412
0.384314 0.003922 0.125490
0.427451 0.000000 0.121569
0.470588 0.000000 0.113725
0.513725 0.000000 0.109804
0.556863 0.000000 0.105882
0.600000 0.000000 0.101961
0.643137 0.000000 0.098039
0.686275 0.000000 0.094118
0.729412 0.000000 0.090196
0.764706 0.000000 0.086275
0.800000 0.000000 0.086275
0.835294 0.000000 0.086275
0.862745 0.000000 0.086275
0.894118 0.000000 0.090196
0.917647 0.000000 0.090196
0.945098 0.000000 0.094118
0.968627 0.000000 0.094118
0.992157 0.000000 0.098039
1.000000 0.000000 0.101961
0.090196 0.133333 0.149020
0.101961 0.137255 0.149020
0.113725 0.137255 0.152941
0.121569 0.141176 0.152941
0.133333 0.141176 0.152941
0.149020 0.141176 0.152941
0.160784 0.141176 0.152941
0.180392 0.141176 0.152941
0.200000 0.129412 0.152941
0.223529 0.109804 0.149020
0.258824 0.074510 0.145098
0.298039 0.043137 0.141176
0.345098 0.023529 0.133333
0.388235 0.015686 0.129412
0.431373 0.011765 0.125490
0.474510 0.007843 0.121569
0.517647 0.007843 0.113725
0.560784 0.007843 0.109804
0.607843 0.003922 0.105882
0.650980 0.003922 0.101961
0.694118 0.003922 0.101961
0.733333 0.003922 0.098039
0.772549 0.003922 0.094118
0.807843 0.003922 0.094118
0.843137 0.003922 0.094118
0.874510 0.003922 0.098039
0.901961 0.003922 0.098039
0.929412 0.003922 0.101961
0.956863 0.007843 0.105882
0.984314 0.007843 0.109804
0.996078 0.007843 0.113725
1.000000 0.007843 0.117647
0.090196 0.164706 0.149020
0.098039 0.168627 0.149020
0.109804 0.172549 0.149020
0.117647 0.172549 0.149020
0.129412 0.172549 0.152941
0.145098 0.176471 0.152941
0.156863 0.176471 0.152941
0.176471 0.172549 0.152941
0.196078 0.168627 0.152941
0.219608 0.152941 0.152941
0.254902 0.117647 0.149020
0.298039 0.082353 0.141176
0.345098 0.058824 0.137255
0.388235 0.047059 0.133333
0.435294 0.043137 0.129412
0.478431 0.039216 0.125490
0.521569 0.035294 0.121569
0.568627 0.031373 0.117647
0.611765 0.027451 0.113725
0.658824 0.023529 0.109804
0.701961 0.019608 0.105882
0.741176 0.019608 0.105882
0.780392 0.019608 0.105882
0.819608 0.019608 0.105882
0.850980 0.019608 0.105882
0.882353 0.019608 0.105882
0.913725 0.023529 0.109804
0.941176 0.027451 0.113725
0.968627 0.027451 0.117647
0.992157 0.031373 0.121569
1.000000 0.039216 0.125490
1.000000 0.043137 0.129412
0.086275 0.176471 0.145098
0.094118 0.192157 0.145098
0.105882 0.200000 0.145098
0.113725 0.203922 0.149020
0.125490 0.207843 0.149020
0.141176 0.207843 0.149020
0.152941 0.207843 0.152941
0.172549 0.203922 0.152941
0.192157 0.196078 0.152941
0.219608 0.180392 0.149020
0.254902 0.152941 0.149020
0.298039 0.121569 0.145098
0.345098 0.098039 0.137255
0.392157 0.086275 0.133333
0.435294 0.082353 0.129412
0.482353 0.078431 0.125490
0.525490 0.074510 0.125490
0.572549 0.070588 0.121569
0.619608 0.070588 0.117647
0.662745 0.066667 0.113725
0.705882 0.062745 0.113725
0.749020 0.062745 0.113725
0.788235 0.062745 0.113725
0.827451 0.062745 0.113725
0.862745 0.062745 0.113725
0.894118 0.066667 0.117647
0.925490 0.070588 0.121569
0.952941 0.074510 0.125490
0.980392 0.078431 0.129412
0.996078 0.082353 0.133333
1.000000 0.086275 0.137255
1.000000 0.090196 0.141176
0.082353 0.168627 0.137255
0.090196 0.192157 0.141176
0.098039 0.211765 0.141176
0.109804 0.223529 0.145098
0.121569 0.231373 0.145098
0.133333 0.231373 0.149020
0.149020 0.231373 0.149020
0.168627 0.227451 0.149020
0.192157 0.215686 0.149020
0.219608 0.200000 0.149020
0.254902 0.176471 0.149020
0.298039 0.152941 0.145098
0.345098 0.137255 0.141176
0.392157 0.129412 0.137255
0.439216 0.125490 0.133333
0.482353 0.121569 0.129412
0.529412 0.117647 0.129412
0.576471 0.113725 0.125490
0.623529 0.113725 0.121569
0.666667 0.109804 0.121569
0.713725 0.109804 0.121569
0.756863 0.109804 0.117647
0.796078 0.109804 0.117647
0.835294 0.109804 0.121569
0.870588 0.109804 0.121569
0.901961 0.113725 0.125490
0.933333 0.117647 0.129412
0.960784 0.121569 0.133333
0.988235 0.125490 0.137255
1.000000 0.129412 0.141176
1.000000 0.133333 0.145098
1.000000 0.137255 0.152941
0.074510 0.172549 0.133333
0.082353 0.188235 0.133333
0.090196 0.207843 0.137255
0.101961 0.223529 0.141176
0.117647 0.235294 0.141176
0.129412 0.239216 0.145098
0.145098 0.243137 0.145098
0.164706 0.239216 0.149020
0.188235 0.231373 0.149020
0.219608 0.215686 0.149020
0.254902 0.200000 0.145098
0.298039 0.184314 0.145098
0.345098 0.176471 0.141176
0.392157 0.168627 0.137255
0.439216 0.168627 0.133333
0.486275 0.164706 0.133333
0.529412 0.164706 0.129412
0.576471 0.160784 0.129412
0.627451 0.160784 0.125490
0.674510 0.156863 0.125490
0.717647 0.156863 0.125490
0.760784 0.156863 0.125490
0.803922 0.156863 0.125490
0.839216 0.156863 0.125490
0.874510 0.160784 0.129412
0.909804 0.160784 0.133333
0.941176 0.164706 0.137255
0.968627 0.168627 0.141176
0.992157 0.176471 0.145098
1.000000 0.180392 0.149020
1.000000 0.184314 0.152941
1.000000 0.188235 0.160784
0.066667 0.203922 0.121569
0.074510 0.207843 0.125490
0.082353 0.215686 0.129412
0.094118 0.227451 0.133333
0.109804 0.239216 0.137255
0.125490 0.247059 0.141176
0.141176 0.250980 0.141176
0.164706 0.250980 0.145098
0.188235 0.247059 0.145098
0.219608 0.239216 0.145098
0.254902 0.231373 0.145098
0.298039 0.223529 0.141176
0.345098 0.219608 0.141176
0.388235 0.215686 0.137255
0.439216 0.211765 0.137255
0.486275 0.211765 0.133333
0.533333 0.207843 0.133333
0.580392 0.207843 0.133333
0.627451 0.207843 0.129412
0.674510 0.203922 0.129412
0.721569 0.203922 0.129412
0.764706 0.203922 0.129412
0.807843 0.203922 0.129412
0.843137 0.207843 0.129412
0.882353 0.207843 0.133333
0.913725 0.211765 0.137255
0.945098 0.215686 0.141176
0.972549 0.219608 0.145098
0.996078 0.223529 0.149020
1.000000 0.227451 0.152941
1.000000 0.235294 0.160784
1.000000 0.239216 0.164706
0.058824 0.239216 0.113725
0.066667 0.243137 0.121569
0.074510 0.250980 0.125490
0.090196 0.254902 0.125490
0.101961 0.258824 0.129412
0.117647 0.266667 0.133333
0.137255 0.270588 0.137255
0.160784 0.270588 0.141176
0.184314 0.270588 0.141176
0.215686 0.270588 0.141176
0.254902 0.266667 0.141176
0.294118 0.266667 0.141176
0.341176 0.262745 0.141176
0.388235 0.262745 0.137255
0.435294 0.258824 0.137255
0.486275 0.258824 0.137255
0.533333 0.258824 0.133333
0.580392 0.254902 0.133333
0.627451 0.254902 0.133333
0.678431 0.254902 0.129412
0.721569 0.254902 0.129412
0.768627 0.254902 0.129412
0.807843 0.254902 0.133333
0.847059 0.254902 0.133333
0.882353 0.258824 0.137255
0.917647 0.262745 0.137255
0.949020 0.266667 0.141176
0.976471 0.270588 0.149020
0.996078 0.274510 0.152941
1.000000 0.278431 0.156863
1.000000 0.282353 0.160784
1.000000 0.286275 0.164706
0.050980 0.278431 0.105882
0.058824 0.282353 0.113725
0.070588 0.290196 0.117647
0.082353 0.294118 0.121569
0.098039 0.298039 0.125490
0.113725 0.301961 0.129412
0.133333 0.305882 0.133333
0.156863 0.309804 0.137255
0.184314 0.309804 0.137255
0.215686 0.309804 0.141176
0.250980 0.309804 0.141176
0.294118 0.309804 0.141176
0.341176 0.309804 0.141176
0.388235 0.309804 0.137255
0.435294 0.305882 0.137255
0.482353 0.305882 0.137255
0.533333 0.305882 0.133333
0.580392 0.305882 0.133333
0.627451 0.301961 0.133333
0.678431 0.301961 0.133333
0.725490 0.301961 0.133333
0.768627 0.301961 0.133333
0.807843 0.301961 0.133333
0.847059 0.305882 0.133333
0.882353 0.305882 0.137255
0.917647 0.309804 0.141176
0.949020 0.313725 0.145098
0.976471 0.317647 0.149020
0.996078 0.321569 0.152941
1.000000 0.325490 0.156863
1.000000 0.329412 0.160784
1.000000 0.337255 0.168627
0.047059 0.317647 0.101961
0.054902 0.325490 0.109804
0.066667 0.329412 0.113725
0.078431 0.333333 0.117647
0.094118 0.337255 0.121569
0.109804 0.341176 0.125490
0.129412 0.345098 0.129412
0.152941 0.349020 0.133333
0.180392 0.352941 0.137255
0.211765 0.356863 0.141176
0.250980 0.356863 0.141176
0.294118 0.356863 0.141176
0.337255 0.356863 0.141176
0.388235 0.352941 0.137255
0.435294 0.352941 0.137255
0.482353 0.352941 0.137255
0.533333 0.352941 0.137255
0.580392 0.349020 0.133333
0.627451 0.349020 0.133333
0.678431 0.349020 0.133333
0.725490 0.349020 0.133333
0.768627 0.349020 0.133333
0.807843 0.349020 0.133333
0.847059 0.349020 0.133333
0.882353 0.352941 0.137255
0.917647 0.356863 0.141176
0.949020 0.360784 0.145098
0.976471 0.364706 0.149020
0.996078 0.368627 0.152941
1.000000 0.372549 0.156863
1.000000 0.376471 0.164706
1.000000 0.380392 0.168627
0.043137 0.356863 0.098039
0.050980 0.364706 0.105882
0.062745 0.368627 0.109804
0.078431 0.376471 0.117647
0.094118 0.380392 0.121569
0.109804 0.384314 0.125490
0.129412 0.388235 0.129412
0.152941 0.392157 0.133333
0.180392 0.396078 0.137255
0.211765 0.400000 0.141176
0.247059 0.400000 0.141176
0.290196 0.400000 0.141176
0.337255 0.400000 0.141176
0.384314 0.400000 0.141176
0.435294 0.400000 0.137255
0.482353 0.396078 0.137255
0.533333 0.396078 0.137255
0.580392 0.396078 0.137255
0.627451 0.392157 0.133333
0.678431 0.392157 0.133333
0.725490 0.392157 0.133333
0.768627 0.392157 0.133333
0.807843 0.392157 0.133333
0.847059 0.396078 0.137255
0.886275 0.396078 0.137255
0.917647 0.400000 0.141176
0.949020 0.403922 0.145098
0.980392 0.407843 0.149020
0.996078 0.411765 0.152941
1.000000 0.415686 0.160784
1.000000 0.423529 0.164706
1.000000 0.427451 0.168627
0.039216 0.400000 0.098039
0.050980 0.407843 0.101961
0.062745 0.411765 0.109804
0.074510 0.419608 0.113725
0.090196 0.423529 0.121569
0.109804 0.427451 0.125490
0.129412 0.435294 0.129412
0.152941 0.439216 0.133333
0.180392 0.443137 0.137255
0.211765 0.443137 0.141176
0.247059 0.443137 0.141176
0.290196 0.447059 0.141176
0.337255 0.443137 0.141176
0.384314 0.443137 0.141176
0.435294 0.443137 0.141176
0.482353 0.443137 0.137255
0.529412 0.439216 0.137255
0.580392 0.439216 0.137255
0.627451 0.439216 0.137255
0.678431 0.435294 0.133333
0.725490 0.435294 0.133333
0.768627 0.435294 0.133333
0.811765 0.439216 0.133333
0.847059 0.439216 0.137255
0.886275 0.443137 0.141176
0.917647 0.443137 0.141176
0.949020 0.447059 0.145098
0.980392 0.454902 0.149020
0.996078 0.458824 0.156863
1.000000 0.462745 0.160784
1.000000 0.466667 0.164706
1.000000 0.470588 0.168627
0.039216 0.443137 0.094118
0.050980 0.450980 0.101961
0.062745 0.454902 0.109804
0.074510 0.462745 0.113725
0.090196 0.466667 0.121569
0.109804 0.474510 0.125490
0.129412 0.478431 0.129412
0.152941 0.482353 0.137255
0.180392 0.486275 0.137255
0.211765 0.490196 0.141176
0.247059 0.490196 0.141176
0.290196 0.490196 0.141176
0.337255 0.490196 0.141176
0.384314 0.490196 0.141176
0.431373 0.486275 0.141176
0.482353 0.486275 0.137255
0.529412 0.486275 0.137255
0.580392 0.482353 0.137255
0.627451 0.482353 0.137255
0.674510 0.482353 0.133333
0.721569 0.482353 0.133333
0.768627 0.482353 0.133333
0.811765 0.482353 0.137255
0.850980 0.486275 0.137255
0.886275 0.486275 0.141176
0.917647 0.490196 0.145098
0.952941 0.494118 0.149020
0.980392 0.498039 0.152941
0.996078 0.501961 0.156863
1.000000 0.505882 0.160784
1.000000 0.513725 0.164706
1.000000 0.517647 0.172549
0.039216 0.486275 0.094118
0.047059 0.494118 0.101961
0.062745 0.501961 0.109804
0.074510 0.505882 0.113725
0.090196 0.513725 0.121569
0.109804 0.517647 0.125490
0.129412 0.521569 0.129412
0.152941 0.525490 0.137255
0.180392 0.529412 0.137255
0.207843 0.533333 0.141176
0.247059 0.533333 0.141176
0.290196 0.533333 0.141176
0.337255 0.533333 0.141176
0.384314 0.533333 0.141176
0.431373 0.533333 0.141176
0.482353 0.533333 0.141176
0.529412 0.529412 0.137255
0.580392 0.529412 0.137255
0.627451 0.529412 0.137255
0.674510 0.529412 0.137255
0.721569 0.525490 0.133333
0.768627 0.525490 0.137255
0.811765 0.529412 0.137255
0.850980 0.529412 0.137255
0.886275 0.533333 0.141176
0.921569 0.537255 0.145098
0.952941 0.541176 0.149020
0.980392 0.545098 0.152941
0.996078 0.549020 0.156863
1.000000 0.552941 0.160784
1.000000 0.556863 0.164706
1.000000 0.560784 0.168627
0.039216 0.533333 0.094118
0.050980 0.537255 0.101961
0.062745 0.545098 0.109804
0.078431 0.552941 0.113725
0.090196 0.556863 0.121569
0.109804 0.560784 0.125490
0.129412 0.568627 0.133333
0.152941 0.572549 0.137255
0.176471 0.576471 0.137255
0.207843 0.576471 0.141176
0.247059 0.580392 0.141176
0.290196 0.580392 0.145098
0.333333 0.580392 0.141176
0.384314 0.576471 0.141176
0.431373 0.576471 0.141176
0.482353 0.576471 0.141176
0.529412 0.576471 0.141176
0.580392 0.576471 0.137255
0.627451 0.572549 0.137255
0.678431 0.572549 0.137255
0.725490 0.572549 0.137255
0.768627 0.572549 0.137255
0.811765 0.572549 0.137255
0.850980 0.576471 0.137255
0.886275 0.576471 0.141176
0.921569 0.580392 0.145098
0.952941 0.584314 0.149020
0.980392 0.588235 0.152941
0.996078 0.592157 0.156863
1.000000 0.596078 0.160784
1.000000 0.600000 0.164706
1.000000 0.603922 0.168627
0.039216 0.576471 0.098039
0.050980 0.584314 0.105882
0.062745 0.588235 0.109804
0.078431 0.596078 0.117647
0.094118 0.600000 0.121569
0.109804 0.607843 0.129412
0.129412 0.611765 0.133333
0.152941 0.615686 0.137255
0.180392 0.619608 0.141176
0.211765 0.623529 0.141176
0.247059 0.623529 0.145098
0.290196 0.623529 0.145098
0.337255 0.623529 0.145098
0.384314 0.623529 0.145098
0.435294 0.623529 0.145098
0.482353 0.619608 0.141176
0.529412 0.619608 0.141176
0.580392 0.619608 0.141176
0.631373 0.619608 0.141176
0.678431 0.619608 0.137255
0.725490 0.615686 0.137255
0.768627 0.615686 0.137255
0.811765 0.619608 0.137255
0.850980 0.619608 0.141176
0.886275 0.619608 0.141176
0.921569 0.623529 0.145098
0.952941 0.627451 0.149020
0.980392 0.631373 0.152941
0.996078 0.635294 0.156863
1.000000 0.639216 0.160784
1.000000 0.643137 0.164706
1.000000 0.647059 0.168627
0.043137 0.619608 0.098039
0.054902 0.627451 0.105882
0.066667 0.631373 0.113725
0.082353 0.639216 0.121569
0.098039 0.643137 0.125490
0.113725 0.650980 0.129412
0.133333 0.654902 0.137255
0.156863 0.658824 0.141176
0.184314 0.662745 0.145098
0.215686 0.666667 0.145098
0.250980 0.666667 0.149020
0.294118 0.666667 0.149020
0.341176 0.666667 0.149020
0.388235 0.666667 0.149020
0.435294 0.666667 0.149020
0.486275 0.666667 0.145098
0.533333 0.662745 0.145098
0.584314 0.662745 0.145098
0.631373 0.662745 0.145098
0.682353 0.662745 0.141176
0.725490 0.658824 0.141176
0.772549 0.658824 0.141176
0.815686 0.658824 0.141176
0.850980 0.662745 0.141176
0.890196 0.662745 0.145098
0.921569 0.666667 0.145098
0.952941 0.666667 0.149020
0.980392 0.670588 0.152941
0.996078 0.674510 0.156863
1.000000 0.678431 0.160784
1.000000 0.682353 0.164706
1.000000 0.686275 0.164706
0.050980 0.658824 0.105882
0.058824 0.666667 0.113725
0.074510 0.674510 0.117647
0.086275 0.682353 0.125490
0.101961 0.686275 0.129412
0.121569 0.694118 0.137255
0.141176 0.698039 0.141176
0.160784 0.701961 0.145098
0.188235 0.705882 0.149020
0.219608 0.709804 0.152941
0.258824 0.709804 0.152941
0.298039 0.709804 0.156863
0.345098 0.709804 0.156863
0.392157 0.709804 0.152941
0.443137 0.709804 0.152941
0.490196 0.709804 0.152941
0.537255 0.705882 0.152941
0.588235 0.705882 0.149020
0.635294 0.705882 0.149020
0.686275 0.701961 0.145098
0.729412 0.701961 0.145098
0.776471 0.701961 0.145098
0.815686 0.701961 0.145098
0.854902 0.701961 0.145098
0.890196 0.701961 0.149020
0.925490 0.705882 0.149020
0.952941 0.705882 0.152941
0.984314 0.709804 0.152941
0.996078 0.713725 0.156863
1.000000 0.717647 0.160784
1.000000 0.717647 0.164706
1.000000 0.721569 0.164706
0.058824 0.701961 0.113725
0.066667 0.709804 0.121569
0.082353 0.717647 0.125490
0.094118 0.721569 0.133333
0.109804 0.729412 0.141176
0.129412 0.733333 0.145098
0.149020 0.741176 0.149020
0.172549 0.745098 0.156863
0.196078 0.749020 0.156863
0.227451 0.752941 0.160784
0.266667 0.752941 0.164706
0.305882 0.752941 0.164706
0.352941 0.752941 0.164706
0.400000 0.752941 0.160784
0.447059 0.749020 0.160784
0.498039 0.749020 0.160784
0.545098 0.749020 0.156863
0.592157 0.745098 0.156863
0.643137 0.745098 0.152941
0.690196 0.741176 0.152941
0.737255 0.741176 0.152941
0.780392 0.741176 0.149020
0.819608 0.741176 0.149020
0.858824 0.741176 0.149020
0.894118 0.741176 0.149020
0.925490 0.741176 0.152941
0.956863 0.745098 0.152941
0.984314 0.745098 0.156863
0.996078 0.749020 0.156863
1.000000 0.749020 0.160784
1.000000 0.752941 0.164706
1.000000 0.756863 0.164706
0.070588 0.745098 0.121569
0.078431 0.752941 0.129412
0.094118 0.756863 0.137255
0.105882 0.764706 0.145098
0.121569 0.768627 0.149020
0.137255 0.776471 0.156863
0.156863 0.780392 0.160784
0.180392 0.784314 0.164706
0.207843 0.788235 0.168627
0.239216 0.792157 0.172549
0.274510 0.792157 0.172549
0.317647 0.792157 0.172549
0.360784 0.792157 0.172549
0.407843 0.792157 0.172549
0.458824 0.788235 0.168627
0.505882 0.788235 0.168627
0.552941 0.788235 0.164706
0.600000 0.784314 0.164706
0.647059 0.784314 0.160784
0.694118 0.780392 0.160784
0.741176 0.776471 0.156863
0.784314 0.776471 0.156863
0.827451 0.776471 0.156863
0.862745 0.776471 0.152941
0.898039 0.776471 0.156863
0.929412 0.776471 0.156863
0.960784 0.776471 0.156863
0.988235 0.780392 0.156863
0.996078 0.780392 0.160784
1.000000 0.784314 0.160784
1.000000 0.784314 0.164706
1.000000 0.784314 0.164706
0.082353 0.784314 0.137255
0.094118 0.792157 0.145098
0.105882 0.800000 0.149020
0.117647 0.803922 0.156863
0.133333 0.811765 0.164706
0.152941 0.815686 0.168627
0.172549 0.819608 0.172549
0.192157 0.823529 0.176471
0.219608 0.827451 0.180392
0.250980 0.831373 0.184314
0.286275 0.831373 0.184314
0.329412 0.831373 0.184314
0.372549 0.831373 0.184314
0.419608 0.827451 0.180392
0.466667 0.827451 0.180392
0.513725 0.823529 0.176471
0.560784 0.823529 0.176471
0.607843 0.819608 0.172549
0.654902 0.819608 0.168627
0.701961 0.815686 0.168627
0.749020 0.811765 0.164706
0.792157 0.811765 0.160784
0.831373 0.807843 0.160784
0.866667 0.807843 0.160784
0.901961 0.807843 0.160784
0.933333 0.807843 0.160784
0.960784 0.807843 0.160784
0.988235 0.811765 0.160784
1.000000 0.811765 0.164706
1.000000 0.811765 0.164706
1.000000 0.815686 0.164706
1.000000 0.815686 0.168627
0.098039 0.823529 0.149020
0.105882 0.831373 0.156863
0.121569 0.835294 0.164706
0.133333 0.843137 0.172549
0.149020 0.847059 0.176471
0.164706 0.854902 0.180392
0.184314 0.858824 0.188235
0.207843 0.862745 0.192157
0.231373 0.866667 0.192157
0.262745 0.866667 0.196078
0.298039 0.866667 0.196078
0.337255 0.866667 0.196078
0.384314 0.866667 0.192157
0.431373 0.862745 0.192157
0.474510 0.862745 0.188235
0.521569 0.858824 0.188235
0.568627 0.854902 0.184314
0.615686 0.854902 0.180392
0.662745 0.850980 0.176471
0.709804 0.847059 0.172549
0.752941 0.843137 0.172549
0.796078 0.843137 0.168627
0.835294 0.839216 0.168627
0.874510 0.839216 0.164706
0.905882 0.839216 0.164706
0.937255 0.839216 0.164706
0.964706 0.839216 0.164706
0.992157 0.839216 0.164706
1.000000 0.839216 0.164706
1.000000 0.839216 0.168627
1.000000 0.839216 0.168627
1.000000 0.843137 0.168627
0.113725 0.862745 0.164706
0.121569 0.866667 0.172549
0.133333 0.874510 0.180392
0.149020 0.882353 0.184314
0.164706 0.886275 0.192157
0.180392 0.890196 0.196078
0.200000 0.894118 0.200000
0.219608 0.898039 0.203922
0.243137 0.901961 0.207843
0.274510 0.901961 0.207843
0.309804 0.901961 0.207843
0.349020 0.901961 0.207843
0.396078 0.898039 0.203922
0.439216 0.898039 0.203922
0.486275 0.894118 0.200000
0.533333 0.890196 0.196078
0.576471 0.886275 0.192157
0.623529 0.886275 0.188235
0.670588 0.882353 0.184314
0.717647 0.878431 0.180392
0.760784 0.874510 0.176471
0.803922 0.870588 0.176471
