luts/BlueBoost.cube
#Generated by wwww.onlinelutcreator.com 
LUT_3D_SIZE 5 
DOMAIN_MIN 0.000000 0.000000 0.000000
DOMAIN_MAX 0.903226 0.903226 0.903226
0.098039 0.000000 0.152941
0.184314 0.000000 0.141176
0.411765 0.000000 0.105882
0.698039 0.000000 0.062745
0.901961 0.000000 0.050980
0.090196 0.164706 0.149020
0.176471 0.172549 0.152941
0.435294 0.043137 0.129412
0.741176 0.019608 0.105882
0.968627 0.027451 0.117647
0.047059 0.317647 0.101961
0.152941 0.349020 0.133333
0.435294 0.352941 0.137255
0.768627 0.349020 0.133333
0.996078 0.368627 0.152941
0.043137 0.619608 0.098039
0.156863 0.658824 0.141176
0.435294 0.666667 0.149020
0.772549 0.658824 0.141176
0.996078 0.674510 0.156863
0.129412 0.898039 0.180392
0.231373 0.933333 0.215686
0.494118 0.925490 0.207843
0.807843 0.898039 0.180392
1.000000 0.890196 0.172549
0.086275 0.000000 0.317647
0.164706 0.000000 0.286275
0.400000 0.000000 0.235294
0.694118 0.000000 0.188235
0.898039 0.000000 0.172549
0.078431 0.058824 0.321569
0.160784 0.070588 0.309804
0.435294 0.043137 0.254902
0.745098 0.023529 0.235294
0.976471 0.035294 0.250980
0.043137 0.321569 0.278431
0.141176 0.439216 0.294118
0.403922 0.435294 0.274510
0.776471 0.356863 0.266667
0.996078 0.376471 0.286275
0.047059 0.623529 0.274510
0.156863 0.666667 0.309804
0.439216 0.674510 0.305882
0.776471 0.666667 0.282353
0.996078 0.678431 0.290196
0.133333 0.901961 0.349020
0.231373 0.937255 0.380392
0.490196 0.925490 0.360784
0.803922 0.898039 0.321569
1.000000 0.886275 0.305882
0.074510 0.000000 0.592157
0.141176 0.000000 0.576471
0.380392 0.000000 0.529412
0.678431 0.000000 0.474510
0.886275 0.000000 0.458824
0.070588 0.047059 0.600000
0.141176 0.058824 0.607843
0.411765 0.039216 0.560784
0.737255 0.019608 0.529412
0.972549 0.035294 0.541176
0.043137 0.317647 0.576471
0.133333 0.360784 0.619608
0.419608 0.372549 0.592157
0.780392 0.356863 0.556863
1.000000 0.376471 0.580392
0.047059 0.623529 0.572549
0.149020 0.670588 0.615686
0.407843 0.701961 0.592157
0.756863 0.682353 0.564706
0.996078 0.678431 0.576471
0.129412 0.901961 0.643137
0.231373 0.933333 0.666667
0.486275 0.917647 0.643137
0.800000 0.886275 0.603922
0.996078 0.874510 0.584314
0.062745 0.000000 0.866667
0.125490 0.000000 0.862745
0.360784 0.000000 0.819608
0.662745 0.000000 0.768627
0.874510 0.000000 0.752941
0.062745 0.035294 0.874510
0.133333 0.050980 0.890196
0.396078 0.039216 0.866667
0.729412 0.019608 0.839216
0.972549 0.035294 0.850980
0.043137 0.317647 0.858824
0.137255 0.364706 0.905882
0.407843 0.368627 0.905882
0.764706 0.360784 0.878431
0.996078 0.380392 0.890196
0.050980 0.627451 0.866667
0.152941 0.670588 0.905882
0.431373 0.678431 0.905882
0.764706 0.670588 0.878431
0.996078 0.674510 0.874510
0.129412 0.898039 0.929412
0.227451 0.925490 0.952941
0.482353 0.913725 0.929412
0.792157 0.878431 0.890196
0.996078 0.866667 0.870588
0.058824 0.000000 1.000000
0.121569 0.000000 1.000000
0.352941 0.000000 0.996078
0.654902 0.000000 0.964706
0.874510 0.000000 0.952941
0.062745 0.035294 1.000000
0.141176 0.054902 1.000000
0.396078 0.043137 1.000000
0.729412 0.027451 1.000000
0.976471 0.043137 1.000000
0.054902 0.329412 1.000000
0.149020 0.372549 1.000000
0.419608 0.380392 1.000000
0.764706 0.372549 1.000000
1.000000 0.388235 1.000000
0.062745 0.639216 1.000000
0.168627 0.682353 1.000000
0.439216 0.686275 1.000000
0.772549 0.674510 1.000000
0.996078 0.678431 1.000000
0.137255 0.905882 1.000000
0.231373 0.929412 1.000000
0.486275 0.909804 1.000000
0.792157 0.874510 1.000000
0.996078 0.862745 1.000000
