luts/BlueBoost.cube
#Generated by wwww.onlinelutcreator.com 
LUT_3D_SIZE 8 
DOMAIN_MIN 0.000000 0.000000 0.000000
DOMAIN_MAX 0.903226 0.903226 0.903226
0.098039 0.000000 0.152941
0.141176 0.000000 0.145098
0.203922 0.000000 0.137255
0.329412 0.000000 0.121569
0.494118 0.000000 0.094118
0.662745 0.000000 0.070588
0.800000 0.000000 0.054902
0.901961 0.000000 0.050980
0.094118 0.066667 0.152941
0.141176 0.074510 0.152941
0.207843 0.023529 0.149020
0.341176 0.000000 0.129412
0.509804 0.000000 0.105882
0.682353 0.000000 0.086275
0.823529 0.000000 0.078431
0.933333 0.000000 0.082353
0.086275 0.176471 0.145098
0.125490 0.207843 0.149020
0.192157 0.196078 0.152941
0.345098 0.098039 0.137255
0.525490 0.074510 0.125490
0.705882 0.062745 0.113725
0.862745 0.062745 0.113725
0.980392 0.078431 0.129412
0.058824 0.239216 0.113725
0.101961 0.258824 0.129412
0.184314 0.270588 0.141176
0.341176 0.262745 0.141176
0.533333 0.258824 0.133333
0.721569 0.254902 0.129412
0.882353 0.258824 0.137255
0.996078 0.274510 0.152941
0.039216 0.400000 0.098039
0.090196 0.423529 0.121569
0.180392 0.443137 0.137255
0.337255 0.443137 0.141176
0.529412 0.439216 0.137255
0.725490 0.435294 0.133333
0.886275 0.443137 0.141176
0.996078 0.458824 0.156863
0.039216 0.576471 0.098039
0.094118 0.600000 0.121569
0.180392 0.619608 0.141176
0.337255 0.623529 0.145098
0.529412 0.619608 0.141176
0.725490 0.615686 0.137255
0.886275 0.619608 0.141176
0.996078 0.635294 0.156863
0.070588 0.745098 0.121569
0.121569 0.768627 0.149020
0.207843 0.788235 0.168627
0.360784 0.792157 0.172549
0.552941 0.788235 0.164706
0.741176 0.776471 0.156863
0.898039 0.776471 0.156863
0.996078 0.780392 0.160784
0.129412 0.898039 0.180392
0.176471 0.921569 0.203922
0.258824 0.933333 0.219608
0.403922 0.929412 0.215686
0.584314 0.917647 0.200000
0.768627 0.901961 0.184314
0.913725 0.890196 0.172549
1.000000 0.890196 0.172549
0.090196 0.000000 0.247059
0.125490 0.000000 0.227451
0.196078 0.000000 0.207843
0.325490 0.000000 0.188235
0.490196 0.000000 0.160784
0.658824 0.000000 0.133333
0.796078 0.000000 0.117647
0.898039 0.000000 0.113725
0.086275 0.000000 0.258824
0.121569 0.003922 0.243137
0.207843 0.003922 0.207843
0.337255 0.000000 0.192157
0.505882 0.000000 0.172549
0.678431 0.000000 0.152941
0.823529 0.000000 0.145098
0.933333 0.000000 0.149020
0.078431 0.125490 0.243137
0.113725 0.203922 0.243137
0.192157 0.207843 0.223529
0.333333 0.145098 0.207843
0.529412 0.078431 0.192157
0.709804 0.066667 0.180392
0.866667 0.066667 0.184314
0.984314 0.082353 0.196078
0.054902 0.239216 0.215686
0.098039 0.329412 0.227451
0.168627 0.364706 0.227451
0.313725 0.352941 0.219608
0.533333 0.270588 0.207843
0.729412 0.258824 0.200000
0.890196 0.262745 0.207843
0.996078 0.278431 0.219608
0.039216 0.403922 0.196078
0.090196 0.427451 0.219608
0.176471 0.450980 0.231373
0.337255 0.458824 0.227451
0.533333 0.447059 0.215686
0.729412 0.443137 0.207843
0.890196 0.447059 0.211765
0.996078 0.462745 0.227451
0.043137 0.580392 0.196078
0.094118 0.603922 0.219608
0.180392 0.623529 0.235294
0.337255 0.627451 0.231373
0.533333 0.623529 0.223529
0.729412 0.623529 0.215686
0.890196 0.623529 0.215686
0.996078 0.639216 0.227451
0.070588 0.749020 0.219608
0.121569 0.772549 0.247059
0.207843 0.792157 0.262745
0.360784 0.796078 0.262745
0.552941 0.788235 0.250980
0.741176 0.780392 0.235294
0.898039 0.776471 0.227451
0.996078 0.780392 0.231373
0.129412 0.901961 0.274510
0.176471 0.921569 0.298039
0.254902 0.937255 0.309804
0.400000 0.933333 0.301961
0.584314 0.917647 0.282353
0.764706 0.901961 0.262745
0.913725 0.890196 0.247059
1.000000 0.886275 0.243137
0.086275 0.000000 0.345098
0.113725 0.000000 0.333333
0.180392 0.000000 0.309804
0.313725 0.000000 0.282353
0.482353 0.000000 0.250980
0.650980 0.000000 0.223529
0.792157 0.000000 0.207843
0.894118 0.000000 0.203922
0.082353 0.000000 0.356863
0.105882 0.000000 0.352941
0.188235 0.000000 0.317647
0.329412 0.000000 0.290196
0.501961 0.000000 0.262745
0.678431 0.000000 0.243137
0.823529 0.000000 0.235294
0.937255 0.000000 0.239216
0.074510 0.090196 0.349020
0.098039 0.101961 0.360784
0.180392 0.105882 0.341176
0.349020 0.090196 0.294118
0.529412 0.078431 0.282353
0.713725 0.070588 0.274510
0.866667 0.070588 0.278431
0.988235 0.086275 0.290196
0.054902 0.239216 0.321569
0.090196 0.290196 0.333333
0.160784 0.364706 0.325490
0.317647 0.360784 0.298039
0.513725 0.317647 0.294118
0.733333 0.262745 0.294118
0.894118 0.266667 0.298039
0.996078 0.282353 0.313725
0.043137 0.403922 0.305882
0.086275 0.435294 0.329412
0.164706 0.509804 0.329412
0.309804 0.517647 0.317647
0.501961 0.501961 0.301961
0.729412 0.450980 0.301961
0.898039 0.450980 0.305882
1.000000 0.466667 0.321569
0.047059 0.580392 0.305882
0.094118 0.607843 0.329412
0.176471 0.627451 0.345098
0.333333 0.639216 0.341176
0.529412 0.635294 0.325490
0.733333 0.627451 0.313725
0.894118 0.627451 0.309804
1.000000 0.639216 0.321569
0.074510 0.752941 0.329412
0.121569 0.780392 0.356863
0.207843 0.796078 0.372549
0.360784 0.800000 0.368627
0.552941 0.792157 0.352941
0.741176 0.784314 0.333333
0.898039 0.776471 0.325490
1.000000 0.780392 0.321569
0.133333 0.901961 0.384314
0.176471 0.925490 0.403922
0.254902 0.937255 0.411765
0.400000 0.933333 0.400000
0.584314 0.917647 0.380392
0.764706 0.898039 0.356863
0.909804 0.886275 0.341176
1.000000 0.886275 0.333333
0.078431 0.000000 0.509804
0.101961 0.000000 0.501961
0.168627 0.000000 0.482353
0.301961 0.000000 0.454902
0.470588 0.000000 0.419608
0.643137 0.000000 0.392157
0.784314 0.000000 0.372549
0.890196 0.000000 0.368627
0.074510 0.000000 0.517647
0.098039 0.000000 0.513725
0.168627 0.000000 0.498039
0.313725 0.000000 0.466667
0.490196 0.000000 0.435294
0.670588 0.000000 0.415686
0.819608 0.000000 0.403922
0.933333 0.000000 0.407843
0.070588 0.082353 0.513725
0.094118 0.094118 0.525490
0.164706 0.101961 0.521569
0.329412 0.090196 0.482353
0.521569 0.078431 0.458824
0.709804 0.066667 0.447059
0.866667 0.070588 0.447059
0.988235 0.086275 0.462745
0.050980 0.235294 0.494118
0.082353 0.258824 0.517647
0.156863 0.274510 0.533333
0.325490 0.278431 0.505882
0.545098 0.266667 0.466667
0.733333 0.262745 0.466667
0.894118 0.266667 0.470588
0.996078 0.282353 0.486275
0.043137 0.403922 0.482353
0.082353 0.435294 0.509804
0.160784 0.478431 0.513725
0.301961 0.517647 0.486275
0.501961 0.501961 0.458824
0.701961 0.478431 0.454902
0.898039 0.450980 0.474510
1.000000 0.466667 0.490196
0.043137 0.580392 0.478431
0.090196 0.611765 0.509804
0.168627 0.631373 0.525490
0.313725 0.666667 0.501961
0.505882 0.658824 0.486275
0.705882 0.647059 0.470588
0.890196 0.631373 0.478431
1.000000 0.639216 0.486275
0.074510 0.752941 0.505882
0.121569 0.780392 0.533333
0.203922 0.796078 0.545098
0.356863 0.800000 0.545098
0.545098 0.792157 0.525490
0.733333 0.784314 0.501961
0.898039 0.776471 0.490196
0.996078 0.776471 0.490196
0.129412 0.901961 0.556863
0.176471 0.925490 0.572549
0.254902 0.933333 0.576471
0.400000 0.929412 0.568627
0.580392 0.913725 0.545098
0.760784 0.894118 0.521569
0.905882 0.882353 0.505882
1.000000 0.878431 0.498039
0.070588 0.000000 0.674510
0.094118 0.000000 0.674510
0.156863 0.000000 0.658824
0.286275 0.000000 0.631373
0.458824 0.000000 0.600000
0.631373 0.000000 0.568627
0.776471 0.000000 0.552941
0.882353 0.000000 0.545098
0.070588 0.000000 0.682353
0.094118 0.000000 0.682353
0.156863 0.000000 0.674510
0.298039 0.000000 0.650980
0.478431 0.000000 0.619608
0.658824 0.000000 0.596078
0.811765 0.000000 0.584314
0.929412 0.000000 0.592157
0.062745 0.078431 0.682353
0.090196 0.090196 0.694118
0.160784 0.098039 0.694118
0.313725 0.090196 0.674510
0.509804 0.078431 0.650980
0.701961 0.066667 0.635294
0.862745 0.070588 0.635294
0.984314 0.082353 0.647059
0.047059 0.235294 0.666667
0.082353 0.254902 0.694118
0.156863 0.274510 0.709804
0.309804 0.278431 0.701961
0.525490 0.266667 0.670588
0.729412 0.262745 0.654902
0.890196 0.266667 0.654902
0.996078 0.282353 0.670588
0.043137 0.403922 0.658824
0.082353 0.435294 0.690196
0.160784 0.454902 0.705882
0.313725 0.458824 0.709804
0.517647 0.458824 0.678431
0.733333 0.447059 0.650980
0.898039 0.450980 0.654902
1.000000 0.466667 0.670588
0.043137 0.580392 0.658824
0.090196 0.611765 0.686275
0.168627 0.631373 0.701961
0.313725 0.654902 0.686275
0.498039 0.658824 0.666667
0.709804 0.643137 0.643137
0.874510 0.639216 0.643137
0.996078 0.639216 0.666667
0.074510 0.752941 0.686275
0.121569 0.780392 0.709804
0.203922 0.796078 0.721569
0.356863 0.800000 0.717647
0.533333 0.796078 0.690196
0.721569 0.784314 0.678431
0.886275 0.772549 0.662745
0.996078 0.772549 0.662745
0.129412 0.901961 0.729412
0.176471 0.921569 0.745098
0.250980 0.929412 0.749020
0.396078 0.925490 0.741176
0.576471 0.909804 0.717647
0.752941 0.890196 0.694118
0.901961 0.878431 0.678431
0.996078 0.874510 0.670588
0.062745 0.000000 0.831373
0.086275 0.000000 0.831373
0.149020 0.000000 0.823529
0.278431 0.000000 0.800000
0.450980 0.000000 0.768627
0.623529 0.000000 0.737255
0.768627 0.000000 0.721569
0.878431 0.000000 0.717647
0.062745 0.000000 0.839216
0.090196 0.000000 0.843137
0.152941 0.000000 0.835294
0.290196 0.000000 0.815686
0.466667 0.000000 0.792157
0.650980 0.000000 0.768627
0.807843 0.000000 0.760784
0.925490 0.000000 0.764706
0.062745 0.074510 0.839216
0.090196 0.086275 0.850980
0.160784 0.094118 0.858824
0.305882 0.086275 0.847059
0.498039 0.078431 0.827451
0.694118 0.066667 0.811765
0.858824 0.070588 0.811765
0.984314 0.086275 0.823529
0.047059 0.231373 0.827451
0.082353 0.254902 0.854902
0.160784 0.274510 0.870588
0.313725 0.278431 0.870588
0.513725 0.270588 0.854902
0.717647 0.266667 0.835294
0.886275 0.266667 0.835294
0.996078 0.282353 0.847059
0.043137 0.407843 0.823529
0.082353 0.435294 0.854902
0.164706 0.454902 0.870588
0.313725 0.458824 0.874510
0.509804 0.454902 0.866667
0.721569 0.450980 0.843137
0.894118 0.454902 0.835294
1.000000 0.466667 0.850980
0.047059 0.584314 0.823529
0.090196 0.611765 0.850980
0.172549 0.631373 0.870588
0.325490 0.639216 0.870588
0.521569 0.635294 0.862745
0.717647 0.631373 0.843137
0.894118 0.627451 0.827451
0.996078 0.635294 0.839216
0.074510 0.752941 0.850980
0.125490 0.780392 0.874510
0.207843 0.796078 0.886275
0.356863 0.800000 0.882353
0.537255 0.792157 0.854902
0.721569 0.780392 0.843137
0.882353 0.768627 0.831373
0.996078 0.768627 0.831373
0.129412 0.898039 0.894118
0.176471 0.917647 0.909804
0.250980 0.929412 0.913725
0.396078 0.921569 0.901961
0.572549 0.901961 0.882353
0.749020 0.882353 0.858824
0.898039 0.870588 0.843137
0.996078 0.866667 0.835294
0.058824 0.000000 0.952941
0.082353 0.000000 0.956863
0.141176 0.000000 0.949020
0.270588 0.000000 0.929412
0.443137 0.000000 0.901961
0.615686 0.000000 0.874510
0.764706 0.000000 0.854902
0.874510 0.000000 0.850980
0.058824 0.000000 0.960784
0.086275 0.000000 0.964706
0.149020 0.000000 0.964706
0.282353 0.000000 0.949020
0.462745 0.000000 0.925490
0.647059 0.000000 0.905882
0.803922 0.000000 0.898039
0.925490 0.000000 0.905882
0.058824 0.070588 0.964706
0.090196 0.086275 0.976471
0.160784 0.094118 0.984314
0.305882 0.090196 0.976471
0.498039 0.078431 0.964706
0.694118 0.070588 0.952941
0.858824 0.074510 0.952941
0.984314 0.086275 0.964706
0.050980 0.235294 0.956863
0.090196 0.258824 0.980392
0.164706 0.274510 0.992157
0.317647 0.282353 0.996078
0.513725 0.274510 0.988235
0.713725 0.270588 0.980392
0.882353 0.270588 0.976471
0.996078 0.286275 0.988235
0.047059 0.411765 0.952941
0.090196 0.439216 0.980392
0.168627 0.458824 0.996078
0.321569 0.462745 0.996078
0.513725 0.458824 0.992157
0.713725 0.454902 0.988235
0.890196 0.458824 0.984314
1.000000 0.470588 0.992157
0.050980 0.588235 0.956863
0.094118 0.615686 0.980392
0.180392 0.635294 0.996078
0.333333 0.639216 0.996078
0.525490 0.635294 0.992157
0.717647 0.631373 0.984314
0.886275 0.631373 0.980392
0.996078 0.635294 0.980392
0.078431 0.756863 0.980392
0.129412 0.784314 0.996078
0.211765 0.800000 1.000000
0.360784 0.800000 0.996078
0.545098 0.788235 0.996078
0.733333 0.776471 0.984314
0.886275 0.768627 0.972549
0.996078 0.768627 0.968627
0.133333 0.901961 1.000000
0.176471 0.917647 1.000000
0.250980 0.925490 1.000000
0.396078 0.917647 1.000000
0.572549 0.901961 0.996078
0.749020 0.882353 0.988235
0.894118 0.866667 0.976471
0.996078 0.862745 0.968627
0.058824 0.000000 1.000000
0.082353 0.000000 1.000000
0.141176 0.000000 1.000000
0.270588 0.000000 1.000000
0.439216 0.000000 0.992157
0.615686 0.000000 0.968627
0.764706 0.000000 0.952941
0.874510 0.000000 0.952941
0.058824 0.000000 1.000000
0.086275 0.000000 1.000000
0.149020 0.000000 1.000000
0.286275 0.000000 1.000000
0.462745 0.000000 1.000000
0.647059 0.000000 0.996078
0.807843 0.000000 0.996078
0.929412 0.000000 0.996078
0.062745 0.070588 1.000000
0.094118 0.086275 1.000000
0.164706 0.094118 1.000000
0.309804 0.094118 1.000000
0.501961 0.086275 1.000000
0.694118 0.078431 1.000000
0.862745 0.078431 1.000000
0.988235 0.094118 1.000000
0.054902 0.239216 1.000000
0.098039 0.262745 1.000000
0.172549 0.282353 1.000000
0.325490 0.286275 1.000000
0.517647 0.282353 1.000000
0.717647 0.278431 1.000000
0.886275 0.278431 1.000000
0.996078 0.294118 1.000000
0.054902 0.415686 1.000000
0.098039 0.443137 1.000000
0.176471 0.462745 1.000000
0.329412 0.470588 1.000000
0.521569 0.466667 1.000000
0.717647 0.462745 1.000000
0.890196 0.466667 1.000000
1.000000 0.478431 1.000000
0.058824 0.592157 1.000000
0.105882 0.623529 1.000000
0.188235 0.643137 1.000000
0.341176 0.647059 1.000000
0.533333 0.643137 1.000000
0.725490 0.635294 1.000000
0.886275 0.635294 1.000000
0.996078 0.643137 1.000000
0.086275 0.764706 1.000000
0.137255 0.788235 1.000000
0.215686 0.803922 1.000000
0.364706 0.803922 1.000000
0.552941 0.792157 1.000000
0.737255 0.776471 1.000000
0.886275 0.768627 1.000000
0.996078 0.768627 1.000000
0.137255 0.905882 1.000000
0.180392 0.921569 1.000000
0.254902 0.929412 1.000000
0.400000 0.921569 1.000000
0.576471 0.901961 1.000000
0.749020 0.882353 1.000000
0.894118 0.866667 1.000000
0.996078 0.862745 1.000000
