luts/BW Flat.cube
#Generated by wwww.onlinelutcreator.com 
LUT_3D_SIZE 8 
DOMAIN_MIN 0.000000 0.000000 0.000000
DOMAIN_MAX 0.903226 0.903226 0.903226
0.137255 0.137255 0.137255
0.160784 0.160784 0.160784
0.184314 0.184314 0.184314
0.207843 0.207843 0.207843
0.223529 0.223529 0.223529
0.247059 0.247059 0.247059
0.270588 0.270588 0.270588
0.290196 0.290196 0.290196
0.184314 0.184314 0.184314
0.207843 0.207843 0.207843
0.223529 0.223529 0.223529
0.247059 0.247059 0.247059
0.266667 0.266667 0.266667
0.290196 0.290196 0.290196
0.309804 0.309804 0.309804
0.329412 0.329412 0.329412
0.223529 0.223529 0.223529
0.247059 0.247059 0.247059
0.266667 0.266667 0.266667
0.290196 0.290196 0.290196
0.305882 0.305882 0.305882
0.329412 0.329412 0.329412
0.352941 0.352941 0.352941
0.372549 0.372549 0.372549
0.266667 0.266667 0.266667
0.286275 0.286275 0.286275
0.305882 0.305882 0.305882
0.329412 0.329412 0.329412
0.349020 0.349020 0.349020
0.372549 0.372549 0.372549
0.400000 0.400000 0.400000
0.419608 0.419608 0.419608
0.305882 0.305882 0.305882
0.329412 0.329412 0.329412
0.349020 0.349020 0.349020
0.372549 0.372549 0.372549
0.396078 0.396078 0.396078
0.419608 0.419608 0.419608
0.447059 0.447059 0.447059
0.474510 0.474510 0.474510
0.349020 0.349020 0.349020
0.368627 0.368627 0.368627
0.396078 0.396078 0.396078
0.419608 0.419608 0.419608
0.443137 0.443137 0.443137
0.474510 0.474510 0.474510
0.501961 0.501961 0.501961
0.533333 0.533333 0.533333
0.396078 0.396078 0.396078
0.415686 0.415686 0.415686
0.443137 0.443137 0.443137
0.474510 0.474510 0.474510
0.501961 0.501961 0.501961
0.533333 0.533333 0.533333
0.564706 0.564706 0.564706
0.596078 0.596078 0.596078
0.443137 0.443137 0.443137
0.470588 0.470588 0.470588
0.501961 0.501961 0.501961
0.533333 0.533333 0.533333
0.564706 0.564706 0.564706
0.596078 0.596078 0.596078
0.627451 0.627451 0.627451
0.662745 0.662745 0.662745
0.149020 0.149020 0.149020
0.172549 0.172549 0.172549
0.192157 0.192157 0.192157
0.215686 0.215686 0.215686
0.235294 0.235294 0.235294
0.258824 0.258824 0.258824
0.278431 0.278431 0.278431
0.294118 0.294118 0.294118
0.192157 0.192157 0.192157
0.211765 0.211765 0.211765
0.235294 0.235294 0.235294
0.258824 0.258824 0.258824
0.274510 0.274510 0.274510
0.294118 0.294118 0.294118
0.317647 0.317647 0.317647
0.337255 0.337255 0.337255
0.235294 0.235294 0.235294
0.254902 0.254902 0.254902
0.274510 0.274510 0.274510
0.294118 0.294118 0.294118
0.317647 0.317647 0.317647
0.337255 0.337255 0.337255
0.360784 0.360784 0.360784
0.380392 0.380392 0.380392
0.274510 0.274510 0.274510
0.294118 0.294118 0.294118
0.317647 0.317647 0.317647
0.337255 0.337255 0.337255
0.360784 0.360784 0.360784
0.380392 0.380392 0.380392
0.403922 0.403922 0.403922
0.431373 0.431373 0.431373
0.317647 0.317647 0.317647
0.333333 0.333333 0.333333
0.360784 0.360784 0.360784
0.380392 0.380392 0.380392
0.403922 0.403922 0.403922
0.431373 0.431373 0.431373
0.454902 0.454902 0.454902
0.486275 0.486275 0.486275
0.360784 0.360784 0.360784
0.380392 0.380392 0.380392
0.403922 0.403922 0.403922
0.431373 0.431373 0.431373
0.454902 0.454902 0.454902
0.486275 0.486275 0.486275
0.513725 0.513725 0.513725
0.549020 0.549020 0.549020
0.403922 0.403922 0.403922
0.427451 0.427451 0.427451
0.454902 0.454902 0.454902
0.482353 0.482353 0.482353
0.513725 0.513725 0.513725
0.549020 0.549020 0.549020
0.576471 0.576471 0.576471
0.611765 0.611765 0.611765
0.454902 0.454902 0.454902
0.482353 0.482353 0.482353
0.513725 0.513725 0.513725
0.545098 0.545098 0.545098
0.576471 0.576471 0.576471
0.611765 0.611765 0.611765
0.643137 0.643137 0.643137
0.678431 0.678431 0.678431
0.156863 0.156863 0.156863
0.180392 0.180392 0.180392
0.200000 0.200000 0.200000
0.219608 0.219608 0.219608
0.243137 0.243137 0.243137
0.262745 0.262745 0.262745
0.286275 0.286275 0.286275
0.301961 0.301961 0.301961
0.200000 0.200000 0.200000
0.219608 0.219608 0.219608
0.243137 0.243137 0.243137
0.262745 0.262745 0.262745
0.282353 0.282353 0.282353
0.301961 0.301961 0.301961
0.325490 0.325490 0.325490
0.345098 0.345098 0.345098
0.243137 0.243137 0.243137
0.258824 0.258824 0.258824
0.282353 0.282353 0.282353
0.301961 0.301961 0.301961
0.325490 0.325490 0.325490
0.345098 0.345098 0.345098
0.368627 0.368627 0.368627
0.392157 0.392157 0.392157
0.282353 0.282353 0.282353
0.301961 0.301961 0.301961
0.325490 0.325490 0.325490
0.345098 0.345098 0.345098
0.368627 0.368627 0.368627
0.392157 0.392157 0.392157
0.411765 0.411765 0.411765
0.443137 0.443137 0.443137
0.325490 0.325490 0.325490
0.345098 0.345098 0.345098
0.368627 0.368627 0.368627
0.388235 0.388235 0.388235
0.411765 0.411765 0.411765
0.443137 0.443137 0.443137
0.466667 0.466667 0.466667
0.498039 0.498039 0.498039
0.368627 0.368627 0.368627
0.388235 0.388235 0.388235
0.411765 0.411765 0.411765
0.439216 0.439216 0.439216
0.466667 0.466667 0.466667
0.498039 0.498039 0.498039
0.525490 0.525490 0.525490
0.556863 0.556863 0.556863
0.411765 0.411765 0.411765
0.439216 0.439216 0.439216
0.466667 0.466667 0.466667
0.494118 0.494118 0.494118
0.525490 0.525490 0.525490
0.556863 0.556863 0.556863
0.588235 0.588235 0.588235
0.627451 0.627451 0.627451
0.462745 0.462745 0.462745
0.494118 0.494118 0.494118
0.525490 0.525490 0.525490
0.552941 0.552941 0.552941
0.588235 0.588235 0.588235
0.627451 0.627451 0.627451
0.658824 0.658824 0.658824
0.694118 0.694118 0.694118
0.164706 0.164706 0.164706
0.184314 0.184314 0.184314
0.211765 0.211765 0.211765
0.231373 0.231373 0.231373
0.250980 0.250980 0.250980
0.270588 0.270588 0.270588
0.294118 0.294118 0.294118
0.313725 0.313725 0.313725
0.211765 0.211765 0.211765
0.227451 0.227451 0.227451
0.250980 0.250980 0.250980
0.270588 0.270588 0.270588
0.294118 0.294118 0.294118
0.313725 0.313725 0.313725
0.329412 0.329412 0.329412
0.356863 0.356863 0.356863
0.250980 0.250980 0.250980
0.270588 0.270588 0.270588
0.294118 0.294118 0.294118
0.309804 0.309804 0.309804
0.329412 0.329412 0.329412
0.356863 0.356863 0.356863
0.376471 0.376471 0.376471
0.403922 0.403922 0.403922
0.294118 0.294118 0.294118
0.309804 0.309804 0.309804
0.329412 0.329412 0.329412
0.352941 0.352941 0.352941
0.376471 0.376471 0.376471
0.403922 0.403922 0.403922
0.423529 0.423529 0.423529
0.450980 0.450980 0.450980
0.329412 0.329412 0.329412
0.352941 0.352941 0.352941
0.376471 0.376471 0.376471
0.400000 0.400000 0.400000
0.423529 0.423529 0.423529
0.450980 0.450980 0.450980
0.478431 0.478431 0.478431
0.509804 0.509804 0.509804
0.372549 0.372549 0.372549
0.400000 0.400000 0.400000
0.423529 0.423529 0.423529
0.447059 0.447059 0.447059
0.478431 0.478431 0.478431
0.509804 0.509804 0.509804
0.541176 0.541176 0.541176
0.572549 0.572549 0.572549
0.419608 0.419608 0.419608
0.447059 0.447059 0.447059
0.478431 0.478431 0.478431
0.505882 0.505882 0.505882
0.541176 0.541176 0.541176
0.572549 0.572549 0.572549
0.603922 0.603922 0.603922
0.639216 0.639216 0.639216
0.474510 0.474510 0.474510
0.505882 0.505882 0.505882
0.541176 0.541176 0.541176
0.568627 0.568627 0.568627
0.603922 0.603922 0.603922
0.635294 0.635294 0.635294
0.670588 0.670588 0.670588
0.705882 0.705882 0.705882
0.176471 0.176471 0.176471
0.196078 0.196078 0.196078
0.219608 0.219608 0.219608
0.235294 0.235294 0.235294
0.258824 0.258824 0.258824
0.282353 0.282353 0.282353
0.298039 0.298039 0.298039
0.321569 0.321569 0.321569
0.219608 0.219608 0.219608
0.235294 0.235294 0.235294
0.258824 0.258824 0.258824
0.278431 0.278431 0.278431
0.298039 0.298039 0.298039
0.321569 0.321569 0.321569
0.341176 0.341176 0.341176
0.364706 0.364706 0.364706
0.258824 0.258824 0.258824
0.278431 0.278431 0.278431
0.298039 0.298039 0.298039
0.317647 0.317647 0.317647
0.341176 0.341176 0.341176
0.364706 0.364706 0.364706
0.384314 0.384314 0.384314
0.411765 0.411765 0.411765
0.294118 0.294118 0.294118
0.317647 0.317647 0.317647
0.341176 0.341176 0.341176
0.360784 0.360784 0.360784
0.384314 0.384314 0.384314
0.411765 0.411765 0.411765
0.435294 0.435294 0.435294
0.462745 0.462745 0.462745
0.337255 0.337255 0.337255
0.360784 0.360784 0.360784
0.384314 0.384314 0.384314
0.407843 0.407843 0.407843
0.435294 0.435294 0.435294
0.462745 0.462745 0.462745
0.490196 0.490196 0.490196
0.521569 0.521569 0.521569
0.380392 0.380392 0.380392
0.407843 0.407843 0.407843
0.435294 0.435294 0.435294
0.458824 0.458824 0.458824
0.490196 0.490196 0.490196
0.517647 0.517647 0.517647
0.552941 0.552941 0.552941
0.588235 0.588235 0.588235
0.431373 0.431373 0.431373
0.458824 0.458824 0.458824
0.490196 0.490196 0.490196
0.517647 0.517647 0.517647
0.552941 0.552941 0.552941
0.584314 0.584314 0.584314
0.615686 0.615686 0.615686
0.654902 0.654902 0.654902
0.486275 0.486275 0.486275
0.517647 0.517647 0.517647
0.552941 0.552941 0.552941
0.584314 0.584314 0.584314
0.615686 0.615686 0.615686
0.647059 0.647059 0.647059
0.682353 0.682353 0.682353
0.717647 0.717647 0.717647
0.184314 0.184314 0.184314
0.203922 0.203922 0.203922
0.223529 0.223529 0.223529
0.247059 0.247059 0.247059
0.266667 0.266667 0.266667
0.290196 0.290196 0.290196
0.305882 0.305882 0.305882
0.329412 0.329412 0.329412
0.219608 0.219608 0.219608
0.247059 0.247059 0.247059
0.266667 0.266667 0.266667
0.286275 0.286275 0.286275
0.305882 0.305882 0.305882
0.329412 0.329412 0.329412
0.349020 0.349020 0.349020
0.372549 0.372549 0.372549
0.262745 0.262745 0.262745
0.286275 0.286275 0.286275
0.305882 0.305882 0.305882
0.329412 0.329412 0.329412
0.349020 0.349020 0.349020
0.372549 0.372549 0.372549
0.396078 0.396078 0.396078
0.419608 0.419608 0.419608
0.301961 0.301961 0.301961
0.329412 0.329412 0.329412
0.349020 0.349020 0.349020
0.368627 0.368627 0.368627
0.396078 0.396078 0.396078
0.415686 0.415686 0.415686
0.443137 0.443137 0.443137
0.474510 0.474510 0.474510
0.345098 0.345098 0.345098
0.368627 0.368627 0.368627
0.396078 0.396078 0.396078
0.415686 0.415686 0.415686
0.443137 0.443137 0.443137
0.470588 0.470588 0.470588
0.501961 0.501961 0.501961
0.533333 0.533333 0.533333
0.392157 0.392157 0.392157
0.415686 0.415686 0.415686
0.443137 0.443137 0.443137
0.470588 0.470588 0.470588
0.501961 0.501961 0.501961
0.529412 0.529412 0.529412
0.564706 0.564706 0.564706
0.596078 0.596078 0.596078
0.443137 0.443137 0.443137
0.470588 0.470588 0.470588
0.498039 0.498039 0.498039
0.529412 0.529412 0.529412
0.564706 0.564706 0.564706
0.592157 0.592157 0.592157
0.627451 0.627451 0.627451
0.662745 0.662745 0.662745
0.498039 0.498039 0.498039
0.529412 0.529412 0.529412
0.556863 0.556863 0.556863
0.592157 0.592157 0.592157
0.627451 0.627451 0.627451
0.662745 0.662745 0.662745
0.698039 0.698039 0.698039
0.733333 0.733333 0.733333
0.188235 0.188235 0.188235
0.211765 0.211765 0.211765
0.235294 0.235294 0.235294
0.254902 0.254902 0.254902
0.274510 0.274510 0.274510
0.294118 0.294118 0.294118
0.317647 0.317647 0.317647
0.337255 0.337255 0.337255
0.231373 0.231373 0.231373
0.254902 0.254902 0.254902
0.274510 0.274510 0.274510
0.294118 0.294118 0.294118
0.317647 0.317647 0.317647
0.333333 0.333333 0.333333
0.360784 0.360784 0.360784
0.380392 0.380392 0.380392
0.270588 0.270588 0.270588
0.294118 0.294118 0.294118
0.317647 0.317647 0.317647
0.333333 0.333333 0.333333
0.360784 0.360784 0.360784
0.380392 0.380392 0.380392
0.403922 0.403922 0.403922
0.431373 0.431373 0.431373
0.313725 0.313725 0.313725
0.333333 0.333333 0.333333
0.360784 0.360784 0.360784
0.380392 0.380392 0.380392
0.403922 0.403922 0.403922
0.427451 0.427451 0.427451
0.454902 0.454902 0.454902
0.486275 0.486275 0.486275
0.356863 0.356863 0.356863
0.380392 0.380392 0.380392
0.403922 0.403922 0.403922
0.427451 0.427451 0.427451
0.454902 0.454902 0.454902
0.482353 0.482353 0.482353
0.513725 0.513725 0.513725
0.549020 0.549020 0.549020
0.403922 0.403922 0.403922
0.427451 0.427451 0.427451
0.450980 0.450980 0.450980
0.482353 0.482353 0.482353
0.513725 0.513725 0.513725
0.545098 0.545098 0.545098
0.576471 0.576471 0.576471
0.611765 0.611765 0.611765
0.450980 0.450980 0.450980
0.482353 0.482353 0.482353
0.509804 0.509804 0.509804
0.545098 0.545098 0.545098
0.576471 0.576471 0.576471
0.607843 0.607843 0.607843
0.643137 0.643137 0.643137
0.674510 0.674510 0.674510
0.509804 0.509804 0.509804
0.545098 0.545098 0.545098
0.572549 0.572549 0.572549
0.607843 0.607843 0.607843
0.643137 0.643137 0.643137
0.674510 0.674510 0.674510
0.709804 0.709804 0.709804
0.741176 0.741176 0.741176
0.196078 0.196078 0.196078
0.219608 0.219608 0.219608
0.243137 0.243137 0.243137
0.258824 0.258824 0.258824
0.282353 0.282353 0.282353
0.301961 0.301961 0.301961
0.325490 0.325490 0.325490
0.345098 0.345098 0.345098
0.239216 0.239216 0.239216
0.258824 0.258824 0.258824
0.282353 0.282353 0.282353
0.301961 0.301961 0.301961
0.325490 0.325490 0.325490
0.345098 0.345098 0.345098
0.368627 0.368627 0.368627
0.392157 0.392157 0.392157
0.282353 0.282353 0.282353
0.301961 0.301961 0.301961
0.321569 0.321569 0.321569
0.345098 0.345098 0.345098
0.368627 0.368627 0.368627
0.388235 0.388235 0.388235
0.411765 0.411765 0.411765
0.443137 0.443137 0.443137
0.321569 0.321569 0.321569
0.345098 0.345098 0.345098
0.364706 0.364706 0.364706
0.388235 0.388235 0.388235
0.411765 0.411765 0.411765
0.439216 0.439216 0.439216
0.466667 0.466667 0.466667
0.498039 0.498039 0.498039
0.364706 0.364706 0.364706
0.388235 0.388235 0.388235
0.411765 0.411765 0.411765
0.439216 0.439216 0.439216
0.466667 0.466667 0.466667
0.494118 0.494118 0.494118
0.525490 0.525490 0.525490
0.552941 0.552941 0.552941
0.411765 0.411765 0.411765
0.439216 0.439216 0.439216
0.462745 0.462745 0.462745
0.494118 0.494118 0.494118
0.525490 0.525490 0.525490
0.552941 0.552941 0.552941
0.588235 0.588235 0.588235
0.623529 0.623529 0.623529
0.462745 0.462745 0.462745
0.494118 0.494118 0.494118
0.521569 0.521569 0.521569
0.552941 0.552941 0.552941
0.588235 0.588235 0.588235
0.623529 0.623529 0.623529
0.658824 0.658824 0.658824
0.690196 0.690196 0.690196
0.521569 0.521569 0.521569
0.552941 0.552941 0.552941
0.588235 0.588235 0.588235
0.623529 0.623529 0.623529
0.654902 0.654902 0.654902
0.690196 0.690196 0.690196
0.725490 0.725490 0.725490
0.752941 0.752941 0.752941
