luts/BW Flat.cube
#Generated by wwww.onlinelutcreator.com 
LUT_3D_SIZE 32 
0.137255 0.137255 0.137255
0.145098 0.145098 0.145098
0.149020 0.149020 0.149020
0.156863 0.156863 0.156863
0.160784 0.160784 0.160784
0.168627 0.168627 0.168627
0.172549 0.172549 0.172549
0.180392 0.180392 0.180392
0.184314 0.184314 0.184314
0.188235 0.188235 0.188235
0.196078 0.196078 0.196078
0.200000 0.200000 0.200000
0.207843 0.207843 0.207843
0.211765 0.211765 0.211765
0.219608 0.219608 0.219608
0.219608 0.219608 0.219608
0.223529 0.223529 0.223529
0.231373 0.231373 0.231373
0.235294 0.235294 0.235294
0.243137 0.243137 0.243137
0.247059 0.247059 0.247059
0.254902 0.254902 0.254902
0.258824 0.258824 0.258824
0.262745 0.262745 0.262745
0.270588 0.270588 0.270588
0.274510 0.274510 0.274510
0.282353 0.282353 0.282353
0.282353 0.282353 0.282353
0.290196 0.290196 0.290196
0.294118 0.294118 0.294118
0.298039 0.298039 0.298039
0.301961 0.301961 0.301961
0.149020 0.149020 0.149020
0.156863 0.156863 0.156863
0.160784 0.160784 0.160784
0.164706 0.164706 0.164706
0.172549 0.172549 0.172549
0.180392 0.180392 0.180392
0.184314 0.184314 0.184314
0.188235 0.188235 0.188235
0.196078 0.196078 0.196078
0.200000 0.200000 0.200000
0.207843 0.207843 0.207843
0.211765 0.211765 0.211765
0.219608 0.219608 0.219608
0.219608 0.219608 0.219608
0.223529 0.223529 0.223529
0.231373 0.231373 0.231373
0.235294 0.235294 0.235294
0.243137 0.243137 0.243137
0.247059 0.247059 0.247059
0.254902 0.254902 0.254902
0.258824 0.258824 0.258824
0.262745 0.262745 0.262745
0.270588 0.270588 0.270588
0.274510 0.274510 0.274510
0.278431 0.278431 0.278431
0.282353 0.282353 0.282353
0.290196 0.290196 0.290196
0.294118 0.294118 0.294118
0.298039 0.298039 0.298039
0.301961 0.301961 0.301961
0.309804 0.309804 0.309804
0.317647 0.317647 0.317647
0.160784 0.160784 0.160784
0.164706 0.164706 0.164706
0.172549 0.172549 0.172549
0.180392 0.180392 0.180392
0.184314 0.184314 0.184314
0.188235 0.188235 0.188235
0.196078 0.196078 0.196078
0.200000 0.200000 0.200000
0.207843 0.207843 0.207843
0.211765 0.211765 0.211765
0.219608 0.219608 0.219608
0.219608 0.219608 0.219608
0.223529 0.223529 0.223529
0.231373 0.231373 0.231373
0.235294 0.235294 0.235294
0.243137 0.243137 0.243137
0.247059 0.247059 0.247059
0.254902 0.254902 0.254902
0.258824 0.258824 0.258824
0.262745 0.262745 0.262745
0.270588 0.270588 0.270588
0.270588 0.270588 0.270588
0.278431 0.278431 0.278431
0.282353 0.282353 0.282353
0.290196 0.290196 0.290196
0.294118 0.294118 0.294118
0.298039 0.298039 0.298039
0.301961 0.301961 0.301961
0.309804 0.309804 0.309804
0.317647 0.317647 0.317647
0.321569 0.321569 0.321569
0.329412 0.329412 0.329412
0.172549 0.172549 0.172549
0.180392 0.180392 0.180392
0.184314 0.184314 0.184314
0.188235 0.188235 0.188235
0.196078 0.196078 0.196078
0.200000 0.200000 0.200000
0.207843 0.207843 0.207843
0.211765 0.211765 0.211765
0.215686 0.215686 0.215686
0.219608 0.219608 0.219608
0.223529 0.223529 0.223529
0.231373 0.231373 0.231373
0.235294 0.235294 0.235294
0.243137 0.243137 0.243137
0.247059 0.247059 0.247059
0.254902 0.254902 0.254902
0.258824 0.258824 0.258824
0.262745 0.262745 0.262745
0.266667 0.266667 0.266667
0.270588 0.270588 0.270588
0.278431 0.278431 0.278431
0.282353 0.282353 0.282353
0.290196 0.290196 0.290196
0.294118 0.294118 0.294118
0.298039 0.298039 0.298039
0.301961 0.301961 0.301961
0.309804 0.309804 0.309804
0.317647 0.317647 0.317647
0.321569 0.321569 0.321569
0.325490 0.325490 0.325490
0.329412 0.329412 0.329412
0.333333 0.333333 0.333333
0.184314 0.184314 0.184314
0.188235 0.188235 0.188235
0.196078 0.196078 0.196078
0.200000 0.200000 0.200000
0.207843 0.207843 0.207843
0.211765 0.211765 0.211765
0.215686 0.215686 0.215686
0.219608 0.219608 0.219608
0.223529 0.223529 0.223529
0.231373 0.231373 0.231373
0.235294 0.235294 0.235294
0.243137 0.243137 0.243137
0.247059 0.247059 0.247059
0.254902 0.254902 0.254902
0.258824 0.258824 0.258824
0.262745 0.262745 0.262745
0.266667 0.266667 0.266667
0.270588 0.270588 0.270588
0.278431 0.278431 0.278431
0.282353 0.282353 0.282353
0.290196 0.290196 0.290196
0.294118 0.294118 0.294118
0.298039 0.298039 0.298039
0.301961 0.301961 0.301961
0.309804 0.309804 0.309804
0.317647 0.317647 0.317647
0.317647 0.317647 0.317647
0.325490 0.325490 0.325490
0.329412 0.329412 0.329412
0.333333 0.333333 0.333333
0.341176 0.341176 0.341176
0.345098 0.345098 0.345098
0.196078 0.196078 0.196078
0.200000 0.200000 0.200000
0.207843 0.207843 0.207843
0.211765 0.211765 0.211765
0.215686 0.215686 0.215686
0.219608 0.219608 0.219608
0.223529 0.223529 0.223529
0.231373 0.231373 0.231373
0.235294 0.235294 0.235294
0.243137 0.243137 0.243137
0.247059 0.247059 0.247059
0.254902 0.254902 0.254902
0.258824 0.258824 0.258824
0.258824 0.258824 0.258824
0.266667 0.266667 0.266667
0.270588 0.270588 0.270588
0.278431 0.278431 0.278431
0.282353 0.282353 0.282353
0.290196 0.290196 0.290196
0.294118 0.294118 0.294118
0.298039 0.298039 0.298039
0.301961 0.301961 0.301961
0.309804 0.309804 0.309804
0.313725 0.313725 0.313725
0.317647 0.317647 0.317647
0.325490 0.325490 0.325490
0.329412 0.329412 0.329412
0.333333 0.333333 0.333333
0.341176 0.341176 0.341176
0.345098 0.345098 0.345098
0.352941 0.352941 0.352941
0.360784 0.360784 0.360784
0.203922 0.203922 0.203922
0.211765 0.211765 0.211765
0.215686 0.215686 0.215686
0.219608 0.219608 0.219608
0.223529 0.223529 0.223529
0.231373 0.231373 0.231373
0.235294 0.235294 0.235294
0.243137 0.243137 0.243137
0.247059 0.247059 0.247059
0.254902 0.254902 0.254902
0.258824 0.258824 0.258824
0.258824 0.258824 0.258824
0.266667 0.266667 0.266667
0.270588 0.270588 0.270588
0.278431 0.278431 0.278431
0.282353 0.282353 0.282353
0.290196 0.290196 0.290196
0.294118 0.294118 0.294118
0.298039 0.298039 0.298039
0.301961 0.301961 0.301961
0.309804 0.309804 0.309804
0.313725 0.313725 0.313725
0.317647 0.317647 0.317647
0.325490 0.325490 0.325490
0.329412 0.329412 0.329412
0.333333 0.333333 0.333333
0.341176 0.341176 0.341176
0.345098 0.345098 0.345098
0.352941 0.352941 0.352941
0.360784 0.360784 0.360784
0.364706 0.364706 0.364706
0.368627 0.368627 0.368627
0.215686 0.215686 0.215686
0.219608 0.219608 0.219608
0.223529 0.223529 0.223529
0.231373 0.231373 0.231373
0.235294 0.235294 0.235294
0.243137 0.243137 0.243137
0.247059 0.247059 0.247059
0.250980 0.250980 0.250980
0.258824 0.258824 0.258824
0.258824 0.258824 0.258824
0.266667 0.266667 0.266667
0.270588 0.270588 0.270588
0.278431 0.278431 0.278431
0.282353 0.282353 0.282353
0.290196 0.290196 0.290196
0.294118 0.294118 0.294118
0.298039 0.298039 0.298039
0.301961 0.301961 0.301961
0.305882 0.305882 0.305882
0.313725 0.313725 0.313725
0.317647 0.317647 0.317647
0.325490 0.325490 0.325490
0.329412 0.329412 0.329412
0.333333 0.333333 0.333333
0.341176 0.341176 0.341176
0.345098 0.345098 0.345098
0.352941 0.352941 0.352941
0.360784 0.360784 0.360784
0.360784 0.360784 0.360784
0.368627 0.368627 0.368627
0.372549 0.372549 0.372549
0.380392 0.380392 0.380392
0.223529 0.223529 0.223529
0.231373 0.231373 0.231373
0.235294 0.235294 0.235294
0.243137 0.243137 0.243137
0.247059 0.247059 0.247059
0.250980 0.250980 0.250980
0.258824 0.258824 0.258824
0.258824 0.258824 0.258824
0.266667 0.266667 0.266667
0.270588 0.270588 0.270588
0.278431 0.278431 0.278431
0.282353 0.282353 0.282353
0.290196 0.290196 0.290196
0.294118 0.294118 0.294118
0.298039 0.298039 0.298039
0.301961 0.301961 0.301961
0.305882 0.305882 0.305882
0.313725 0.313725 0.313725
0.317647 0.317647 0.317647
0.325490 0.325490 0.325490
0.329412 0.329412 0.329412
0.333333 0.333333 0.333333
0.341176 0.341176 0.341176
0.345098 0.345098 0.345098
0.352941 0.352941 0.352941
0.360784 0.360784 0.360784
0.360784 0.360784 0.360784
0.368627 0.368627 0.368627
0.372549 0.372549 0.372549
0.380392 0.380392 0.380392
0.384314 0.384314 0.384314
0.392157 0.392157 0.392157
0.235294 0.235294 0.235294
0.243137 0.243137 0.243137
0.247059 0.247059 0.247059
0.250980 0.250980 0.250980
0.258824 0.258824 0.258824
0.258824 0.258824 0.258824
0.266667 0.266667 0.266667
0.270588 0.270588 0.270588
0.278431 0.278431 0.278431
0.282353 0.282353 0.282353
0.290196 0.290196 0.290196
0.294118 0.294118 0.294118
0.294118 0.294118 0.294118
0.301961 0.301961 0.301961
0.305882 0.305882 0.305882
0.313725 0.313725 0.313725
0.317647 0.317647 0.317647
0.325490 0.325490 0.325490
0.329412 0.329412 0.329412
0.333333 0.333333 0.333333
0.341176 0.341176 0.341176
0.345098 0.345098 0.345098
0.352941 0.352941 0.352941
0.356863 0.356863 0.356863
0.360784 0.360784 0.360784
0.368627 0.368627 0.368627
0.372549 0.372549 0.372549
0.380392 0.380392 0.380392
0.384314 0.384314 0.384314
0.392157 0.392157 0.392157
0.400000 0.400000 0.400000
0.403922 0.403922 0.403922
0.247059 0.247059 0.247059
0.250980 0.250980 0.250980
0.258824 0.258824 0.258824
0.258824 0.258824 0.258824
0.266667 0.266667 0.266667
0.270588 0.270588 0.270588
0.278431 0.278431 0.278431
0.282353 0.282353 0.282353
0.290196 0.290196 0.290196
0.294118 0.294118 0.294118
0.294118 0.294118 0.294118
0.301961 0.301961 0.301961
0.305882 0.305882 0.305882
0.313725 0.313725 0.313725
0.317647 0.317647 0.317647
0.325490 0.325490 0.325490
0.329412 0.329412 0.329412
0.333333 0.333333 0.333333
0.341176 0.341176 0.341176
0.345098 0.345098 0.345098
0.349020 0.349020 0.349020
0.356863 0.356863 0.356863
0.360784 0.360784 0.360784
0.368627 0.368627 0.368627
0.372549 0.372549 0.372549
0.380392 0.380392 0.380392
0.384314 0.384314 0.384314
0.392157 0.392157 0.392157
0.400000 0.400000 0.400000
0.403922 0.403922 0.403922
0.411765 0.411765 0.411765
0.411765 0.411765 0.411765
0.258824 0.258824 0.258824
0.258824 0.258824 0.258824
0.266667 0.266667 0.266667
0.270588 0.270588 0.270588
0.278431 0.278431 0.278431
0.282353 0.282353 0.282353
0.290196 0.290196 0.290196
0.294118 0.294118 0.294118
0.294118 0.294118 0.294118
0.301961 0.301961 0.301961
0.305882 0.305882 0.305882
0.313725 0.313725 0.313725
0.317647 0.317647 0.317647
0.325490 0.325490 0.325490
0.329412 0.329412 0.329412
0.333333 0.333333 0.333333
0.341176 0.341176 0.341176
0.345098 0.345098 0.345098
0.349020 0.349020 0.349020
0.356863 0.356863 0.356863
0.360784 0.360784 0.360784
0.368627 0.368627 0.368627
0.372549 0.372549 0.372549
0.380392 0.380392 0.380392
0.384314 0.384314 0.384314
0.392157 0.392157 0.392157
0.400000 0.400000 0.400000
0.403922 0.403922 0.403922
0.407843 0.407843 0.407843
0.411765 0.411765 0.411765
0.419608 0.419608 0.419608
0.427451 0.427451 0.427451
0.266667 0.266667 0.266667
0.270588 0.270588 0.270588
0.278431 0.278431 0.278431
0.282353 0.282353 0.282353
0.286275 0.286275 0.286275
0.294118 0.294118 0.294118
0.294118 0.294118 0.294118
0.301961 0.301961 0.301961
0.305882 0.305882 0.305882
0.313725 0.313725 0.313725
0.317647 0.317647 0.317647
0.325490 0.325490 0.325490
0.329412 0.329412 0.329412
0.333333 0.333333 0.333333
0.341176 0.341176 0.341176
0.345098 0.345098 0.345098
0.349020 0.349020 0.349020
0.356863 0.356863 0.356863
0.360784 0.360784 0.360784
0.368627 0.368627 0.368627
0.372549 0.372549 0.372549
0.380392 0.380392 0.380392
0.384314 0.384314 0.384314
0.392157 0.392157 0.392157
0.400000 0.400000 0.400000
0.403922 0.403922 0.403922
0.407843 0.407843 0.407843
0.411765 0.411765 0.411765
0.419608 0.419608 0.419608
0.427451 0.427451 0.427451
0.435294 0.435294 0.435294
0.443137 0.443137 0.443137
0.278431 0.278431 0.278431
0.282353 0.282353 0.282353
0.286275 0.286275 0.286275
0.294118 0.294118 0.294118
0.294118 0.294118 0.294118
0.301961 0.301961 0.301961
0.305882 0.305882 0.305882
0.313725 0.313725 0.313725
0.317647 0.317647 0.317647
0.325490 0.325490 0.325490
0.329412 0.329412 0.329412
0.333333 0.333333 0.333333
0.337255 0.337255 0.337255
0.345098 0.345098 0.345098
0.349020 0.349020 0.349020
0.356863 0.356863 0.356863
0.360784 0.360784 0.360784
0.368627 0.368627 0.368627
0.372549 0.372549 0.372549
0.380392 0.380392 0.380392
0.384314 0.384314 0.384314
0.392157 0.392157 0.392157
0.396078 0.396078 0.396078
0.403922 0.403922 0.403922
0.407843 0.407843 0.407843
0.411765 0.411765 0.411765
0.419608 0.419608 0.419608
0.427451 0.427451 0.427451
0.435294 0.435294 0.435294
0.443137 0.443137 0.443137
0.447059 0.447059 0.447059
0.454902 0.454902 0.454902
0.286275 0.286275 0.286275
0.294118 0.294118 0.294118
0.294118 0.294118 0.294118
0.301961 0.301961 0.301961
0.305882 0.305882 0.305882
0.313725 0.313725 0.313725
0.317647 0.317647 0.317647
0.325490 0.325490 0.325490
0.329412 0.329412 0.329412
0.329412 0.329412 0.329412
0.337255 0.337255 0.337255
0.345098 0.345098 0.345098
0.349020 0.349020 0.349020
0.356863 0.356863 0.356863
0.360784 0.360784 0.360784
0.368627 0.368627 0.368627
0.372549 0.372549 0.372549
0.380392 0.380392 0.380392
0.384314 0.384314 0.384314
0.392157 0.392157 0.392157
0.396078 0.396078 0.396078
0.403922 0.403922 0.403922
0.407843 0.407843 0.407843
0.411765 0.411765 0.411765
0.419608 0.419608 0.419608
0.427451 0.427451 0.427451
0.435294 0.435294 0.435294
0.443137 0.443137 0.443137
0.447059 0.447059 0.447059
0.454902 0.454902 0.454902
0.458824 0.458824 0.458824
0.466667 0.466667 0.466667
0.294118 0.294118 0.294118
0.301961 0.301961 0.301961
0.305882 0.305882 0.305882
0.313725 0.313725 0.313725
0.317647 0.317647 0.317647
0.325490 0.325490 0.325490
0.329412 0.329412 0.329412
0.329412 0.329412 0.329412
0.337255 0.337255 0.337255
0.345098 0.345098 0.345098
0.349020 0.349020 0.349020
0.356863 0.356863 0.356863
0.360784 0.360784 0.360784
0.368627 0.368627 0.368627
0.372549 0.372549 0.372549
0.380392 0.380392 0.380392
0.384314 0.384314 0.384314
0.388235 0.388235 0.388235
0.396078 0.396078 0.396078
0.403922 0.403922 0.403922
0.407843 0.407843 0.407843
0.411765 0.411765 0.411765
0.419608 0.419608 0.419608
0.427451 0.427451 0.427451
0.435294 0.435294 0.435294
0.443137 0.443137 0.443137
0.447059 0.447059 0.447059
0.450980 0.450980 0.450980
0.458824 0.458824 0.458824
0.466667 0.466667 0.466667
0.474510 0.474510 0.474510
0.482353 0.482353 0.482353
0.305882 0.305882 0.305882
0.313725 0.313725 0.313725
0.317647 0.317647 0.317647
0.325490 0.325490 0.325490
0.329412 0.329412 0.329412
0.329412 0.329412 0.329412
0.337255 0.337255 0.337255
0.345098 0.345098 0.345098
0.349020 0.349020 0.349020
0.356863 0.356863 0.356863
0.360784 0.360784 0.360784
0.368627 0.368627 0.368627
0.372549 0.372549 0.372549
0.380392 0.380392 0.380392
0.380392 0.380392 0.380392
0.388235 0.388235 0.388235
0.396078 0.396078 0.396078
0.403922 0.403922 0.403922
0.407843 0.407843 0.407843
0.411765 0.411765 0.411765
0.419608 0.419608 0.419608
0.427451 0.427451 0.427451
0.435294 0.435294 0.435294
0.443137 0.443137 0.443137
0.447059 0.447059 0.447059
0.450980 0.450980 0.450980
0.458824 0.458824 0.458824
0.466667 0.466667 0.466667
0.474510 0.474510 0.474510
0.482353 0.482353 0.482353
0.490196 0.490196 0.490196
0.498039 0.498039 0.498039
0.317647 0.317647 0.317647
0.321569 0.321569 0.321569
0.329412 0.329412 0.329412
0.329412 0.329412 0.329412
0.337255 0.337255 0.337255
0.345098 0.345098 0.345098
0.349020 0.349020 0.349020
0.356863 0.356863 0.356863
0.360784 0.360784 0.360784
0.368627 0.368627 0.368627
0.372549 0.372549 0.372549
0.376471 0.376471 0.376471
0.380392 0.380392 0.380392
0.388235 0.388235 0.388235
0.396078 0.396078 0.396078
0.403922 0.403922 0.403922
0.407843 0.407843 0.407843
0.411765 0.411765 0.411765
0.419608 0.419608 0.419608
0.427451 0.427451 0.427451
0.435294 0.435294 0.435294
0.443137 0.443137 0.443137
0.443137 0.443137 0.443137
0.450980 0.450980 0.450980
0.458824 0.458824 0.458824
0.466667 0.466667 0.466667
0.474510 0.474510 0.474510
0.482353 0.482353 0.482353
0.490196 0.490196 0.490196
0.498039 0.498039 0.498039
0.505882 0.505882 0.505882
0.513725 0.513725 0.513725
0.329412 0.329412 0.329412
0.329412 0.329412 0.329412
0.337255 0.337255 0.337255
0.345098 0.345098 0.345098
0.349020 0.349020 0.349020
0.356863 0.356863 0.356863
0.360784 0.360784 0.360784
0.368627 0.368627 0.368627
0.372549 0.372549 0.372549
0.376471 0.376471 0.376471
0.380392 0.380392 0.380392
0.388235 0.388235 0.388235
0.396078 0.396078 0.396078
0.403922 0.403922 0.403922
0.407843 0.407843 0.407843
0.411765 0.411765 0.411765
0.419608 0.419608 0.419608
0.427451 0.427451 0.427451
0.435294 0.435294 0.435294
0.439216 0.439216 0.439216
0.443137 0.443137 0.443137
0.450980 0.450980 0.450980
0.458824 0.458824 0.458824
0.466667 0.466667 0.466667
0.474510 0.474510 0.474510
0.482353 0.482353 0.482353
0.490196 0.490196 0.490196
0.498039 0.498039 0.498039
0.505882 0.505882 0.505882
0.513725 0.513725 0.513725
0.517647 0.517647 0.517647
0.525490 0.525490 0.525490
0.337255 0.337255 0.337255
0.345098 0.345098 0.345098
0.349020 0.349020 0.349020
0.356863 0.356863 0.356863
0.360784 0.360784 0.360784
0.368627 0.368627 0.368627
0.368627 0.368627 0.368627
0.376471 0.376471 0.376471
0.380392 0.380392 0.380392
0.388235 0.388235 0.388235
0.396078 0.396078 0.396078
0.403922 0.403922 0.403922
0.407843 0.407843 0.407843
0.411765 0.411765 0.411765
0.419608 0.419608 0.419608
0.427451 0.427451 0.427451
0.431373 0.431373 0.431373
0.439216 0.439216 0.439216
0.443137 0.443137 0.443137
0.450980 0.450980 0.450980
0.458824 0.458824 0.458824
0.466667 0.466667 0.466667
0.474510 0.474510 0.474510
0.482353 0.482353 0.482353
0.490196 0.490196 0.490196
0.498039 0.498039 0.498039
0.505882 0.505882 0.505882
0.509804 0.509804 0.509804
0.517647 0.517647 0.517647
0.525490 0.525490 0.525490
0.533333 0.533333 0.533333
0.545098 0.545098 0.545098
0.349020 0.349020 0.349020
0.356863 0.356863 0.356863
0.360784 0.360784 0.360784
0.364706 0.364706 0.364706
0.368627 0.368627 0.368627
0.376471 0.376471 0.376471
0.380392 0.380392 0.380392
0.388235 0.388235 0.388235
0.396078 0.396078 0.396078
0.403922 0.403922 0.403922
0.407843 0.407843 0.407843
0.411765 0.411765 0.411765
0.419608 0.419608 0.419608
0.427451 0.427451 0.427451
0.431373 0.431373 0.431373
0.439216 0.439216 0.439216
0.443137 0.443137 0.443137
0.450980 0.450980 0.450980
0.458824 0.458824 0.458824
0.466667 0.466667 0.466667
0.474510 0.474510 0.474510
0.482353 0.482353 0.482353
0.490196 0.490196 0.490196
0.498039 0.498039 0.498039
0.501961 0.501961 0.501961
0.509804 0.509804 0.509804
0.517647 0.517647 0.517647
0.525490 0.525490 0.525490
0.533333 0.533333 0.533333
0.545098 0.545098 0.545098
0.552941 0.552941 0.552941
0.556863 0.556863 0.556863
0.360784 0.360784 0.360784
0.364706 0.364706 0.364706
0.368627 0.368627 0.368627
0.376471 0.376471 0.376471
0.380392 0.380392 0.380392
0.388235 0.388235 0.388235
0.396078 0.396078 0.396078
0.403922 0.403922 0.403922
0.407843 0.407843 0.407843
0.411765 0.411765 0.411765
0.419608 0.419608 0.419608
0.423529 0.423529 0.423529
0.431373 0.431373 0.431373
0.439216 0.439216 0.439216
0.443137 0.443137 0.443137
0.450980 0.450980 0.450980
0.458824 0.458824 0.458824
0.466667 0.466667 0.466667
0.474510 0.474510 0.474510
0.482353 0.482353 0.482353
0.490196 0.490196 0.490196
0.494118 0.494118 0.494118
0.501961 0.501961 0.501961
0.509804 0.509804 0.509804
0.517647 0.517647 0.517647
0.525490 0.525490 0.525490
0.533333 0.533333 0.533333
0.545098 0.545098 0.545098
0.552941 0.552941 0.552941
0.556863 0.556863 0.556863
0.568627 0.568627 0.568627
0.576471 0.576471 0.576471
0.368627 0.368627 0.368627
0.376471 0.376471 0.376471
0.380392 0.380392 0.380392
0.388235 0.388235 0.388235
0.396078 0.396078 0.396078
0.403922 0.403922 0.403922
0.407843 0.407843 0.407843
0.411765 0.411765 0.411765
0.415686 0.415686 0.415686
0.423529 0.423529 0.423529
0.431373 0.431373 0.431373
0.439216 0.439216 0.439216
0.443137 0.443137 0.443137
0.450980 0.450980 0.450980
0.458824 0.458824 0.458824
0.466667 0.466667 0.466667
0.474510 0.474510 0.474510
0.482353 0.482353 0.482353
0.490196 0.490196 0.490196
0.494118 0.494118 0.494118
0.501961 0.501961 0.501961
0.509804 0.509804 0.509804
0.517647 0.517647 0.517647
0.525490 0.525490 0.525490
0.533333 0.533333 0.533333
0.545098 0.545098 0.545098
0.552941 0.552941 0.552941
0.556863 0.556863 0.556863
0.568627 0.568627 0.568627
0.572549 0.572549 0.572549
0.584314 0.584314 0.584314
0.588235 0.588235 0.588235
0.380392 0.380392 0.380392
0.388235 0.388235 0.388235
0.396078 0.396078 0.396078
0.403922 0.403922 0.403922
0.407843 0.407843 0.407843
0.411765 0.411765 0.411765
0.415686 0.415686 0.415686
0.423529 0.423529 0.423529
0.431373 0.431373 0.431373
0.439216 0.439216 0.439216
0.443137 0.443137 0.443137
0.450980 0.450980 0.450980
0.458824 0.458824 0.458824
0.466667 0.466667 0.466667
0.474510 0.474510 0.474510
0.482353 0.482353 0.482353
0.486275 0.486275 0.486275
0.494118 0.494118 0.494118
0.501961 0.501961 0.501961
0.509804 0.509804 0.509804
0.517647 0.517647 0.517647
0.525490 0.525490 0.525490
0.533333 0.533333 0.533333
0.545098 0.545098 0.545098
0.552941 0.552941 0.552941
0.556863 0.556863 0.556863
0.564706 0.564706 0.564706
0.572549 0.572549 0.572549
0.584314 0.584314 0.584314
0.588235 0.588235 0.588235
0.596078 0.596078 0.596078
0.607843 0.607843 0.607843
0.396078 0.396078 0.396078
0.403922 0.403922 0.403922
0.407843 0.407843 0.407843
0.411765 0.411765 0.411765
0.415686 0.415686 0.415686
0.423529 0.423529 0.423529
0.431373 0.431373 0.431373
0.439216 0.439216 0.439216
0.443137 0.443137 0.443137
0.450980 0.450980 0.450980
0.458824 0.458824 0.458824
0.466667 0.466667 0.466667
0.474510 0.474510 0.474510
0.478431 0.478431 0.478431
0.486275 0.486275 0.486275
0.494118 0.494118 0.494118
0.501961 0.501961 0.501961
0.509804 0.509804 0.509804
0.517647 0.517647 0.517647
0.525490 0.525490 0.525490
0.533333 0.533333 0.533333
0.545098 0.545098 0.545098
0.552941 0.552941 0.552941
0.556863 0.556863 0.556863
0.564706 0.564706 0.564706
0.572549 0.572549 0.572549
0.584314 0.584314 0.584314
0.588235 0.588235 0.588235
0.596078 0.596078 0.596078
0.607843 0.607843 0.607843
0.615686 0.615686 0.615686
0.627451 0.627451 0.627451
0.403922 0.403922 0.403922
0.411765 0.411765 0.411765
0.415686 0.415686 0.415686
0.423529 0.423529 0.423529
0.431373 0.431373 0.431373
0.439216 0.439216 0.439216
0.443137 0.443137 0.443137
0.450980 0.450980 0.450980
0.458824 0.458824 0.458824
0.466667 0.466667 0.466667
0.474510 0.474510 0.474510
0.478431 0.478431 0.478431
0.486275 0.486275 0.486275
0.494118 0.494118 0.494118
0.501961 0.501961 0.501961
0.509804 0.509804 0.509804
0.517647 0.517647 0.517647
0.525490 0.525490 0.525490
0.533333 0.533333 0.533333
0.545098 0.545098 0.545098
0.552941 0.552941 0.552941
0.552941 0.552941 0.552941
0.564706 0.564706 0.564706
0.572549 0.572549 0.572549
0.584314 0.584314 0.584314
0.588235 0.588235 0.588235
0.596078 0.596078 0.596078
0.607843 0.607843 0.607843
0.615686 0.615686 0.615686
0.627451 0.627451 0.627451
0.635294 0.635294 0.635294
0.639216 0.639216 0.639216
0.415686 0.415686 0.415686
0.423529 0.423529 0.423529
0.431373 0.431373 0.431373
0.439216 0.439216 0.439216
0.443137 0.443137 0.443137
0.450980 0.450980 0.450980
0.458824 0.458824 0.458824
0.466667 0.466667 0.466667
0.470588 0.470588 0.470588
0.478431 0.478431 0.478431
0.486275 0.486275 0.486275
0.494118 0.494118 0.494118
0.501961 0.501961 0.501961
0.509804 0.509804 0.509804
0.517647 0.517647 0.517647
0.525490 0.525490 0.525490
0.533333 0.533333 0.533333
0.545098 0.545098 0.545098
0.549020 0.549020 0.549020
0.552941 0.552941 0.552941
0.564706 0.564706 0.564706
0.572549 0.572549 0.572549
0.584314 0.584314 0.584314
0.588235 0.588235 0.588235
0.596078 0.596078 0.596078
0.607843 0.607843 0.607843
0.615686 0.615686 0.615686
0.627451 0.627451 0.627451
0.635294 0.635294 0.635294
0.639216 0.639216 0.639216
0.647059 0.647059 0.647059
0.658824 0.658824 0.658824
0.431373 0.431373 0.431373
0.439216 0.439216 0.439216
0.443137 0.443137 0.443137
0.450980 0.450980 0.450980
0.458824 0.458824 0.458824
0.462745 0.462745 0.462745
0.470588 0.470588 0.470588
0.478431 0.478431 0.478431
0.486275 0.486275 0.486275
0.494118 0.494118 0.494118
0.501961 0.501961 0.501961
0.509804 0.509804 0.509804
0.517647 0.517647 0.517647
0.525490 0.525490 0.525490
0.533333 0.533333 0.533333
0.541176 0.541176 0.541176
0.549020 0.549020 0.549020
0.552941 0.552941 0.552941
0.564706 0.564706 0.564706
0.572549 0.572549 0.572549
0.584314 0.584314 0.584314
0.588235 0.588235 0.588235
