luts/BW Flat.cube
#Generated by wwww.onlinelutcreator.com 
LUT_3D_SIZE 5 
DOMAIN_MIN 0.000000 0.000000 0.000000
DOMAIN_MAX 0.903226 0.903226 0.903226
0.137255 0.137255 0.137255
0.180392 0.180392 0.180392
0.219608 0.219608 0.219608
0.254902 0.254902 0.254902
0.290196 0.290196 0.290196
0.215686 0.215686 0.215686
0.250980 0.250980 0.250980
0.290196 0.290196 0.290196
0.325490 0.325490 0.325490
0.360784 0.360784 0.360784
0.286275 0.286275 0.286275
0.325490 0.325490 0.325490
0.360784 0.360784 0.360784
0.403922 0.403922 0.403922
0.447059 0.447059 0.447059
0.360784 0.360784 0.360784
0.403922 0.403922 0.403922
0.443137 0.443137 0.443137
0.494118 0.494118 0.494118
0.552941 0.552941 0.552941
0.443137 0.443137 0.443137
0.494118 0.494118 0.494118
0.549020 0.549020 0.549020
0.607843 0.607843 0.607843
0.662745 0.662745 0.662745
0.152941 0.152941 0.152941
0.192157 0.192157 0.192157
0.231373 0.231373 0.231373
0.266667 0.266667 0.266667
0.301961 0.301961 0.301961
0.227451 0.227451 0.227451
0.266667 0.266667 0.266667
0.301961 0.301961 0.301961
0.337255 0.337255 0.337255
0.380392 0.380392 0.380392
0.298039 0.298039 0.298039
0.337255 0.337255 0.337255
0.376471 0.376471 0.376471
0.415686 0.415686 0.415686
0.466667 0.466667 0.466667
0.376471 0.376471 0.376471
0.415686 0.415686 0.415686
0.462745 0.462745 0.462745
0.517647 0.517647 0.517647
0.572549 0.572549 0.572549
0.462745 0.462745 0.462745
0.513725 0.513725 0.513725
0.568627 0.568627 0.568627
0.627451 0.627451 0.627451
0.690196 0.690196 0.690196
0.168627 0.168627 0.168627
0.207843 0.207843 0.207843
0.247059 0.247059 0.247059
0.282353 0.282353 0.282353
0.317647 0.317647 0.317647
0.243137 0.243137 0.243137
0.282353 0.282353 0.282353
0.317647 0.317647 0.317647
0.352941 0.352941 0.352941
0.396078 0.396078 0.396078
0.317647 0.317647 0.317647
0.352941 0.352941 0.352941
0.392157 0.392157 0.392157
0.435294 0.435294 0.435294
0.486275 0.486275 0.486275
0.392157 0.392157 0.392157
0.435294 0.435294 0.435294
0.482353 0.482353 0.482353
0.541176 0.541176 0.541176
0.592157 0.592157 0.592157
0.482353 0.482353 0.482353
0.533333 0.533333 0.533333
0.588235 0.588235 0.588235
0.654902 0.654902 0.654902
0.709804 0.709804 0.709804
0.184314 0.184314 0.184314
0.219608 0.219608 0.219608
0.258824 0.258824 0.258824
0.294118 0.294118 0.294118
0.329412 0.329412 0.329412
0.258824 0.258824 0.258824
0.294118 0.294118 0.294118
0.329412 0.329412 0.329412
0.368627 0.368627 0.368627
0.411765 0.411765 0.411765
0.329412 0.329412 0.329412
0.368627 0.368627 0.368627
0.407843 0.407843 0.407843
0.454902 0.454902 0.454902
0.505882 0.505882 0.505882
0.407843 0.407843 0.407843
0.450980 0.450980 0.450980
0.501961 0.501961 0.501961
0.556863 0.556863 0.556863
0.615686 0.615686 0.615686
0.501961 0.501961 0.501961
0.552941 0.552941 0.552941
0.615686 0.615686 0.615686
0.674510 0.674510 0.674510
0.733333 0.733333 0.733333
0.196078 0.196078 0.196078
0.235294 0.235294 0.235294
0.270588 0.270588 0.270588
0.305882 0.305882 0.305882
0.345098 0.345098 0.345098
0.270588 0.270588 0.270588
0.305882 0.305882 0.305882
0.345098 0.345098 0.345098
0.380392 0.380392 0.380392
0.427451 0.427451 0.427451
0.345098 0.345098 0.345098
0.380392 0.380392 0.380392
0.423529 0.423529 0.423529
0.474510 0.474510 0.474510
0.525490 0.525490 0.525490
0.423529 0.423529 0.423529
0.470588 0.470588 0.470588
0.521569 0.521569 0.521569
0.584314 0.584314 0.584314
0.639216 0.639216 0.639216
0.521569 0.521569 0.521569
0.576471 0.576471 0.576471
0.639216 0.639216 0.639216
0.698039 0.698039 0.698039
0.752941 0.752941 0.752941
