luts/BW High Contrast.cube
#Generated by wwww.onlinelutcreator.com 
LUT_3D_SIZE 32 
0.039216 0.039216 0.039216
0.047059 0.047059 0.047059
0.050980 0.050980 0.050980
0.054902 0.054902 0.054902
0.062745 0.062745 0.062745
0.070588 0.070588 0.070588
0.074510 0.074510 0.074510
0.082353 0.082353 0.082353
0.090196 0.090196 0.090196
0.098039 0.098039 0.098039
0.101961 0.101961 0.101961
0.109804 0.109804 0.109804
0.117647 0.117647 0.117647
0.125490 0.125490 0.125490
0.129412 0.129412 0.129412
0.137255 0.137255 0.137255
0.145098 0.145098 0.145098
0.149020 0.149020 0.149020
0.156863 0.156863 0.156863
0.164706 0.164706 0.164706
0.172549 0.172549 0.172549
0.180392 0.180392 0.180392
0.192157 0.192157 0.192157
0.196078 0.196078 0.196078
0.203922 0.203922 0.203922
0.215686 0.215686 0.215686
0.223529 0.223529 0.223529
0.235294 0.235294 0.235294
0.239216 0.239216 0.239216
0.247059 0.247059 0.247059
0.258824 0.258824 0.258824
0.266667 0.266667 0.266667
0.050980 0.050980 0.050980
0.054902 0.054902 0.054902
0.058824 0.058824 0.058824
0.070588 0.070588 0.070588
0.074510 0.074510 0.074510
0.082353 0.082353 0.082353
0.090196 0.090196 0.090196
0.094118 0.094118 0.094118
0.101961 0.101961 0.101961
0.109804 0.109804 0.109804
0.117647 0.117647 0.117647
0.125490 0.125490 0.125490
0.129412 0.129412 0.129412
0.137255 0.137255 0.137255
0.145098 0.145098 0.145098
0.149020 0.149020 0.149020
0.156863 0.156863 0.156863
0.164706 0.164706 0.164706
0.172549 0.172549 0.172549
0.180392 0.180392 0.180392
0.192157 0.192157 0.192157
0.196078 0.196078 0.196078
0.203922 0.203922 0.203922
0.215686 0.215686 0.215686
0.223529 0.223529 0.223529
0.231373 0.231373 0.231373
0.239216 0.239216 0.239216
0.247059 0.247059 0.247059
0.258824 0.258824 0.258824
0.266667 0.266667 0.266667
0.274510 0.274510 0.274510
0.286275 0.286275 0.286275
0.058824 0.058824 0.058824
0.070588 0.070588 0.070588
0.074510 0.074510 0.074510
0.082353 0.082353 0.082353
0.090196 0.090196 0.090196
0.094118 0.094118 0.094118
0.101961 0.101961 0.101961
0.109804 0.109804 0.109804
0.117647 0.117647 0.117647
0.125490 0.125490 0.125490
0.129412 0.129412 0.129412
0.137255 0.137255 0.137255
0.145098 0.145098 0.145098
0.149020 0.149020 0.149020
0.156863 0.156863 0.156863
0.164706 0.164706 0.164706
0.172549 0.172549 0.172549
0.180392 0.180392 0.180392
0.188235 0.188235 0.188235
0.196078 0.196078 0.196078
0.203922 0.203922 0.203922
0.215686 0.215686 0.215686
0.223529 0.223529 0.223529
0.231373 0.231373 0.231373
0.239216 0.239216 0.239216
0.247059 0.247059 0.247059
0.258824 0.258824 0.258824
0.266667 0.266667 0.266667
0.274510 0.274510 0.274510
0.286275 0.286275 0.286275
0.294118 0.294118 0.294118
0.305882 0.305882 0.305882
0.074510 0.074510 0.074510
0.078431 0.078431 0.078431
0.090196 0.090196 0.090196
0.094118 0.094118 0.094118
0.101961 0.101961 0.101961
0.109804 0.109804 0.109804
0.113725 0.113725 0.113725
0.125490 0.125490 0.125490
0.129412 0.129412 0.129412
0.137255 0.137255 0.137255
0.145098 0.145098 0.145098
0.149020 0.149020 0.149020
0.156863 0.156863 0.156863
0.164706 0.164706 0.164706
0.172549 0.172549 0.172549
0.180392 0.180392 0.180392
0.188235 0.188235 0.188235
0.196078 0.196078 0.196078
0.203922 0.203922 0.203922
0.215686 0.215686 0.215686
0.223529 0.223529 0.223529
0.231373 0.231373 0.231373
0.239216 0.239216 0.239216
0.247059 0.247059 0.247059
0.254902 0.254902 0.254902
0.266667 0.266667 0.266667
0.274510 0.274510 0.274510
0.286275 0.286275 0.286275
0.294118 0.294118 0.294118
0.301961 0.301961 0.301961
0.313725 0.313725 0.313725
0.325490 0.325490 0.325490
0.090196 0.090196 0.090196
0.094118 0.094118 0.094118
0.101961 0.101961 0.101961
0.109804 0.109804 0.109804
0.113725 0.113725 0.113725
0.125490 0.125490 0.125490
0.129412 0.129412 0.129412
0.137255 0.137255 0.137255
0.145098 0.145098 0.145098
0.149020 0.149020 0.149020
0.156863 0.156863 0.156863
0.164706 0.164706 0.164706
0.168627 0.168627 0.168627
0.180392 0.180392 0.180392
0.188235 0.188235 0.188235
0.196078 0.196078 0.196078
0.203922 0.203922 0.203922
0.211765 0.211765 0.211765
0.223529 0.223529 0.223529
0.231373 0.231373 0.231373
0.239216 0.239216 0.239216
0.247059 0.247059 0.247059
0.254902 0.254902 0.254902
0.266667 0.266667 0.266667
0.274510 0.274510 0.274510
0.286275 0.286275 0.286275
0.294118 0.294118 0.294118
0.301961 0.301961 0.301961
0.313725 0.313725 0.313725
0.325490 0.325490 0.325490
0.333333 0.333333 0.333333
0.341176 0.341176 0.341176
0.101961 0.101961 0.101961
0.109804 0.109804 0.109804
0.113725 0.113725 0.113725
0.125490 0.125490 0.125490
0.129412 0.129412 0.129412
0.137255 0.137255 0.137255
0.145098 0.145098 0.145098
0.149020 0.149020 0.149020
0.156863 0.156863 0.156863
0.164706 0.164706 0.164706
0.168627 0.168627 0.168627
0.180392 0.180392 0.180392
0.188235 0.188235 0.188235
0.196078 0.196078 0.196078
0.203922 0.203922 0.203922
0.211765 0.211765 0.211765
0.223529 0.223529 0.223529
0.231373 0.231373 0.231373
0.239216 0.239216 0.239216
0.247059 0.247059 0.247059
0.254902 0.254902 0.254902
0.266667 0.266667 0.266667
0.274510 0.274510 0.274510
0.282353 0.282353 0.282353
0.294118 0.294118 0.294118
0.301961 0.301961 0.301961
0.313725 0.313725 0.313725
0.325490 0.325490 0.325490
0.329412 0.329412 0.329412
0.341176 0.341176 0.341176
0.349020 0.349020 0.349020
0.364706 0.364706 0.364706
0.113725 0.113725 0.113725
0.125490 0.125490 0.125490
0.129412 0.129412 0.129412
0.137255 0.137255 0.137255
0.145098 0.145098 0.145098
0.149020 0.149020 0.149020
0.156863 0.156863 0.156863
0.164706 0.164706 0.164706
0.168627 0.168627 0.168627
0.180392 0.180392 0.180392
0.188235 0.188235 0.188235
0.192157 0.192157 0.192157
0.203922 0.203922 0.203922
0.211765 0.211765 0.211765
0.223529 0.223529 0.223529
0.231373 0.231373 0.231373
0.239216 0.239216 0.239216
0.247059 0.247059 0.247059
0.254902 0.254902 0.254902
0.266667 0.266667 0.266667
0.274510 0.274510 0.274510
0.282353 0.282353 0.282353
0.294118 0.294118 0.294118
0.301961 0.301961 0.301961
0.313725 0.313725 0.313725
0.325490 0.325490 0.325490
0.329412 0.329412 0.329412
0.341176 0.341176 0.341176
0.349020 0.349020 0.349020
0.364706 0.364706 0.364706
0.372549 0.372549 0.372549
0.384314 0.384314 0.384314
0.129412 0.129412 0.129412
0.137255 0.137255 0.137255
0.145098 0.145098 0.145098
0.149020 0.149020 0.149020
0.152941 0.152941 0.152941
0.164706 0.164706 0.164706
0.168627 0.168627 0.168627
0.180392 0.180392 0.180392
0.188235 0.188235 0.188235
0.192157 0.192157 0.192157
0.203922 0.203922 0.203922
0.211765 0.211765 0.211765
0.223529 0.223529 0.223529
0.231373 0.231373 0.231373
0.239216 0.239216 0.239216
0.247059 0.247059 0.247059
0.254902 0.254902 0.254902
0.266667 0.266667 0.266667
0.274510 0.274510 0.274510
0.282353 0.282353 0.282353
0.294118 0.294118 0.294118
0.301961 0.301961 0.301961
0.309804 0.309804 0.309804
0.325490 0.325490 0.325490
0.329412 0.329412 0.329412
0.341176 0.341176 0.341176
0.349020 0.349020 0.349020
0.360784 0.360784 0.360784
0.372549 0.372549 0.372549
0.384314 0.384314 0.384314
0.396078 0.396078 0.396078
0.403922 0.403922 0.403922
0.145098 0.145098 0.145098
0.149020 0.149020 0.149020
0.152941 0.152941 0.152941
0.164706 0.164706 0.164706
0.168627 0.168627 0.168627
0.180392 0.180392 0.180392
0.188235 0.188235 0.188235
0.192157 0.192157 0.192157
0.203922 0.203922 0.203922
0.211765 0.211765 0.211765
0.219608 0.219608 0.219608
0.231373 0.231373 0.231373
0.239216 0.239216 0.239216
0.247059 0.247059 0.247059
0.254902 0.254902 0.254902
0.262745 0.262745 0.262745
0.274510 0.274510 0.274510
0.282353 0.282353 0.282353
0.294118 0.294118 0.294118
0.301961 0.301961 0.301961
0.309804 0.309804 0.309804
0.325490 0.325490 0.325490
0.329412 0.329412 0.329412
0.341176 0.341176 0.341176
0.349020 0.349020 0.349020
0.360784 0.360784 0.360784
0.372549 0.372549 0.372549
0.384314 0.384314 0.384314
0.396078 0.396078 0.396078
0.403922 0.403922 0.403922
0.415686 0.415686 0.415686
0.423529 0.423529 0.423529
0.152941 0.152941 0.152941
0.164706 0.164706 0.164706
0.168627 0.168627 0.168627
0.176471 0.176471 0.176471
0.188235 0.188235 0.188235
0.192157 0.192157 0.192157
0.203922 0.203922 0.203922
0.211765 0.211765 0.211765
0.219608 0.219608 0.219608
0.231373 0.231373 0.231373
0.239216 0.239216 0.239216
0.247059 0.247059 0.247059
0.254902 0.254902 0.254902
0.262745 0.262745 0.262745
0.274510 0.274510 0.274510
0.282353 0.282353 0.282353
0.294118 0.294118 0.294118
0.301961 0.301961 0.301961
0.309804 0.309804 0.309804
0.325490 0.325490 0.325490
0.329412 0.329412 0.329412
0.337255 0.337255 0.337255
0.349020 0.349020 0.349020
0.360784 0.360784 0.360784
0.372549 0.372549 0.372549
0.384314 0.384314 0.384314
0.392157 0.392157 0.392157
0.403922 0.403922 0.403922
0.415686 0.415686 0.415686
0.423529 0.423529 0.423529
0.435294 0.435294 0.435294
0.443137 0.443137 0.443137
0.168627 0.168627 0.168627
0.176471 0.176471 0.176471
0.188235 0.188235 0.188235
0.192157 0.192157 0.192157
0.203922 0.203922 0.203922
0.211765 0.211765 0.211765
0.219608 0.219608 0.219608
0.231373 0.231373 0.231373
0.239216 0.239216 0.239216
0.243137 0.243137 0.243137
0.254902 0.254902 0.254902
0.262745 0.262745 0.262745
0.274510 0.274510 0.274510
0.282353 0.282353 0.282353
0.290196 0.290196 0.290196
0.301961 0.301961 0.301961
0.309804 0.309804 0.309804
0.325490 0.325490 0.325490
0.329412 0.329412 0.329412
0.337255 0.337255 0.337255
0.349020 0.349020 0.349020
0.360784 0.360784 0.360784
0.372549 0.372549 0.372549
0.384314 0.384314 0.384314
0.392157 0.392157 0.392157
0.403922 0.403922 0.403922
0.415686 0.415686 0.415686
0.423529 0.423529 0.423529
0.435294 0.435294 0.435294
0.443137 0.443137 0.443137
0.458824 0.458824 0.458824
0.466667 0.466667 0.466667
0.188235 0.188235 0.188235
0.192157 0.192157 0.192157
0.200000 0.200000 0.200000
0.211765 0.211765 0.211765
0.219608 0.219608 0.219608
0.231373 0.231373 0.231373
0.239216 0.239216 0.239216
0.243137 0.243137 0.243137
0.254902 0.254902 0.254902
0.262745 0.262745 0.262745
0.274510 0.274510 0.274510
0.282353 0.282353 0.282353
0.290196 0.290196 0.290196
0.301961 0.301961 0.301961
0.309804 0.309804 0.309804
0.325490 0.325490 0.325490
0.329412 0.329412 0.329412
0.337255 0.337255 0.337255
0.349020 0.349020 0.349020
0.360784 0.360784 0.360784
0.368627 0.368627 0.368627
0.384314 0.384314 0.384314
0.392157 0.392157 0.392157
0.403922 0.403922 0.403922
0.415686 0.415686 0.415686
0.423529 0.423529 0.423529
0.435294 0.435294 0.435294
0.443137 0.443137 0.443137
0.458824 0.458824 0.458824
0.466667 0.466667 0.466667
0.474510 0.474510 0.474510
0.490196 0.490196 0.490196
0.200000 0.200000 0.200000
0.211765 0.211765 0.211765
0.219608 0.219608 0.219608
0.231373 0.231373 0.231373
0.239216 0.239216 0.239216
0.243137 0.243137 0.243137
0.254902 0.254902 0.254902
0.262745 0.262745 0.262745
0.270588 0.270588 0.270588
0.282353 0.282353 0.282353
0.290196 0.290196 0.290196
0.301961 0.301961 0.301961
0.309804 0.309804 0.309804
0.317647 0.317647 0.317647
0.329412 0.329412 0.329412
0.337255 0.337255 0.337255
0.349020 0.349020 0.349020
0.360784 0.360784 0.360784
0.368627 0.368627 0.368627
0.384314 0.384314 0.384314
0.392157 0.392157 0.392157
0.403922 0.403922 0.403922
0.415686 0.415686 0.415686
0.423529 0.423529 0.423529
0.435294 0.435294 0.435294
0.443137 0.443137 0.443137
0.458824 0.458824 0.458824
0.466667 0.466667 0.466667
0.474510 0.474510 0.474510
0.490196 0.490196 0.490196
0.501961 0.501961 0.501961
0.513725 0.513725 0.513725
0.219608 0.219608 0.219608
0.227451 0.227451 0.227451
0.239216 0.239216 0.239216
0.243137 0.243137 0.243137
0.254902 0.254902 0.254902
0.262745 0.262745 0.262745
0.270588 0.270588 0.270588
0.282353 0.282353 0.282353
0.290196 0.290196 0.290196
0.301961 0.301961 0.301961
0.309804 0.309804 0.309804
0.317647 0.317647 0.317647
0.329412 0.329412 0.329412
0.337255 0.337255 0.337255
0.349020 0.349020 0.349020
0.360784 0.360784 0.360784
0.368627 0.368627 0.368627
0.384314 0.384314 0.384314
0.392157 0.392157 0.392157
0.400000 0.400000 0.400000
0.415686 0.415686 0.415686
0.423529 0.423529 0.423529
0.435294 0.435294 0.435294
0.443137 0.443137 0.443137
0.450980 0.450980 0.450980
0.466667 0.466667 0.466667
0.474510 0.474510 0.474510
0.490196 0.490196 0.490196
0.501961 0.501961 0.501961
0.509804 0.509804 0.509804
0.521569 0.521569 0.521569
0.529412 0.529412 0.529412
0.239216 0.239216 0.239216
0.243137 0.243137 0.243137
0.254902 0.254902 0.254902
0.262745 0.262745 0.262745
0.270588 0.270588 0.270588
0.282353 0.282353 0.282353
0.290196 0.290196 0.290196
0.298039 0.298039 0.298039
0.309804 0.309804 0.309804
0.317647 0.317647 0.317647
0.329412 0.329412 0.329412
0.337255 0.337255 0.337255
0.345098 0.345098 0.345098
0.360784 0.360784 0.360784
0.368627 0.368627 0.368627
0.384314 0.384314 0.384314
0.392157 0.392157 0.392157
0.400000 0.400000 0.400000
0.415686 0.415686 0.415686
0.423529 0.423529 0.423529
0.435294 0.435294 0.435294
0.443137 0.443137 0.443137
0.450980 0.450980 0.450980
0.466667 0.466667 0.466667
0.474510 0.474510 0.474510
0.490196 0.490196 0.490196
0.501961 0.501961 0.501961
0.509804 0.509804 0.509804
0.521569 0.521569 0.521569
0.529412 0.529412 0.529412
0.545098 0.545098 0.545098
0.552941 0.552941 0.552941
0.250980 0.250980 0.250980
0.262745 0.262745 0.262745
0.270588 0.270588 0.270588
0.282353 0.282353 0.282353
0.290196 0.290196 0.290196
0.298039 0.298039 0.298039
0.309804 0.309804 0.309804
0.317647 0.317647 0.317647
0.329412 0.329412 0.329412
0.337255 0.337255 0.337255
0.345098 0.345098 0.345098
0.360784 0.360784 0.360784
0.368627 0.368627 0.368627
0.384314 0.384314 0.384314
0.392157 0.392157 0.392157
0.400000 0.400000 0.400000
0.415686 0.415686 0.415686
0.423529 0.423529 0.423529
0.431373 0.431373 0.431373
0.443137 0.443137 0.443137
0.450980 0.450980 0.450980
0.466667 0.466667 0.466667
0.474510 0.474510 0.474510
0.486275 0.486275 0.486275
0.501961 0.501961 0.501961
0.509804 0.509804 0.509804
0.521569 0.521569 0.521569
0.529412 0.529412 0.529412
0.537255 0.537255 0.537255
0.552941 0.552941 0.552941
0.560784 0.560784 0.560784
0.576471 0.576471 0.576471
0.270588 0.270588 0.270588
0.282353 0.282353 0.282353
0.290196 0.290196 0.290196
0.298039 0.298039 0.298039
0.309804 0.309804 0.309804
0.317647 0.317647 0.317647
0.329412 0.329412 0.329412
0.337255 0.337255 0.337255
0.345098 0.345098 0.345098
0.360784 0.360784 0.360784
0.368627 0.368627 0.368627
0.376471 0.376471 0.376471
0.392157 0.392157 0.392157
0.400000 0.400000 0.400000
0.415686 0.415686 0.415686
0.423529 0.423529 0.423529
0.431373 0.431373 0.431373
0.443137 0.443137 0.443137
0.450980 0.450980 0.450980
0.466667 0.466667 0.466667
0.474510 0.474510 0.474510
0.486275 0.486275 0.486275
0.501961 0.501961 0.501961
0.509804 0.509804 0.509804
0.521569 0.521569 0.521569
0.529412 0.529412 0.529412
0.537255 0.537255 0.537255
0.552941 0.552941 0.552941
0.560784 0.560784 0.560784
0.576471 0.576471 0.576471
0.584314 0.584314 0.584314
0.596078 0.596078 0.596078
0.290196 0.290196 0.290196
0.298039 0.298039 0.298039
0.309804 0.309804 0.309804
0.317647 0.317647 0.317647
0.329412 0.329412 0.329412
0.337255 0.337255 0.337255
0.345098 0.345098 0.345098
0.360784 0.360784 0.360784
0.368627 0.368627 0.368627
0.376471 0.376471 0.376471
0.392157 0.392157 0.392157
0.400000 0.400000 0.400000
0.415686 0.415686 0.415686
0.423529 0.423529 0.423529
0.431373 0.431373 0.431373
0.443137 0.443137 0.443137
0.450980 0.450980 0.450980
0.462745 0.462745 0.462745
0.474510 0.474510 0.474510
0.486275 0.486275 0.486275
0.501961 0.501961 0.501961
0.509804 0.509804 0.509804
0.517647 0.517647 0.517647
0.529412 0.529412 0.529412
0.537255 0.537255 0.537255
0.552941 0.552941 0.552941
0.560784 0.560784 0.560784
0.572549 0.572549 0.572549
0.584314 0.584314 0.584314
0.596078 0.596078 0.596078
0.607843 0.607843 0.607843
0.615686 0.615686 0.615686
0.309804 0.309804 0.309804
0.317647 0.317647 0.317647
0.329412 0.329412 0.329412
0.337255 0.337255 0.337255
0.345098 0.345098 0.345098
0.356863 0.356863 0.356863
0.368627 0.368627 0.368627
0.376471 0.376471 0.376471
0.392157 0.392157 0.392157
0.400000 0.400000 0.400000
0.411765 0.411765 0.411765
0.423529 0.423529 0.423529
0.431373 0.431373 0.431373
0.443137 0.443137 0.443137
0.450980 0.450980 0.450980
0.462745 0.462745 0.462745
0.474510 0.474510 0.474510
0.486275 0.486275 0.486275
0.501961 0.501961 0.501961
0.509804 0.509804 0.509804
0.517647 0.517647 0.517647
0.529412 0.529412 0.529412
0.537255 0.537255 0.537255
0.552941 0.552941 0.552941
0.560784 0.560784 0.560784
0.572549 0.572549 0.572549
0.584314 0.584314 0.584314
0.596078 0.596078 0.596078
0.607843 0.607843 0.607843
0.615686 0.615686 0.615686
0.623529 0.623529 0.623529
0.635294 0.635294 0.635294
0.329412 0.329412 0.329412
0.337255 0.337255 0.337255
0.345098 0.345098 0.345098
0.356863 0.356863 0.356863
0.368627 0.368627 0.368627
0.376471 0.376471 0.376471
0.392157 0.392157 0.392157
0.400000 0.400000 0.400000
0.411765 0.411765 0.411765
0.423529 0.423529 0.423529
0.431373 0.431373 0.431373
0.443137 0.443137 0.443137
0.450980 0.450980 0.450980
0.462745 0.462745 0.462745
0.474510 0.474510 0.474510
0.486275 0.486275 0.486275
0.494118 0.494118 0.494118
0.509804 0.509804 0.509804
0.517647 0.517647 0.517647
0.529412 0.529412 0.529412
0.537255 0.537255 0.537255
0.549020 0.549020 0.549020
0.560784 0.560784 0.560784
0.572549 0.572549 0.572549
0.584314 0.584314 0.584314
0.596078 0.596078 0.596078
0.603922 0.603922 0.603922
0.615686 0.615686 0.615686
0.623529 0.623529 0.623529
0.635294 0.635294 0.635294
0.647059 0.647059 0.647059
0.654902 0.654902 0.654902
0.345098 0.345098 0.345098
0.356863 0.356863 0.356863
0.368627 0.368627 0.368627
0.376471 0.376471 0.376471
0.388235 0.388235 0.388235
0.400000 0.400000 0.400000
0.411765 0.411765 0.411765
0.423529 0.423529 0.423529
0.431373 0.431373 0.431373
0.439216 0.439216 0.439216
0.450980 0.450980 0.450980
0.462745 0.462745 0.462745
0.474510 0.474510 0.474510
0.486275 0.486275 0.486275
0.494118 0.494118 0.494118
0.509804 0.509804 0.509804
0.517647 0.517647 0.517647
0.529412 0.529412 0.529412
0.537255 0.537255 0.537255
0.549020 0.549020 0.549020
0.560784 0.560784 0.560784
0.572549 0.572549 0.572549
0.584314 0.584314 0.584314
0.596078 0.596078 0.596078
0.603922 0.603922 0.603922
0.615686 0.615686 0.615686
0.623529 0.623529 0.623529
0.635294 0.635294 0.635294
0.647059 0.647059 0.647059
0.654902 0.654902 0.654902
0.666667 0.666667 0.666667
0.678431 0.678431 0.678431
0.368627 0.368627 0.368627
0.376471 0.376471 0.376471
0.388235 0.388235 0.388235
0.400000 0.400000 0.400000
0.411765 0.411765 0.411765
0.423529 0.423529 0.423529
0.431373 0.431373 0.431373
0.439216 0.439216 0.439216
0.450980 0.450980 0.450980
0.462745 0.462745 0.462745
0.474510 0.474510 0.474510
0.486275 0.486275 0.486275
0.494118 0.494118 0.494118
0.509804 0.509804 0.509804
0.517647 0.517647 0.517647
0.525490 0.525490 0.525490
0.537255 0.537255 0.537255
0.549020 0.549020 0.549020
0.560784 0.560784 0.560784
0.572549 0.572549 0.572549
0.580392 0.580392 0.580392
0.596078 0.596078 0.596078
0.603922 0.603922 0.603922
0.615686 0.615686 0.615686
0.623529 0.623529 0.623529
0.631373 0.631373 0.631373
0.647059 0.647059 0.647059
0.654902 0.654902 0.654902
0.666667 0.666667 0.666667
0.678431 0.678431 0.678431
0.686275 0.686275 0.686275
0.698039 0.698039 0.698039
0.388235 0.388235 0.388235
0.400000 0.400000 0.400000
0.411765 0.411765 0.411765
0.419608 0.419608 0.419608
0.431373 0.431373 0.431373
0.439216 0.439216 0.439216
0.450980 0.450980 0.450980
0.462745 0.462745 0.462745
0.470588 0.470588 0.470588
0.486275 0.486275 0.486275
0.494118 0.494118 0.494118
0.509804 0.509804 0.509804
0.517647 0.517647 0.517647
0.525490 0.525490 0.525490
0.537255 0.537255 0.537255
0.549020 0.549020 0.549020
0.560784 0.560784 0.560784
0.572549 0.572549 0.572549
0.580392 0.580392 0.580392
0.596078 0.596078 0.596078
0.603922 0.603922 0.603922
0.615686 0.615686 0.615686
0.623529 0.623529 0.623529
0.631373 0.631373 0.631373
0.647059 0.647059 0.647059
0.654902 0.654902 0.654902
0.666667 0.666667 0.666667
0.678431 0.678431 0.678431
0.686275 0.686275 0.686275
0.698039 0.698039 0.698039
0.705882 0.705882 0.705882
0.709804 0.709804 0.709804
0.411765 0.411765 0.411765
0.419608 0.419608 0.419608
0.431373 0.431373 0.431373
0.439216 0.439216 0.439216
0.450980 0.450980 0.450980
0.462745 0.462745 0.462745
0.470588 0.470588 0.470588
0.486275 0.486275 0.486275
0.494118 0.494118 0.494118
0.509804 0.509804 0.509804
0.517647 0.517647 0.517647
0.525490 0.525490 0.525490
0.537255 0.537255 0.537255
0.549020 0.549020 0.549020
0.556863 0.556863 0.556863
0.572549 0.572549 0.572549
0.580392 0.580392 0.580392
0.596078 0.596078 0.596078
0.603922 0.603922 0.603922
0.611765 0.611765 0.611765
0.623529 0.623529 0.623529
0.631373 0.631373 0.631373
0.647059 0.647059 0.647059
0.654902 0.654902 0.654902
0.662745 0.662745 0.662745
0.678431 0.678431 0.678431
0.686275 0.686275 0.686275
0.698039 0.698039 0.698039
0.705882 0.705882 0.705882
0.709804 0.709804 0.709804
0.725490 0.725490 0.725490
0.733333 0.733333 0.733333
0.431373 0.431373 0.431373
0.439216 0.439216 0.439216
0.447059 0.447059 0.447059
0.462745 0.462745 0.462745
0.470588 0.470588 0.470588
0.486275 0.486275 0.486275
0.494118 0.494118 0.494118
0.505882 0.505882 0.505882
0.517647 0.517647 0.517647
0.525490 0.525490 0.525490
0.537255 0.537255 0.537255
0.549020 0.549020 0.549020
0.556863 0.556863 0.556863
0.572549 0.572549 0.572549
0.580392 0.580392 0.580392
0.596078 0.596078 0.596078
0.603922 0.603922 0.603922
0.611765 0.611765 0.611765
0.623529 0.623529 0.623529
0.631373 0.631373 0.631373
0.647059 0.647059 0.647059
0.654902 0.654902 0.654902
0.662745 0.662745 0.662745
0.678431 0.678431 0.678431
0.686275 0.686275 0.686275
0.698039 0.698039 0.698039
0.705882 0.705882 0.705882
0.709804 0.709804 0.709804
0.725490 0.725490 0.725490
0.733333 0.733333 0.733333
0.741176 0.741176 0.741176
0.752941 0.752941 0.752941
0.447059 0.447059 0.447059
0.462745 0.462745 0.462745
0.470588 0.470588 0.470588
0.486275 0.486275 0.486275
0.494118 0.494118 0.494118
0.505882 0.505882 0.505882
0.517647 0.517647 0.517647
0.525490 0.525490 0.525490
0.537255 0.537255 0.537255
0.549020 0.549020 0.549020
0.556863 0.556863 0.556863
0.572549 0.572549 0.572549
0.580392 0.580392 0.580392
0.592157 0.592157 0.592157
0.603922 0.603922 0.603922
0.611765 0.611765 0.611765
0.623529 0.623529 0.623529
0.631373 0.631373 0.631373
0.643137 0.643137 0.643137
0.654902 0.654902 0.654902
0.662745 0.662745 0.662745
0.678431 0.678431 0.678431
0.686275 0.686275 0.686275
0.694118 0.694118 0.694118
0.705882 0.705882 0.705882
0.709804 0.709804 0.709804
0.725490 0.725490 0.725490
0.733333 0.733333 0.733333
0.741176 0.741176 0.741176
0.752941 0.752941 0.752941
0.760784 0.760784 0.760784
0.772549 0.772549 0.772549
0.470588 0.470588 0.470588
0.482353 0.482353 0.482353
0.494118 0.494118 0.494118
0.505882 0.505882 0.505882
0.517647 0.517647 0.517647
0.525490 0.525490 0.525490
0.533333 0.533333 0.533333
0.549020 0.549020 0.549020
0.556863 0.556863 0.556863
0.572549 0.572549 0.572549
0.580392 0.580392 0.580392
0.592157 0.592157 0.592157
0.603922 0.603922 0.603922
0.611765 0.611765 0.611765
0.623529 0.623529 0.623529
0.631373 0.631373 0.631373
0.643137 0.643137 0.643137
0.654902 0.654902 0.654902
0.662745 0.662745 0.662745
0.678431 0.678431 0.678431
0.686275 0.686275 0.686275
0.694118 0.694118 0.694118
0.705882 0.705882 0.705882
0.709804 0.709804 0.709804
0.725490 0.725490 0.725490
0.733333 0.733333 0.733333
0.741176 0.741176 0.741176
0.752941 0.752941 0.752941
0.760784 0.760784 0.760784
0.768627 0.768627 0.768627
0.780392 0.780392 0.780392
0.784314 0.784314 0.784314
0.494118 0.494118 0.494118
0.505882 0.505882 0.505882
0.517647 0.517647 0.517647
0.525490 0.525490 0.525490
0.533333 0.533333 0.533333
0.549020 0.549020 0.549020
0.556863 0.556863 0.556863
0.572549 0.572549 0.572549
0.580392 0.580392 0.580392
0.592157 0.592157 0.592157
0.603922 0.603922 0.603922
0.611765 0.611765 0.611765
0.619608 0.619608 0.619608
0.631373 0.631373 0.631373
0.643137 0.643137 0.643137
0.654902 0.654902 0.654902
0.662745 0.662745 0.662745
0.670588 0.670588 0.670588
0.686275 0.686275 0.686275
0.694118 0.694118 0.694118
0.705882 0.705882 0.705882
0.709804 0.709804 0.709804
