luts/BW Highkey.cube
TITLE "Exported LUT"
LUT_3D_SIZE 9
DOMAIN_MIN 0.0 0.0 0.0
DOMAIN_MAX 1.0 1.0 1.0
0.000000 0.000000 0.000000
0.132737 0.132737 0.132737
0.299707 0.299707 0.299707
0.449927 0.449927 0.449927
0.590417 0.590417 0.590417
0.728438 0.728438 0.728438
0.862146 0.862146 0.862146
0.994635 0.994635 0.994635
1.000000 1.000000 1.000000
0.132737 0.132737 0.132737
0.132737 0.132737 0.132737
0.299707 0.299707 0.299707
0.449927 0.449927 0.449927
0.590417 0.590417 0.590417
0.728438 0.728438 0.728438
0.862146 0.862146 0.862146
0.994635 0.994635 0.994635
1.000000 1.000000 1.000000
0.299707 0.299707 0.299707
0.299707 0.299707 0.299707
0.299707 0.299707 0.299707
0.449927 0.449927 0.449927
0.590417 0.590417 0.590417
0.728438 0.728438 0.728438
0.862146 0.862146 0.862146
0.994635 0.994635 0.994635
1.000000 1.000000 1.000000
0.449927 0.449927 0.449927
0.449927 0.449927 0.449927
0.449927 0.449927 0.449927
0.449927 0.449927 0.449927
0.590417 0.590417 0.590417
0.728438 0.728438 0.728438
0.862146 0.862146 0.862146
0.994635 0.994635 0.994635
1.000000 1.000000 1.000000
0.590417 0.590417 0.590417
0.590417 0.590417 0.590417
0.590417 0.590417 0.590417
0.590417 0.590417 0.590417
0.590417 0.590417 0.590417
0.728438 0.728438 0.728438
0.862146 0.862146 0.862146
0.994635 0.994635 0.994635
1.000000 1.000000 1.000000
0.728438 0.728438 0.728438
0.728438 0.728438 0.728438
0.728438 0.728438 0.728438
0.728438 0.728438 0.728438
0.728438 0.728438 0.728438
0.728438 0.728438 0.728438
0.862146 0.862146 0.862146
0.994635 0.994635 0.994635
1.000000 1.000000 1.000000
0.862146 0.862146 0.862146
0.862146 0.862146 0.862146
0.862146 0.862146 0.862146
0.862146 0.862146 0.862146
0.862146 0.862146 0.862146
0.862146 0.862146 0.862146
0.862146 0.862146 0.862146
0.994635 0.994635 0.994635
1.000000 1.000000 1.000000
0.994635 0.994635 0.994635
0.994635 0.994635 0.994635
0.994635 0.994635 0.994635
0.994635 0.994635 0.994635
0.994635 0.994635 0.994635
0.994635 0.994635 0.994635
0.994635 0.994635 0.994635
0.994635 0.994635 0.994635
1.000000 1.000000 1.000000
1.000000 1.000000 1.000000
1.000000 1.000000 1.000000
1.000000 1.000000 1.000000
1.000000 1.000000 1.000000
1.000000 1.000000 1.000000
1.000000 1.000000 1.000000
1.000000 1.000000 1.000000
1.000000 1.000000 1.000000
1.000000 1.000000 1.000000
0.132737 0.132737 0.132737
0.132737 0.132737 0.132737
0.299707 0.299707 0.299707
0.449927 0.449927 0.449927
0.590417 0.590417 0.590417
0.728438 0.728438 0.728438
0.862146 0.862146 0.862146
0.994635 0.994635 0.994635
1.000000 1.000000 1.000000
0.132737 0.132737 0.132737
0.132737 0.132737 0.132737
0.299707 0.299707 0.299707
0.449927 0.449927 0.449927
0.590417 0.590417 0.590417
0.728438 0.728438 0.728438
0.862146 0.862146 0.862146
0.994635 0.994635 0.994635
1.000000 1.000000 1.000000
0.299707 0.299707 0.299707
0.299707 0.299707 0.299707
0.299707 0.299707 0.299707
0.449927 0.449927 0.449927
0.590417 0.590417 0.590417
0.728438 0.728438 0.728438
0.862146 0.862146 0.862146
0.994635 0.994635 0.994635
1.000000 1.000000 1.000000
0.449927 0.449927 0.449927
0.449927 0.449927 0.449927
0.449927 0.449927 0.449927
0.449927 0.449927 0.449927
0.590417 0.590417 0.590417
0.728438 0.728438 0.728438
0.862146 0.862146 0.862146
0.994635 0.994635 0.994635
1.000000 1.000000 1.000000
0.590417 0.590417 0.590417
0.590417 0.590417 0.590417
0.590417 0.590417 0.590417
0.590417 0.590417 0.590417
0.590417 0.590417 0.590417
0.728438 0.728438 0.728438
0.862146 0.862146 0.862146
0.994635 0.994635 0.994635
1.000000 1.000000 1.000000
0.728438 0.728438 0.728438
0.728438 0.728438 0.728438
0.728438 0.728438 0.728438
0.728438 0.728438 0.728438
0.728438 0.728438 0.728438
0.728438 0.728438 0.728438
0.862146 0.862146 0.862146
0.994635 0.994635 0.994635
1.000000 1.000000 1.000000
0.862146 0.862146 0.862146
0.862146 0.862146 0.862146
0.862146 0.862146 0.862146
0.862146 0.862146 0.862146
0.862146 0.862146 0.862146
0.862146 0.862146 0.862146
0.862146 0.862146 0.862146
0.994635 0.994635 0.994635
1.000000 1.000000 1.000000
0.994635 0.994635 0.994635
0.994635 0.994635 0.994635
0.994635 0.994635 0.994635
0.994635 0.994635 0.994635
0.994635 0.994635 0.994635
0.994635 0.994635 0.994635
0.994635 0.994635 0.994635
0.994635 0.994635 0.994635
1.000000 1.000000 1.000000
1.000000 1.000000 1.000000
1.000000 1.000000 1.000000
1.000000 1.000000 1.000000
1.000000 1.000000 1.000000
1.000000 1.000000 1.000000
1.000000 1.000000 1.000000
1.000000 1.000000 1.000000
1.000000 1.000000 1.000000
1.000000 1.000000 1.000000
0.299707 0.299707 0.299707
0.299707 0.299707 0.299707
0.299707 0.299707 0.299707
0.449927 0.449927 0.449927
0.590417 0.590417 0.590417
0.728438 0.728438 0.728438
0.862146 0.862146 0.862146
0.994635 0.994635 0.994635
1.000000 1.000000 1.000000
0.299707 0.299707 0.299707
0.299707 0.299707 0.299707
0.299707 0.299707 0.299707
0.449927 0.449927 0.449927
0.590417 0.590417 0.590417
0.728438 0.728438 0.728438
0.862146 0.862146 0.862146
0.994635 0.994635 0.994635
1.000000 1.000000 1.000000
0.299707 0.299707 0.299707
0.299707 0.299707 0.299707
0.299707 0.299707 0.299707
0.449927 0.449927 0.449927
0.590417 0.590417 0.590417
0.728438 0.728438 0.728438
0.862146 0.862146 0.862146
0.994635 0.994635 0.994635
1.000000 1.000000 1.000000
0.449927 0.449927 0.449927
0.449927 0.449927 0.449927
0.449927 0.449927 0.449927
0.449927 0.449927 0.449927
0.590417 0.590417 0.590417
0.728438 0.728438 0.728438
0.862146 0.862146 0.862146
0.994635 0.994635 0.994635
1.000000 1.000000 1.000000
0.590417 0.590417 0.590417
0.590417 0.590417 0.590417
0.590417 0.590417 0.590417
0.590417 0.590417 0.590417
0.590417 0.590417 0.590417
0.728438 0.728438 0.728438
0.862146 0.862146 0.862146
0.994635 0.994635 0.994635
1.000000 1.000000 1.000000
0.728438 0.728438 0.728438
0.728438 0.728438 0.728438
0.728438 0.728438 0.728438
0.728438 0.728438 0.728438
0.728438 0.728438 0.728438
0.728438 0.728438 0.728438
0.862146 0.862146 0.862146
0.994635 0.994635 0.994635
1.000000 1.000000 1.000000
0.862146 0.862146 0.862146
0.862146 0.862146 0.862146
0.862146 0.862146 0.862146
0.862146 0.862146 0.862146
0.862146 0.862146 0.862146
0.862146 0.862146 0.862146
0.862146 0.862146 0.862146
0.994635 0.994635 0.994635
1.000000 1.000000 1.000000
0.994635 0.994635 0.994635
0.994635 0.994635 0.994635
0.994635 0.994635 0.994635
0.994635 0.994635 0.994635
0.994635 0.994635 0.994635
0.994635 0.994635 0.994635
0.994635 0.994635 0.994635
0.994635 0.994635 0.994635
1.000000 1.000000 1.000000
1.000000 1.000000 1.000000
1.000000 1.000000 1.000000
1.000000 1.000000 1.000000
1.000000 1.000000 1.000000
1.000000 1.000000 1.000000
1.000000 1.000000 1.000000
1.000000 1.000000 1.000000
1.000000 1.000000 1.000000
1.000000 1.000000 1.000000
0.449927 0.449927 0.449927
0.449927 0.449927 0.449927
0.449927 0.449927 0.449927
0.449927 0.449927 0.449927
0.590417 0.590417 0.590417
0.728438 0.728438 0.728438
0.862146 0.862146 0.862146
0.994635 0.994635 0.994635
1.000000 1.000000 1.000000
0.449927 0.449927 0.449927
0.449927 0.449927 0.449927
0.449927 0.449927 0.449927
0.449927 0.449927 0.449927
0.590417 0.590417 0.590417
0.728438 0.728438 0.728438
0.862146 0.862146 0.862146
0.994635 0.994635 0.994635
1.000000 1.000000 1.000000
0.449927 0.449927 0.449927
0.449927 0.449927 0.449927
0.449927 0.449927 0.449927
0.449927 0.449927 0.449927
0.590417 0.590417 0.590417
0.728438 0.728438 0.728438
0.862146 0.862146 0.862146
0.994635 0.994635 0.994635
1.000000 1.000000 1.000000
0.449927 0.449927 0.449927
0.449927 0.449927 0.449927
0.449927 0.449927 0.449927
0.449927 0.449927 0.449927
0.590417 0.590417 0.590417
0.728438 0.728438 0.728438
0.862146 0.862146 0.862146
0.994635 0.994635 0.994635
1.000000 1.000000 1.000000
0.590417 0.590417 0.590417
0.590417 0.590417 0.590417
0.590417 0.590417 0.590417
0.590417 0.590417 0.590417
0.590417 0.590417 0.590417
0.728438 0.728438 0.728438
0.862146 0.862146 0.862146
0.994635 0.994635 0.994635
1.000000 1.000000 1.000000
0.728438 0.728438 0.728438
0.728438 0.728438 0.728438
0.728438 0.728438 0.728438
0.728438 0.728438 0.728438
0.728438 0.728438 0.728438
0.728438 0.728438 0.728438
0.862146 0.862146 0.862146
0.994635 0.994635 0.994635
1.000000 1.000000 1.000000
0.862146 0.862146 0.862146
0.862146 0.862146 0.862146
0.862146 0.862146 0.862146
0.862146 0.862146 0.862146
0.862146 0.862146 0.862146
0.862146 0.862146 0.862146
0.862146 0.862146 0.862146
0.994635 0.994635 0.994635
1.000000 1.000000 1.000000
0.994635 0.994635 0.994635
0.994635 0.994635 0.994635
0.994635 0.994635 0.994635
0.994635 0.994635 0.994635
0.994635 0.994635 0.994635
0.994635 0.994635 0.994635
0.994635 0.994635 0.994635
0.994635 0.994635 0.994635
1.000000 1.000000 1.000000
1.000000 1.000000 1.000000
1.000000 1.000000 1.000000
1.000000 1.000000 1.000000
1.000000 1.000000 1.000000
1.000000 1.000000 1.000000
1.000000 1.000000 1.000000
1.000000 1.000000 1.000000
1.000000 1.000000 1.000000
1.000000 1.000000 1.000000
0.590417 0.590417 0.590417
0.590417 0.590417 0.590417
0.590417 0.590417 0.590417
0.590417 0.590417 0.590417
0.590417 0.590417 0.590417
0.728438 0.728438 0.728438
0.862146 0.862146 0.862146
0.994635 0.994635 0.994635
1.000000 1.000000 1.000000
0.590417 0.590417 0.590417
0.590417 0.590417 0.590417
0.590417 0.590417 0.590417
0.590417 0.590417 0.590417
0.590417 0.590417 0.590417
0.728438 0.728438 0.728438
0.862146 0.862146 0.862146
0.994635 0.994635 0.994635
1.000000 1.000000 1.000000
0.590417 0.590417 0.590417
0.590417 0.590417 0.590417
0.590417 0.590417 0.590417
0.590417 0.590417 0.590417
0.590417 0.590417 0.590417
0.728438 0.728438 0.728438
0.862146 0.862146 0.862146
0.994635 0.994635 0.994635
1.000000 1.000000 1.000000
0.590417 0.590417 0.590417
0.590417 0.590417 0.590417
0.590417 0.590417 0.590417
0.590417 0.590417 0.590417
0.590417 0.590417 0.590417
0.728438 0.728438 0.728438
0.862146 0.862146 0.862146
0.994635 0.994635 0.994635
1.000000 1.000000 1.000000
0.590417 0.590417 0.590417
0.590417 0.590417 0.590417
0.590417 0.590417 0.590417
0.590417 0.590417 0.590417
0.590417 0.590417 0.590417
0.728438 0.728438 0.728438
0.862146 0.862146 0.862146
0.994635 0.994635 0.994635
1.000000 1.000000 1.000000
0.728438 0.728438 0.728438
0.728438 0.728438 0.728438
0.728438 0.728438 0.728438
0.728438 0.728438 0.728438
0.728438 0.728438 0.728438
0.728438 0.728438 0.728438
0.862146 0.862146 0.862146
0.994635 0.994635 0.994635
1.000000 1.000000 1.000000
0.862146 0.862146 0.862146
0.862146 0.862146 0.862146
0.862146 0.862146 0.862146
0.862146 0.862146 0.862146
0.862146 0.862146 0.862146
0.862146 0.862146 0.862146
0.862146 0.862146 0.862146
0.994635 0.994635 0.994635
1.000000 1.000000 1.000000
0.994635 0.994635 0.994635
0.994635 0.994635 0.994635
0.994635 0.994635 0.994635
0.994635 0.994635 0.994635
0.994635 0.994635 0.994635
0.994635 0.994635 0.994635
0.994635 0.994635 0.994635
0.994635 0.994635 0.994635
1.000000 1.000000 1.000000
1.000000 1.000000 1.000000
1.000000 1.000000 1.000000
1.000000 1.000000 1.000000
1.000000 1.000000 1.000000
1.000000 1.000000 1.000000
1.000000 1.000000 1.000000
1.000000 1.000000 1.000000
1.000000 1.000000 1.000000
1.000000 1.000000 1.000000
0.728438 0.728438 0.728438
0.728438 0.728438 0.728438
0.728438 0.728438 0.728438
0.728438 0.728438 0.728438
0.728438 0.728438 0.728438
0.728438 0.728438 0.728438
0.862146 0.862146 0.862146
0.994635 0.994635 0.994635
1.000000 1.000000 1.000000
0.728438 0.728438 0.728438
0.728438 0.728438 0.728438
0.728438 0.728438 0.728438
0.728438 0.728438 0.728438
0.728438 0.728438 0.728438
0.728438 0.728438 0.728438
0.862146 0.862146 0.862146
0.994635 0.994635 0.994635
1.000000 1.000000 1.000000
0.728438 0.728438 0.728438
0.728438 0.728438 0.728438
0.728438 0.728438 0.728438
0.728438 0.728438 0.728438
0.728438 0.728438 0.728438
0.728438 0.728438 0.728438
0.862146 0.862146 0.862146
0.994635 0.994635 0.994635
1.000000 1.000000 1.000000
0.728438 0.728438 0.728438
0.728438 0.728438 0.728438
0.728438 0.728438 0.728438
0.728438 0.728438 0.728438
0.728438 0.728438 0.728438
0.728438 0.728438 0.728438
0.862146 0.862146 0.862146
0.994635 0.994635 0.994635
1.000000 1.000000 1.000000
0.728438 0.728438 0.728438
0.728438 0.728438 0.728438
0.728438 0.728438 0.728438
0.728438 0.728438 0.728438
0.728438 0.728438 0.728438
0.728438 0.728438 0.728438
0.862146 0.862146 0.862146
0.994635 0.994635 0.994635
1.000000 1.000000 1.000000
0.728438 0.728438 0.728438
0.728438 0.728438 0.728438
0.728438 0.728438 0.728438
0.728438 0.728438 0.728438
0.728438 0.728438 0.728438
0.728438 0.728438 0.728438
0.862146 0.862146 0.862146
0.994635 0.994635 0.994635
1.000000 1.000000 1.000000
0.862146 0.862146 0.862146
0.862146 0.862146 0.862146
0.862146 0.862146 0.862146
0.862146 0.862146 0.862146
0.862146 0.862146 0.862146
0.862146 0.862146 0.862146
0.862146 0.862146 0.862146
0.994635 0.994635 0.994635
1.000000 1.000000 1.000000
0.994635 0.994635 0.994635
0.994635 0.994635 0.994635
0.994635 0.994635 0.994635
0.994635 0.994635 0.994635
0.994635 0.994635 0.994635
0.994635 0.994635 0.994635
0.994635 0.994635 0.994635
0.994635 0.994635 0.994635
1.000000 1.000000 1.000000
1.000000 1.000000 1.000000
1.000000 1.000000 1.000000
1.000000 1.000000 1.000000
1.000000 1.000000 1.000000
1.000000 1.000000 1.000000
1.000000 1.000000 1.000000
1.000000 1.000000 1.000000
1.000000 1.000000 1.000000
1.000000 1.000000 1.000000
0.862146 0.862146 0.862146
0.862146 0.862146 0.862146
0.862146 0.862146 0.862146
0.862146 0.862146 0.862146
0.862146 0.862146 0.862146
0.862146 0.862146 0.862146
0.862146 0.862146 0.862146
0.994635 0.994635 0.994635
1.000000 1.000000 1.000000
0.862146 0.862146 0.862146
0.862146 0.862146 0.862146
0.862146 0.862146 0.862146
0.862146 0.862146 0.862146
0.862146 0.862146 0.862146
0.862146 0.862146 0.862146
0.862146 0.862146 0.862146
0.994635 0.994635 0.994635
1.000000 1.000000 1.000000
0.862146 0.862146 0.862146
0.862146 0.862146 0.862146
0.862146 0.862146 0.862146
0.862146 0.862146 0.862146
0.862146 0.862146 0.862146
0.862146 0.862146 0.862146
0.862146 0.862146 0.862146
0.994635 0.994635 0.994635
1.000000 1.000000 1.000000
0.862146 0.862146 0.862146
0.862146 0.862146 0.862146
0.862146 0.862146 0.862146
0.862146 0.862146 0.862146
0.862146 0.862146 0.862146
0.862146 0.862146 0.862146
0.862146 0.862146 0.862146
0.994635 0.994635 0.994635
1.000000 1.000000 1.000000
0.862146 0.862146 0.862146
0.862146 0.862146 0.862146
0.862146 0.862146 0.862146
0.862146 0.862146 0.862146
0.862146 0.862146 0.862146
0.862146 0.862146 0.862146
0.862146 0.862146 0.862146
0.994635 0.994635 0.994635
1.000000 1.000000 1.000000
0.862146 0.862146 0.862146
0.862146 0.862146 0.862146
0.862146 0.862146 0.862146
0.862146 0.862146 0.862146
0.862146 0.862146 0.862146
0.862146 0.862146 0.862146
0.862146 0.862146 0.862146
0.994635 0.994635 0.994635
1.000000 1.000000 1.000000
0.862146 0.862146 0.862146
0.862146 0.862146 0.862146
0.862146 0.862146 0.862146
0.862146 0.862146 0.862146
0.862146 0.862146 0.862146
0.862146 0.862146 0.862146
0.862146 0.862146 0.862146
0.994635 0.994635 0.994635
1.000000 1.000000 1.000000
0.994635 0.994635 0.994635
0.994635 0.994635 0.994635
0.994635 0.994635 0.994635
0.994635 0.994635 0.994635
0.994635 0.994635 0.994635
0.994635 0.994635 0.994635
0.994635 0.994635 0.994635
0.994635 0.994635 0.994635
1.000000 1.000000 1.000000
1.000000 1.000000 1.000000
1.000000 1.000000 1.000000
1.000000 1.000000 1.000000
1.000000 1.000000 1.000000
1.000000 1.000000 1.000000
1.000000 1.000000 1.000000
1.000000 1.000000 1.000000
1.000000 1.000000 1.000000
1.000000 1.000000 1.000000
0.994635 0.994635 0.994635
0.994635 0.994635 0.994635
0.994635 0.994635 0.994635
0.994635 0.994635 0.994635
0.994635 0.994635 0.994635
0.994635 0.994635 0.994635
0.994635 0.994635 0.994635
0.994635 0.994635 0.994635
1.000000 1.000000 1.000000
0.994635 0.994635 0.994635
0.994635 0.994635 0.994635
0.994635 0.994635 0.994635
0.994635 0.994635 0.994635
0.994635 0.994635 0.994635
0.994635 0.994635 0.994635
0.994635 0.994635 0.994635
0.994635 0.994635 0.994635
1.000000 1.000000 1.000000
0.994635 0.994635 0.994635
0.994635 0.994635 0.994635
0.994635 0.994635 0.994635
0.994635 0.994635 0.994635
0.994635 0.994635 0.994635
0.994635 0.994635 0.994635
0.994635 0.994635 0.994635
0.994635 0.994635 0.994635
1.000000 1.000000 1.000000
0.994635 0.994635 0.994635
0.994635 0.994635 0.994635
0.994635 0.994635 0.994635
0.994635 0.994635 0.994635
0.994635 0.994635 0.994635
0.994635 0.994635 0.994635
0.994635 0.994635 0.994635
0.994635 0.994635 0.994635
1.000000 1.000000 1.000000
0.994635 0.994635 0.994635
0.994635 0.994635 0.994635
0.994635 0.994635 0.994635
0.994635 0.994635 0.994635
0.994635 0.994635 0.994635
0.994635 0.994635 0.994635
0.994635 0.994635 0.994635
0.994635 0.994635 0.994635
1.000000 1.000000 1.000000
0.994635 0.994635 0.994635
0.994635 0.994635 0.994635
0.994635 0.994635 0.994635
0.994635 0.994635 0.994635
0.994635 0.994635 0.994635
0.994635 0.994635 0.994635
0.994635 0.994635 0.994635
0.994635 0.994635 0.994635
1.000000 1.000000 1.000000
0.994635 0.994635 0.994635
0.994635 0.994635 0.994635
0.994635 0.994635 0.994635
0.994635 0.994635 0.994635
0.994635 0.994635 0.994635
0.994635 0.994635 0.994635
0.994635 0.994635 0.994635
0.994635 0.994635 0.994635
1.000000 1.000000 1.000000
0.994635 0.994635 0.994635
0.994635 0.994635 0.994635
0.994635 0.994635 0.994635
0.994635 0.994635 0.994635
0.994635 0.994635 0.994635
0.994635 0.994635 0.994635
0.994635 0.994635 0.994635
0.994635 0.994635 0.994635
1.000000 1.000000 1.000000
1.000000 1.000000 1.000000
1.000000 1.000000 1.000000
1.000000 1.000000 1.000000
1.000000 1.000000 1.000000
1.000000 1.000000 1.000000
1.000000 1.000000 1.000000
1.000000 1.000000 1.000000
1.000000 1.000000 1.000000
1.000000 1.000000 1.000000
1.000000 1.000000 1.000000
1.000000 1.000000 1.000000
1.000000 1.000000 1.000000
1.000000 1.000000 1.000000
1.000000 1.000000 1.000000
1.000000 1.000000 1.000000
1.000000 1.000000 1.000000
1.000000 1.000000 1.000000
1.000000 1.000000 1.000000
1.000000 1.000000 1.000000
1.000000 1.000000 1.000000
1.000000 1.000000 1.000000
1.000000 1.000000 1.000000
1.000000 1.000000 1.000000
1.000000 1.000000 1.000000
1.000000 1.000000 1.000000
1.000000 1.000000 1.000000
1.000000 1.000000 1.000000
1.000000 1.000000 1.000000
1.000000 1.000000 1.000000
1.000000 1.000000 1.000000
1.000000 1.000000 1.000000
1.000000 1.000000 1.000000
1.000000 1.000000 1.000000
1.000000 1.000000 1.000000
1.000000 1.000000 1.000000
1.000000 1.000000 1.000000
1.000000 1.000000 1.000000
1.000000 1.000000 1.000000
1.000000 1.000000 1.000000
1.000000 1.000000 1.000000
1.000000 1.000000 1.000000
1.000000 1.000000 1.000000
1.000000 1.000000 1.000000
1.000000 1.000000 1.000000
1.000000 1.000000 1.000000
1.000000 1.000000 1.000000
1.000000 1.000000 1.000000
1.000000 1.000000 1.000000
1.000000 1.000000 1.000000
1.000000 1.000000 1.000000
1.000000 1.000000 1.000000
1.000000 1.000000 1.000000
1.000000 1.000000 1.000000
1.000000 1.000000 1.000000
1.000000 1.000000 1.000000
1.000000 1.000000 1.000000
1.000000 1.000000 1.000000
1.000000 1.000000 1.000000
1.000000 1.000000 1.000000
1.000000 1.000000 1.000000
1.000000 1.000000 1.000000
1.000000 1.000000 1.000000
1.000000 1.000000 1.000000
1.000000 1.000000 1.000000
1.000000 1.000000 1.000000
1.000000 1.000000 1.000000
1.000000 1.000000 1.000000
1.000000 1.000000 1.000000
1.000000 1.000000 1.000000
1.000000 1.000000 1.000000
1.000000 1.000000 1.000000
1.000000 1.000000 1.000000
1.000000 1.000000 1.000000
1.000000 1.000000 1.000000
1.000000 1.000000 1.000000
1.000000 1.000000 1.000000
1.000000 1.000000 1.000000
1.000000 1.000000 1.000000
1.000000 1.000000 1.000000
1.000000 1.000000 1.000000
1.000000 1.000000 1.000000
1.000000 1.000000 1.000000
1.000000 1.000000 1.000000
1.000000 1.000000 1.000000
1.000000 1.000000 1.000000
1.000000 1.000000 1.000000
1.000000 1.000000 1.000000
1.000000 1.000000 1.000000
1.000000 1.000000 1.000000
1.000000 1.000000 1.000000
