luts/BW High Contrast.cube
#Generated by wwww.onlinelutcreator.com 
LUT_3D_SIZE 5 
DOMAIN_MIN 0.000000 0.000000 0.000000
DOMAIN_MAX 0.903226 0.903226 0.903226
0.039216 0.039216 0.039216
0.082353 0.082353 0.082353
0.129412 0.129412 0.129412
0.180392 0.180392 0.180392
0.239216 0.239216 0.239216
0.129412 0.129412 0.129412
0.180392 0.180392 0.180392
0.239216 0.239216 0.239216
0.301961 0.301961 0.301961
0.372549 0.372549 0.372549
0.239216 0.239216 0.239216
0.298039 0.298039 0.298039
0.368627 0.368627 0.368627
0.443137 0.443137 0.443137
0.521569 0.521569 0.521569
0.368627 0.368627 0.368627
0.439216 0.439216 0.439216
0.517647 0.517647 0.517647
0.596078 0.596078 0.596078
0.666667 0.666667 0.666667
0.513725 0.513725 0.513725
0.592157 0.592157 0.592157
0.662745 0.662745 0.662745
0.733333 0.733333 0.733333
0.792157 0.792157 0.792157
0.050980 0.050980 0.050980
0.101961 0.101961 0.101961
0.149020 0.149020 0.149020
0.203922 0.203922 0.203922
0.262745 0.262745 0.262745
0.145098 0.145098 0.145098
0.200000 0.200000 0.200000
0.262745 0.262745 0.262745
0.329412 0.329412 0.329412
0.400000 0.400000 0.400000
0.258824 0.258824 0.258824
0.329412 0.329412 0.329412
0.400000 0.400000 0.400000
0.470588 0.470588 0.470588
0.549020 0.549020 0.549020
0.396078 0.396078 0.396078
0.470588 0.470588 0.470588
0.545098 0.545098 0.545098
0.619608 0.619608 0.619608
0.694118 0.694118 0.694118
0.545098 0.545098 0.545098
0.619608 0.619608 0.619608
0.690196 0.690196 0.690196
0.756863 0.756863 0.756863
0.815686 0.815686 0.815686
0.070588 0.070588 0.070588
0.121569 0.121569 0.121569
0.168627 0.168627 0.168627
0.227451 0.227451 0.227451
0.290196 0.290196 0.290196
0.168627 0.168627 0.168627
0.223529 0.223529 0.223529
0.286275 0.286275 0.286275
0.356863 0.356863 0.356863
0.431373 0.431373 0.431373
0.286275 0.286275 0.286275
0.349020 0.349020 0.349020
0.423529 0.423529 0.423529
0.505882 0.505882 0.505882
0.576471 0.576471 0.576471
0.423529 0.423529 0.423529
0.501961 0.501961 0.501961
0.576471 0.576471 0.576471
0.650980 0.650980 0.650980
0.713725 0.713725 0.713725
0.572549 0.572549 0.572549
0.647059 0.647059 0.647059
0.713725 0.713725 0.713725
0.780392 0.780392 0.780392
0.835294 0.835294 0.835294
0.090196 0.090196 0.090196
0.137255 0.137255 0.137255
0.192157 0.192157 0.192157
0.247059 0.247059 0.247059
0.313725 0.313725 0.313725
0.188235 0.188235 0.188235
0.247059 0.247059 0.247059
0.313725 0.313725 0.313725
0.384314 0.384314 0.384314
0.458824 0.458824 0.458824
0.309804 0.309804 0.309804
0.384314 0.384314 0.384314
0.450980 0.450980 0.450980
0.529412 0.529412 0.529412
0.607843 0.607843 0.607843
0.450980 0.450980 0.450980
0.529412 0.529412 0.529412
0.603922 0.603922 0.603922
0.678431 0.678431 0.678431
0.745098 0.745098 0.745098
0.603922 0.603922 0.603922
0.670588 0.670588 0.670588
0.741176 0.741176 0.741176
0.800000 0.800000 0.800000
0.854902 0.854902 0.854902
0.109804 0.109804 0.109804
0.152941 0.152941 0.152941
0.211765 0.211765 0.211765
0.274510 0.274510 0.274510
0.341176 0.341176 0.341176
0.207843 0.207843 0.207843
0.270588 0.270588 0.270588
0.337255 0.337255 0.337255
0.415686 0.415686 0.415686
0.486275 0.486275 0.486275
0.333333 0.333333 0.333333
0.411765 0.411765 0.411765
0.486275 0.486275 0.486275
0.560784 0.560784 0.560784
0.631373 0.631373 0.631373
0.482353 0.482353 0.482353
0.556863 0.556863 0.556863
0.631373 0.631373 0.631373
0.701961 0.701961 0.701961
0.768627 0.768627 0.768627
0.627451 0.627451 0.627451
0.701961 0.701961 0.701961
0.768627 0.768627 0.768627
0.819608 0.819608 0.819608
0.874510 0.874510 0.874510
