luts/BW High Contrast.cube
#Generated by wwww.onlinelutcreator.com 
LUT_3D_SIZE 8 
DOMAIN_MIN 0.000000 0.000000 0.000000
DOMAIN_MAX 0.903226 0.903226 0.903226
0.039216 0.039216 0.039216
0.062745 0.062745 0.062745
0.090196 0.090196 0.090196
0.117647 0.117647 0.117647
0.145098 0.145098 0.145098
0.172549 0.172549 0.172549
0.203922 0.203922 0.203922
0.239216 0.239216 0.239216
0.090196 0.090196 0.090196
0.113725 0.113725 0.113725
0.145098 0.145098 0.145098
0.168627 0.168627 0.168627
0.203922 0.203922 0.203922
0.239216 0.239216 0.239216
0.274510 0.274510 0.274510
0.313725 0.313725 0.313725
0.145098 0.145098 0.145098
0.168627 0.168627 0.168627
0.203922 0.203922 0.203922
0.239216 0.239216 0.239216
0.274510 0.274510 0.274510
0.309804 0.309804 0.309804
0.349020 0.349020 0.349020
0.396078 0.396078 0.396078
0.200000 0.200000 0.200000
0.239216 0.239216 0.239216
0.270588 0.270588 0.270588
0.309804 0.309804 0.309804
0.349020 0.349020 0.349020
0.392157 0.392157 0.392157
0.435294 0.435294 0.435294
0.474510 0.474510 0.474510
0.270588 0.270588 0.270588
0.309804 0.309804 0.309804
0.345098 0.345098 0.345098
0.392157 0.392157 0.392157
0.431373 0.431373 0.431373
0.474510 0.474510 0.474510
0.521569 0.521569 0.521569
0.560784 0.560784 0.560784
0.345098 0.345098 0.345098
0.388235 0.388235 0.388235
0.431373 0.431373 0.431373
0.474510 0.474510 0.474510
0.517647 0.517647 0.517647
0.560784 0.560784 0.560784
0.603922 0.603922 0.603922
0.647059 0.647059 0.647059
0.431373 0.431373 0.431373
0.470588 0.470588 0.470588
0.517647 0.517647 0.517647
0.556863 0.556863 0.556863
0.603922 0.603922 0.603922
0.647059 0.647059 0.647059
0.686275 0.686275 0.686275
0.725490 0.725490 0.725490
0.513725 0.513725 0.513725
0.556863 0.556863 0.556863
0.603922 0.603922 0.603922
0.643137 0.643137 0.643137
0.686275 0.686275 0.686275
0.717647 0.717647 0.717647
0.760784 0.760784 0.760784
0.792157 0.792157 0.792157
0.050980 0.050980 0.050980
0.070588 0.070588 0.070588
0.101961 0.101961 0.101961
0.125490 0.125490 0.125490
0.152941 0.152941 0.152941
0.184314 0.184314 0.184314
0.219608 0.219608 0.219608
0.254902 0.254902 0.254902
0.098039 0.098039 0.098039
0.125490 0.125490 0.125490
0.152941 0.152941 0.152941
0.184314 0.184314 0.184314
0.219608 0.219608 0.219608
0.250980 0.250980 0.250980
0.290196 0.290196 0.290196
0.329412 0.329412 0.329412
0.149020 0.149020 0.149020
0.184314 0.184314 0.184314
0.215686 0.215686 0.215686
0.250980 0.250980 0.250980
0.286275 0.286275 0.286275
0.329412 0.329412 0.329412
0.368627 0.368627 0.368627
0.411765 0.411765 0.411765
0.215686 0.215686 0.215686
0.250980 0.250980 0.250980
0.286275 0.286275 0.286275
0.329412 0.329412 0.329412
0.364706 0.364706 0.364706
0.411765 0.411765 0.411765
0.447059 0.447059 0.447059
0.494118 0.494118 0.494118
0.286275 0.286275 0.286275
0.325490 0.325490 0.325490
0.364706 0.364706 0.364706
0.403922 0.403922 0.403922
0.447059 0.447059 0.447059
0.494118 0.494118 0.494118
0.533333 0.533333 0.533333
0.580392 0.580392 0.580392
0.364706 0.364706 0.364706
0.403922 0.403922 0.403922
0.447059 0.447059 0.447059
0.490196 0.490196 0.490196
0.533333 0.533333 0.533333
0.576471 0.576471 0.576471
0.619608 0.619608 0.619608
0.662745 0.662745 0.662745
0.443137 0.443137 0.443137
0.490196 0.490196 0.490196
0.529412 0.529412 0.529412
0.576471 0.576471 0.576471
0.619608 0.619608 0.619608
0.658824 0.658824 0.658824
0.701961 0.701961 0.701961
0.737255 0.737255 0.737255
0.529412 0.529412 0.529412
0.576471 0.576471 0.576471
0.615686 0.615686 0.615686
0.658824 0.658824 0.658824
0.698039 0.698039 0.698039
0.737255 0.737255 0.737255
0.776471 0.776471 0.776471
0.803922 0.803922 0.803922
0.054902 0.054902 0.054902
0.082353 0.082353 0.082353
0.109804 0.109804 0.109804
0.137255 0.137255 0.137255
0.168627 0.168627 0.168627
0.196078 0.196078 0.196078
0.235294 0.235294 0.235294
0.266667 0.266667 0.266667
0.109804 0.109804 0.109804
0.137255 0.137255 0.137255
0.164706 0.164706 0.164706
0.196078 0.196078 0.196078
0.231373 0.231373 0.231373
0.266667 0.266667 0.266667
0.301961 0.301961 0.301961
0.341176 0.341176 0.341176
0.164706 0.164706 0.164706
0.192157 0.192157 0.192157
0.231373 0.231373 0.231373
0.266667 0.266667 0.266667
0.301961 0.301961 0.301961
0.341176 0.341176 0.341176
0.384314 0.384314 0.384314
0.423529 0.423529 0.423529
0.231373 0.231373 0.231373
0.262745 0.262745 0.262745
0.301961 0.301961 0.301961
0.337255 0.337255 0.337255
0.384314 0.384314 0.384314
0.423529 0.423529 0.423529
0.466667 0.466667 0.466667
0.513725 0.513725 0.513725
0.298039 0.298039 0.298039
0.337255 0.337255 0.337255
0.384314 0.384314 0.384314
0.423529 0.423529 0.423529
0.466667 0.466667 0.466667
0.509804 0.509804 0.509804
0.552941 0.552941 0.552941
0.596078 0.596078 0.596078
0.376471 0.376471 0.376471
0.423529 0.423529 0.423529
0.462745 0.462745 0.462745
0.509804 0.509804 0.509804
0.549020 0.549020 0.549020
0.596078 0.596078 0.596078
0.635294 0.635294 0.635294
0.678431 0.678431 0.678431
0.462745 0.462745 0.462745
0.509804 0.509804 0.509804
0.549020 0.549020 0.549020
0.596078 0.596078 0.596078
0.631373 0.631373 0.631373
0.678431 0.678431 0.678431
0.709804 0.709804 0.709804
0.752941 0.752941 0.752941
0.549020 0.549020 0.549020
0.592157 0.592157 0.592157
0.631373 0.631373 0.631373
0.670588 0.670588 0.670588
0.709804 0.709804 0.709804
0.752941 0.752941 0.752941
0.784314 0.784314 0.784314
0.815686 0.815686 0.815686
0.066667 0.066667 0.066667
0.094118 0.094118 0.094118
0.121569 0.121569 0.121569
0.149020 0.149020 0.149020
0.176471 0.176471 0.176471
0.211765 0.211765 0.211765
0.243137 0.243137 0.243137
0.282353 0.282353 0.282353
0.121569 0.121569 0.121569
0.145098 0.145098 0.145098
0.176471 0.176471 0.176471
0.207843 0.207843 0.207843
0.243137 0.243137 0.243137
0.282353 0.282353 0.282353
0.317647 0.317647 0.317647
0.360784 0.360784 0.360784
0.176471 0.176471 0.176471
0.207843 0.207843 0.207843
0.243137 0.243137 0.243137
0.278431 0.278431 0.278431
0.317647 0.317647 0.317647
0.356863 0.356863 0.356863
0.400000 0.400000 0.400000
0.439216 0.439216 0.439216
0.239216 0.239216 0.239216
0.278431 0.278431 0.278431
0.313725 0.313725 0.313725
0.356863 0.356863 0.356863
0.400000 0.400000 0.400000
0.439216 0.439216 0.439216
0.486275 0.486275 0.486275
0.525490 0.525490 0.525490
0.313725 0.313725 0.313725
0.356863 0.356863 0.356863
0.396078 0.396078 0.396078
0.439216 0.439216 0.439216
0.482353 0.482353 0.482353
0.525490 0.525490 0.525490
0.568627 0.568627 0.568627
0.611765 0.611765 0.611765
0.396078 0.396078 0.396078
0.435294 0.435294 0.435294
0.482353 0.482353 0.482353
0.525490 0.525490 0.525490
0.568627 0.568627 0.568627
0.611765 0.611765 0.611765
0.650980 0.650980 0.650980
0.694118 0.694118 0.694118
0.482353 0.482353 0.482353
0.521569 0.521569 0.521569
0.568627 0.568627 0.568627
0.607843 0.607843 0.607843
0.650980 0.650980 0.650980
0.690196 0.690196 0.690196
0.729412 0.729412 0.729412
0.768627 0.768627 0.768627
0.560784 0.560784 0.560784
0.607843 0.607843 0.607843
0.650980 0.650980 0.650980
0.690196 0.690196 0.690196
0.729412 0.729412 0.729412
0.764706 0.764706 0.764706
0.796078 0.796078 0.796078
0.827451 0.827451 0.827451
0.078431 0.078431 0.078431
0.101961 0.101961 0.101961
0.133333 0.133333 0.133333
0.156863 0.156863 0.156863
0.192157 0.192157 0.192157
0.223529 0.223529 0.223529
0.258824 0.258824 0.258824
0.298039 0.298039 0.298039
0.129412 0.129412 0.129412
0.156863 0.156863 0.156863
0.192157 0.192157 0.192157
0.223529 0.223529 0.223529
0.258824 0.258824 0.258824
0.294118 0.294118 0.294118
0.333333 0.333333 0.333333
0.372549 0.372549 0.372549
0.188235 0.188235 0.188235
0.223529 0.223529 0.223529
0.254902 0.254902 0.254902
0.294118 0.294118 0.294118
0.329412 0.329412 0.329412
0.372549 0.372549 0.372549
0.419608 0.419608 0.419608
0.458824 0.458824 0.458824
0.254902 0.254902 0.254902
0.294118 0.294118 0.294118
0.329412 0.329412 0.329412
0.372549 0.372549 0.372549
0.415686 0.415686 0.415686
0.458824 0.458824 0.458824
0.501961 0.501961 0.501961
0.545098 0.545098 0.545098
0.329412 0.329412 0.329412
0.368627 0.368627 0.368627
0.415686 0.415686 0.415686
0.450980 0.450980 0.450980
0.501961 0.501961 0.501961
0.545098 0.545098 0.545098
0.584314 0.584314 0.584314
0.627451 0.627451 0.627451
0.415686 0.415686 0.415686
0.450980 0.450980 0.450980
0.501961 0.501961 0.501961
0.537255 0.537255 0.537255
0.584314 0.584314 0.584314
0.623529 0.623529 0.623529
0.666667 0.666667 0.666667
0.705882 0.705882 0.705882
0.494118 0.494118 0.494118
0.537255 0.537255 0.537255
0.580392 0.580392 0.580392
0.623529 0.623529 0.623529
0.666667 0.666667 0.666667
0.705882 0.705882 0.705882
0.745098 0.745098 0.745098
0.780392 0.780392 0.780392
0.580392 0.580392 0.580392
0.623529 0.623529 0.623529
0.662745 0.662745 0.662745
0.705882 0.705882 0.705882
0.741176 0.741176 0.741176
0.780392 0.780392 0.780392
0.807843 0.807843 0.807843
0.839216 0.839216 0.839216
0.086275 0.086275 0.086275
0.113725 0.113725 0.113725
0.141176 0.141176 0.141176
0.168627 0.168627 0.168627
0.203922 0.203922 0.203922
0.239216 0.239216 0.239216
0.274510 0.274510 0.274510
0.309804 0.309804 0.309804
0.141176 0.141176 0.141176
0.168627 0.168627 0.168627
0.200000 0.200000 0.200000
0.239216 0.239216 0.239216
0.270588 0.270588 0.270588
0.309804 0.309804 0.309804
0.345098 0.345098 0.345098
0.392157 0.392157 0.392157
0.200000 0.200000 0.200000
0.235294 0.235294 0.235294
0.270588 0.270588 0.270588
0.309804 0.309804 0.309804
0.345098 0.345098 0.345098
0.392157 0.392157 0.392157
0.431373 0.431373 0.431373
0.474510 0.474510 0.474510
0.270588 0.270588 0.270588
0.305882 0.305882 0.305882
0.345098 0.345098 0.345098
0.388235 0.388235 0.388235
0.431373 0.431373 0.431373
0.470588 0.470588 0.470588
0.517647 0.517647 0.517647
0.560784 0.560784 0.560784
0.341176 0.341176 0.341176
0.388235 0.388235 0.388235
0.431373 0.431373 0.431373
0.470588 0.470588 0.470588
0.517647 0.517647 0.517647
0.556863 0.556863 0.556863
0.603922 0.603922 0.603922
0.643137 0.643137 0.643137
0.423529 0.423529 0.423529
0.470588 0.470588 0.470588
0.513725 0.513725 0.513725
0.556863 0.556863 0.556863
0.600000 0.600000 0.600000
0.643137 0.643137 0.643137
0.686275 0.686275 0.686275
0.717647 0.717647 0.717647
0.513725 0.513725 0.513725
0.556863 0.556863 0.556863
0.600000 0.600000 0.600000
0.643137 0.643137 0.643137
0.682353 0.682353 0.682353
0.717647 0.717647 0.717647
0.756863 0.756863 0.756863
0.792157 0.792157 0.792157
0.600000 0.600000 0.600000
0.635294 0.635294 0.635294
0.682353 0.682353 0.682353
0.713725 0.713725 0.713725
0.756863 0.756863 0.756863
0.792157 0.792157 0.792157
0.819608 0.819608 0.819608
0.854902 0.854902 0.854902
0.098039 0.098039 0.098039
0.125490 0.125490 0.125490
0.149020 0.149020 0.149020
0.184314 0.184314 0.184314
0.215686 0.215686 0.215686
0.250980 0.250980 0.250980
0.286275 0.286275 0.286275
0.329412 0.329412 0.329412
0.149020 0.149020 0.149020
0.180392 0.180392 0.180392
0.215686 0.215686 0.215686
0.247059 0.247059 0.247059
0.286275 0.286275 0.286275
0.329412 0.329412 0.329412
0.364706 0.364706 0.364706
0.411765 0.411765 0.411765
0.211765 0.211765 0.211765
0.247059 0.247059 0.247059
0.286275 0.286275 0.286275
0.325490 0.325490 0.325490
0.364706 0.364706 0.364706
0.403922 0.403922 0.403922
0.447059 0.447059 0.447059
0.490196 0.490196 0.490196
0.282353 0.282353 0.282353
0.325490 0.325490 0.325490
0.360784 0.360784 0.360784
0.403922 0.403922 0.403922
0.447059 0.447059 0.447059
0.490196 0.490196 0.490196
0.533333 0.533333 0.533333
0.576471 0.576471 0.576471
0.360784 0.360784 0.360784
0.403922 0.403922 0.403922
0.443137 0.443137 0.443137
0.490196 0.490196 0.490196
0.529412 0.529412 0.529412
0.576471 0.576471 0.576471
0.615686 0.615686 0.615686
0.658824 0.658824 0.658824
0.443137 0.443137 0.443137
0.486275 0.486275 0.486275
0.529412 0.529412 0.529412
0.576471 0.576471 0.576471
0.615686 0.615686 0.615686
0.658824 0.658824 0.658824
0.698039 0.698039 0.698039
0.737255 0.737255 0.737255
0.529412 0.529412 0.529412
0.572549 0.572549 0.572549
0.615686 0.615686 0.615686
0.654902 0.654902 0.654902
0.698039 0.698039 0.698039
0.733333 0.733333 0.733333
0.772549 0.772549 0.772549
0.803922 0.803922 0.803922
0.611765 0.611765 0.611765
0.654902 0.654902 0.654902
0.698039 0.698039 0.698039
0.733333 0.733333 0.733333
0.772549 0.772549 0.772549
0.800000 0.800000 0.800000
0.835294 0.835294 0.835294
0.862745 0.862745 0.862745
0.109804 0.109804 0.109804
0.137255 0.137255 0.137255
0.164706 0.164706 0.164706
0.192157 0.192157 0.192157
0.231373 0.231373 0.231373
0.262745 0.262745 0.262745
0.301961 0.301961 0.301961
0.341176 0.341176 0.341176
0.160784 0.160784 0.160784
0.192157 0.192157 0.192157
0.227451 0.227451 0.227451
0.262745 0.262745 0.262745
0.301961 0.301961 0.301961
0.337255 0.337255 0.337255
0.384314 0.384314 0.384314
0.423529 0.423529 0.423529
0.227451 0.227451 0.227451
0.262745 0.262745 0.262745
0.298039 0.298039 0.298039
0.337255 0.337255 0.337255
0.376471 0.376471 0.376471
0.423529 0.423529 0.423529
0.466667 0.466667 0.466667
0.509804 0.509804 0.509804
0.298039 0.298039 0.298039
0.333333 0.333333 0.333333
0.376471 0.376471 0.376471
0.423529 0.423529 0.423529
0.462745 0.462745 0.462745
0.509804 0.509804 0.509804
0.549020 0.549020 0.549020
0.596078 0.596078 0.596078
0.376471 0.376471 0.376471
0.419608 0.419608 0.419608
0.462745 0.462745 0.462745
0.505882 0.505882 0.505882
0.549020 0.549020 0.549020
0.596078 0.596078 0.596078
0.631373 0.631373 0.631373
0.678431 0.678431 0.678431
0.458824 0.458824 0.458824
0.505882 0.505882 0.505882
0.549020 0.549020 0.549020
0.592157 0.592157 0.592157
0.631373 0.631373 0.631373
0.670588 0.670588 0.670588
0.709804 0.709804 0.709804
0.749020 0.749020 0.749020
0.545098 0.545098 0.545098
0.592157 0.592157 0.592157
0.627451 0.627451 0.627451
0.670588 0.670588 0.670588
0.709804 0.709804 0.709804
0.749020 0.749020 0.749020
0.784314 0.784314 0.784314
0.815686 0.815686 0.815686
0.627451 0.627451 0.627451
0.670588 0.670588 0.670588
0.705882 0.705882 0.705882
0.749020 0.749020 0.749020
0.780392 0.780392 0.780392
0.815686 0.815686 0.815686
0.843137 0.843137 0.843137
0.874510 0.874510 0.874510
