luts/Orange Teal.cube
#Generated by wwww.onlinelutcreator.com 
LUT_3D_SIZE 8 
DOMAIN_MIN 0.000000 0.000000 0.000000
DOMAIN_MAX 0.903226 0.903226 0.903226
0.113725 0.101961 0.090196
0.156863 0.101961 0.090196
0.274510 0.113725 0.082353
0.419608 0.145098 0.058824
0.607843 0.196078 0.003922
0.811765 0.270588 0.000000
0.937255 0.321569 0.000000
0.996078 0.352941 0.000000
0.113725 0.117647 0.090196
0.172549 0.121569 0.086275
0.270588 0.129412 0.082353
0.411765 0.152941 0.058824
0.592157 0.203922 0.007843
0.776471 0.270588 0.000000
0.909804 0.313725 0.003922
0.996078 0.352941 0.000000
0.137255 0.172549 0.121569
0.180392 0.184314 0.109804
0.290196 0.196078 0.094118
0.447059 0.211765 0.054902
0.643137 0.247059 0.003922
0.815686 0.298039 0.000000
0.937255 0.341176 0.000000
0.996078 0.372549 0.000000
0.164706 0.254902 0.152941
0.203922 0.266667 0.152941
0.313725 0.298039 0.121569
0.478431 0.321569 0.082353
0.650980 0.349020 0.003922
0.792157 0.356863 0.000000
0.917647 0.360784 0.000000
0.992157 0.384314 0.000000
0.188235 0.372549 0.203922
0.231373 0.392157 0.203922
0.341176 0.423529 0.180392
0.505882 0.458824 0.121569
0.686275 0.470588 0.031373
0.827451 0.470588 0.003922
0.937255 0.458824 0.000000
0.996078 0.435294 0.000000
0.227451 0.552941 0.305882
0.266667 0.556863 0.301961
0.368627 0.576471 0.278431
0.517647 0.607843 0.227451
0.701961 0.619608 0.141176
0.850980 0.596078 0.054902
0.949020 0.564706 0.000000
0.996078 0.541176 0.000000
0.250980 0.654902 0.376471
0.294118 0.662745 0.376471
0.372549 0.682353 0.364706
0.505882 0.705882 0.333333
0.674510 0.733333 0.266667
0.831373 0.717647 0.188235
0.949020 0.666667 0.109804
1.000000 0.627451 0.003922
0.407843 0.803922 0.545098
0.431373 0.815686 0.552941
0.474510 0.819608 0.541176
0.560784 0.827451 0.525490
0.678431 0.839216 0.486275
0.831373 0.847059 0.419608
0.952941 0.803922 0.329412
0.996078 0.741176 0.254902
0.094118 0.113725 0.129412
0.152941 0.105882 0.125490
0.247059 0.125490 0.113725
0.380392 0.152941 0.098039
0.572549 0.200000 0.035294
0.780392 0.266667 0.003922
0.917647 0.317647 0.000000
0.996078 0.352941 0.000000
0.117647 0.133333 0.125490
0.152941 0.137255 0.125490
0.239216 0.145098 0.117647
0.372549 0.160784 0.105882
0.552941 0.203922 0.054902
0.741176 0.262745 0.003922
0.886275 0.309804 0.000000
0.988235 0.349020 0.000000
0.160784 0.180392 0.156863
0.176471 0.192157 0.149020
0.270588 0.196078 0.137255
0.411765 0.211765 0.117647
0.603922 0.243137 0.074510
0.780392 0.294118 0.003922
0.909804 0.337255 0.003922
0.996078 0.368627 0.003922
0.180392 0.262745 0.192157
0.200000 0.262745 0.184314
0.286275 0.286275 0.164706
0.435294 0.305882 0.137255
0.607843 0.329412 0.094118
0.764706 0.341176 0.019608
0.901961 0.356863 0.000000
0.996078 0.380392 0.003922
0.196078 0.376471 0.231373
0.227451 0.384314 0.235294
0.313725 0.407843 0.219608
0.474510 0.443137 0.180392
0.650980 0.454902 0.125490
0.796078 0.458824 0.039216
0.917647 0.450980 0.000000
0.996078 0.435294 0.000000
0.235294 0.541176 0.321569
0.258824 0.541176 0.317647
0.349020 0.552941 0.301961
0.490196 0.588235 0.266667
0.678431 0.611765 0.203922
0.827451 0.588235 0.145098
0.937255 0.560784 0.050980
0.996078 0.533333 0.003922
0.254902 0.643137 0.388235
0.294118 0.658824 0.392157
0.356863 0.662745 0.376471
0.486275 0.686275 0.349020
0.647059 0.717647 0.301961
0.819608 0.713725 0.231373
0.933333 0.662745 0.180392
0.996078 0.631373 0.082353
0.411765 0.803922 0.564706
0.439216 0.807843 0.564706
0.474510 0.811765 0.560784
0.552941 0.819608 0.541176
0.666667 0.835294 0.505882
0.819608 0.847059 0.447059
0.945098 0.803922 0.364706
1.000000 0.741176 0.298039
0.023529 0.152941 0.207843
0.113725 0.141176 0.203922
0.243137 0.149020 0.203922
0.368627 0.172549 0.188235
0.545098 0.227451 0.156863
0.749020 0.282353 0.109804
0.898039 0.329412 0.023529
0.992157 0.356863 0.003922
0.094118 0.168627 0.196078
0.141176 0.168627 0.192157
0.231373 0.172549 0.200000
0.345098 0.196078 0.184314
0.517647 0.227451 0.168627
0.705882 0.278431 0.121569
0.866667 0.325490 0.027451
0.988235 0.356863 0.000000
0.137255 0.211765 0.207843
0.176471 0.207843 0.203922
0.250980 0.215686 0.211765
0.380392 0.231373 0.200000
0.560784 0.266667 0.180392
0.741176 0.309804 0.145098
0.886275 0.345098 0.062745
0.988235 0.376471 0.003922
0.184314 0.286275 0.254902
0.219608 0.290196 0.250980
0.266667 0.290196 0.235294
0.403922 0.309804 0.215686
0.568627 0.321569 0.192157
0.729412 0.337255 0.160784
0.882353 0.368627 0.094118
0.992157 0.392157 0.015686
0.243137 0.400000 0.317647
0.258824 0.407843 0.313725
0.294118 0.400000 0.290196
0.435294 0.435294 0.262745
0.611765 0.447059 0.235294
0.764706 0.450980 0.192157
0.894118 0.447059 0.141176
0.996078 0.435294 0.039216
0.282353 0.556863 0.403922
0.290196 0.552941 0.388235
0.329412 0.541176 0.364706
0.454902 0.568627 0.345098
0.635294 0.607843 0.305882
0.796078 0.588235 0.262745
0.913725 0.564706 0.211765
0.996078 0.537255 0.137255
0.282353 0.654902 0.443137
0.305882 0.662745 0.443137
0.349020 0.654902 0.431373
0.454902 0.670588 0.411765
0.615686 0.705882 0.380392
0.788235 0.709804 0.325490
0.917647 0.670588 0.298039
0.996078 0.639216 0.243137
0.419608 0.803922 0.596078
0.447059 0.803922 0.596078
0.466667 0.800000 0.596078
0.529412 0.807843 0.572549
0.647059 0.823529 0.549020
0.788235 0.835294 0.498039
0.925490 0.807843 0.439216
1.000000 0.749020 0.384314
0.003922 0.231373 0.341176
0.007843 0.219608 0.341176
0.200000 0.192157 0.352941
0.403922 0.211765 0.360784
0.584314 0.250980 0.345098
0.725490 0.333333 0.286275
0.866667 0.372549 0.239216
0.988235 0.400000 0.188235
0.003922 0.239216 0.317647
0.035294 0.235294 0.317647
0.196078 0.215686 0.333333
0.380392 0.235294 0.341176
0.541176 0.266667 0.321569
0.682353 0.325490 0.270588
0.843137 0.364706 0.239216
0.976471 0.396078 0.180392
0.015686 0.278431 0.329412
0.086275 0.278431 0.329412
0.215686 0.278431 0.333333
0.384314 0.301961 0.356863
0.541176 0.333333 0.329412
0.705882 0.368627 0.301961
0.858824 0.400000 0.266667
0.984314 0.419608 0.215686
0.094118 0.345098 0.356863
0.160784 0.345098 0.360784
0.258824 0.345098 0.349020
0.372549 0.345098 0.337255
0.529412 0.356863 0.321569
0.698039 0.384314 0.305882
0.854902 0.415686 0.278431
0.980392 0.439216 0.227451
0.196078 0.443137 0.419608
0.243137 0.462745 0.423529
0.325490 0.462745 0.423529
0.396078 0.454902 0.380392
0.568627 0.466667 0.360784
0.725490 0.462745 0.333333
0.870588 0.462745 0.305882
0.988235 0.470588 0.262745
0.313725 0.603922 0.529412
0.349020 0.603922 0.521569
0.392157 0.588235 0.501961
0.427451 0.576471 0.454902
0.588235 0.611765 0.431373
0.760784 0.603922 0.403922
0.886275 0.584314 0.368627
0.992157 0.556863 0.321569
0.388235 0.686275 0.576471
0.407843 0.694118 0.576471
0.407843 0.690196 0.545098
0.443137 0.674510 0.509804
0.572549 0.698039 0.490196
0.752941 0.721569 0.454902
0.890196 0.690196 0.435294
0.984314 0.658824 0.388235
0.505882 0.815686 0.690196
0.517647 0.815686 0.678431
0.513725 0.815686 0.666667
0.537255 0.803922 0.643137
0.615686 0.815686 0.623529
0.752941 0.835294 0.588235
0.898039 0.819608 0.545098
0.992157 0.768627 0.509804
0.007843 0.333333 0.517647
0.003922 0.325490 0.521569
0.019608 0.290196 0.529412
0.352941 0.282353 0.572549
0.603922 0.341176 0.584314
0.752941 0.403922 0.552941
0.850980 0.439216 0.454902
0.949020 0.498039 0.423529
0.003922 0.333333 0.482353
0.003922 0.333333 0.486275
0.035294 0.313725 0.498039
0.333333 0.301961 0.533333
0.564706 0.341176 0.541176
0.713725 0.392157 0.517647
0.823529 0.439216 0.439216
0.933333 0.494118 0.411765
0.003922 0.376471 0.505882
0.000000 0.380392 0.505882
0.047059 0.372549 0.505882
0.337255 0.364706 0.537255
0.568627 0.411765 0.560784
0.709804 0.447059 0.521569
0.811765 0.486275 0.454902
0.945098 0.513725 0.443137
0.000000 0.431373 0.517647
0.007843 0.431373 0.521569
0.133333 0.423529 0.501961
0.325490 0.411765 0.486275
0.517647 0.447059 0.513725
0.658824 0.474510 0.482353
0.803922 0.501961 0.458824
0.941176 0.521569 0.435294
0.023529 0.501961 0.541176
0.086275 0.513725 0.552941
0.247059 0.505882 0.537255
0.376471 0.501961 0.525490
0.505882 0.501961 0.498039
0.662745 0.509804 0.482353
0.823529 0.529412 0.466667
0.952941 0.549020 0.450980
0.231373 0.639216 0.627451
0.286275 0.639216 0.627451
0.368627 0.635294 0.619608
0.458824 0.627451 0.600000
0.529412 0.611765 0.552941
0.698039 0.619608 0.537255
0.839216 0.611765 0.509804
0.960784 0.596078 0.478431
0.364706 0.729412 0.682353
0.403922 0.737255 0.682353
0.450980 0.729412 0.674510
0.501961 0.713725 0.639216
0.533333 0.694118 0.592157
0.694118 0.725490 0.572549
0.847059 0.717647 0.564706
0.952941 0.690196 0.529412
0.537255 0.835294 0.760784
0.560784 0.835294 0.764706
0.584314 0.831373 0.756863
0.588235 0.823529 0.733333
0.600000 0.811765 0.690196
0.709804 0.827451 0.670588
0.858824 0.835294 0.647059
0.960784 0.792157 0.623529
0.000000 0.435294 0.678431
0.003922 0.427451 0.686275
0.003922 0.411765 0.701961
0.117647 0.384314 0.717647
0.533333 0.419608 0.749020
0.741176 0.486275 0.741176
0.839216 0.564706 0.713725
0.925490 0.596078 0.662745
0.000000 0.435294 0.647059
0.000000 0.431373 0.654902
0.003922 0.415686 0.662745
0.141176 0.384314 0.686275
0.509804 0.423529 0.717647
0.721569 0.494118 0.721569
0.823529 0.564706 0.701961
0.913725 0.592157 0.643137
0.003922 0.470588 0.658824
0.003922 0.470588 0.662745
0.003922 0.462745 0.662745
0.196078 0.450980 0.682353
0.505882 0.474510 0.713725
0.705882 0.537255 0.721569
0.819608 0.603922 0.709804
0.901961 0.627451 0.658824
0.003922 0.509804 0.662745
0.000000 0.509804 0.662745
0.003922 0.505882 0.650980
0.196078 0.494118 0.647059
0.474510 0.513725 0.678431
0.682353 0.568627 0.698039
0.792157 0.615686 0.678431
0.878431 0.635294 0.643137
0.000000 0.568627 0.678431
0.003922 0.572549 0.678431
0.035294 0.572549 0.670588
0.274510 0.560784 0.650980
0.454902 0.560784 0.647059
0.650980 0.607843 0.678431
0.772549 0.635294 0.654902
0.890196 0.658824 0.643137
0.047059 0.662745 0.717647
0.133333 0.662745 0.717647
0.262745 0.658824 0.709804
0.388235 0.654902 0.690196
0.501961 0.647059 0.674510
0.623529 0.639216 0.650980
0.772549 0.654902 0.643137
0.905882 0.670588 0.635294
0.266667 0.733333 0.737255
0.301961 0.741176 0.737255
0.376471 0.741176 0.737255
0.466667 0.741176 0.733333
0.560784 0.733333 0.725490
0.627451 0.721569 0.678431
0.788235 0.733333 0.670588
0.917647 0.725490 0.658824
0.513725 0.854902 0.827451
0.537255 0.854902 0.831373
0.568627 0.850980 0.819608
0.611765 0.843137 0.811765
0.647059 0.827451 0.784314
0.658824 0.811765 0.741176
0.803922 0.839216 0.733333
0.921569 0.819608 0.733333
0.003922 0.529412 0.819608
0.003922 0.521569 0.823529
0.003922 0.517647 0.831373
0.047059 0.509804 0.831373
0.415686 0.525490 0.847059
0.686275 0.603922 0.866667
0.847059 0.670588 0.858824
0.894118 0.725490 0.835294
0.003922 0.529412 0.796078
0.003922 0.529412 0.811765
0.003922 0.521569 0.815686
0.039216 0.513725 0.811765
0.415686 0.525490 0.831373
0.682353 0.603922 0.850980
0.835294 0.670588 0.850980
0.882353 0.721569 0.831373
0.003922 0.556863 0.803922
0.000000 0.560784 0.803922
0.000000 0.552941 0.803922
0.047059 0.552941 0.815686
0.431373 0.568627 0.823529
0.678431 0.635294 0.843137
0.827451 0.698039 0.847059
0.882353 0.749020 0.835294
0.000000 0.596078 0.807843
0.003922 0.592157 0.803922
0.003922 0.592157 0.788235
0.043137 0.588235 0.788235
0.431373 0.607843 0.807843
0.658824 0.654902 0.831373
0.811765 0.709804 0.839216
0.874510 0.760784 0.835294
0.003922 0.643137 0.800000
0.003922 0.643137 0.807843
0.000000 0.643137 0.800000
0.082353 0.635294 0.788235
0.396078 0.643137 0.784314
0.631373 0.682353 0.807843
0.792157 0.737255 0.831373
0.870588 0.776471 0.827451
0.003922 0.713725 0.819608
0.007843 0.713725 0.823529
0.105882 0.709804 0.819608
0.294118 0.705882 0.803922
0.439216 0.701961 0.788235
0.588235 0.701961 0.784314
0.764706 0.756863 0.811765
0.854902 0.776471 0.800000
0.168627 0.764706 0.823529
0.239216 0.768627 0.827451
0.321569 0.768627 0.823529
0.423529 0.768627 0.815686
0.525490 0.768627 0.807843
0.619608 0.760784 0.788235
0.725490 0.756863 0.768627
0.858824 0.772549 0.776471
0.427451 0.847059 0.858824
0.458824 0.847059 0.858824
0.498039 0.847059 0.854902
0.556863 0.847059 0.850980
0.635294 0.850980 0.854902
0.705882 0.843137 0.843137
0.741176 0.831373 0.803922
0.878431 0.847059 0.807843
0.003922 0.603922 0.905882
0.003922 0.603922 0.909804
0.000000 0.607843 0.909804
0.050980 0.615686 0.913725
0.454902 0.654902 0.909804
0.650980 0.701961 0.913725
0.815686 0.764706 0.921569
0.909804 0.807843 0.925490
0.003922 0.607843 0.901961
0.003922 0.607843 0.905882
0.000000 0.611765 0.901961
0.043137 0.623529 0.901961
0.450980 0.662745 0.909804
0.647059 0.701961 0.917647
0.807843 0.760784 0.921569
0.901961 0.807843 0.925490
0.000000 0.631373 0.898039
0.011765 0.635294 0.905882
0.000000 0.639216 0.894118
0.050980 0.650980 0.901961
0.462745 0.682353 0.901961
0.654902 0.721569 0.913725
0.815686 0.780392 0.921569
0.898039 0.819608 0.921569
0.003922 0.658824 0.898039
0.003922 0.662745 0.898039
0.003922 0.666667 0.894118
0.039216 0.674510 0.890196
0.439216 0.701961 0.894118
0.647059 0.733333 0.901961
0.800000 0.788235 0.917647
0.890196 0.827451 0.917647
0.003922 0.698039 0.898039
0.000000 0.701961 0.898039
0.003922 0.701961 0.894118
0.027451 0.709804 0.890196
0.384314 0.721569 0.886275
0.631373 0.756863 0.898039
0.788235 0.803922 0.913725
0.886275 0.839216 0.913725
0.000000 0.756863 0.901961
0.000000 0.756863 0.901961
0.015686 0.756863 0.898039
0.200000 0.756863 0.894118
0.400000 0.760784 0.890196
0.576471 0.772549 0.878431
0.764706 0.811765 0.901961
0.878431 0.850980 0.909804
0.082353 0.803922 0.901961
0.160784 0.807843 0.894118
0.282353 0.807843 0.898039
0.396078 0.811765 0.901961
0.498039 0.811765 0.890196
0.603922 0.811765 0.882353
0.713725 0.819608 0.874510
0.854902 0.862745 0.901961
0.415686 0.858824 0.909804
0.435294 0.862745 0.909804
0.478431 0.862745 0.901961
0.541176 0.862745 0.901961
0.611765 0.862745 0.905882
0.678431 0.870588 0.894118
0.752941 0.858824 0.886275
0.831373 0.862745 0.878431
