luts/Orange Teal.cube
#Generated by wwww.onlinelutcreator.com 
LUT_3D_SIZE 5 
DOMAIN_MIN 0.000000 0.000000 0.000000
DOMAIN_MAX 0.903226 0.903226 0.903226
0.113725 0.101961 0.090196
0.243137 0.113725 0.086275
0.513725 0.168627 0.031373
0.850980 0.286275 0.003922
0.996078 0.352941 0.000000
0.133333 0.160784 0.109804
0.262745 0.176471 0.090196
0.541176 0.211765 0.015686
0.858824 0.309804 0.000000
0.996078 0.368627 0.000000
0.180392 0.325490 0.188235
0.305882 0.368627 0.160784
0.611765 0.419608 0.050980
0.862745 0.427451 0.000000
1.000000 0.403922 0.000000
0.231373 0.580392 0.317647
0.341176 0.607843 0.313725
0.615686 0.654902 0.219608
0.882353 0.619608 0.066667
0.996078 0.564706 0.000000
0.407843 0.803922 0.545098
0.458824 0.815686 0.545098
0.615686 0.835294 0.505882
0.866667 0.843137 0.396078
0.996078 0.741176 0.254902
0.047059 0.141176 0.188235
0.219608 0.137255 0.188235
0.450980 0.192157 0.149020
0.803922 0.294118 0.043137
0.992157 0.360784 0.003922
0.133333 0.192157 0.192157
0.227451 0.200000 0.192157
0.478431 0.231373 0.164706
0.807843 0.313725 0.074510
0.996078 0.372549 0.000000
0.223529 0.356863 0.282353
0.274510 0.356863 0.258824
0.552941 0.403922 0.211765
0.819608 0.407843 0.129412
0.996078 0.407843 0.003922
0.262745 0.588235 0.392157
0.321569 0.584314 0.380392
0.564706 0.635294 0.325490
0.839216 0.615686 0.247059
0.996078 0.564706 0.117647
0.419608 0.803922 0.584314
0.458824 0.803922 0.588235
0.588235 0.819608 0.556863
0.839216 0.839216 0.470588
1.000000 0.749020 0.360784
0.000000 0.274510 0.419608
0.039216 0.243137 0.423529
0.501961 0.262745 0.462745
0.760784 0.349020 0.372549
0.972549 0.431373 0.298039
0.000000 0.317647 0.411765
0.094118 0.305882 0.407843
0.482353 0.337255 0.458824
0.729412 0.403922 0.376471
0.968627 0.454902 0.321569
0.035294 0.431373 0.466667
0.223529 0.435294 0.458824
0.450980 0.435294 0.431373
0.733333 0.458824 0.396078
0.980392 0.490196 0.345098
0.301961 0.647059 0.592157
0.392157 0.643137 0.580392
0.474510 0.611765 0.513725
0.768627 0.635294 0.474510
0.980392 0.600000 0.415686
0.533333 0.819608 0.729412
0.556863 0.819608 0.717647
0.556863 0.803922 0.658824
0.768627 0.835294 0.619608
0.976471 0.780392 0.564706
0.000000 0.462745 0.721569
0.003922 0.447059 0.737255
0.321569 0.419608 0.768627
0.772549 0.537255 0.776471
0.921569 0.643137 0.725490
0.003922 0.498039 0.717647
0.003922 0.490196 0.717647
0.345098 0.478431 0.741176
0.752941 0.576471 0.764706
0.909804 0.658824 0.725490
0.003922 0.576471 0.729412
0.003922 0.576471 0.721569
0.341176 0.564706 0.694118
0.709804 0.635294 0.745098
0.878431 0.686275 0.698039
0.058824 0.694118 0.752941
0.258824 0.698039 0.752941
0.458824 0.686275 0.729412
0.654902 0.674510 0.690196
0.894118 0.701961 0.682353
0.501961 0.854902 0.839216
0.560784 0.858824 0.835294
0.631373 0.847059 0.819608
0.682353 0.815686 0.752941
0.909804 0.827451 0.752941
0.003922 0.603922 0.905882
0.003922 0.603922 0.909804
0.290196 0.639216 0.909804
0.698039 0.717647 0.913725
0.909804 0.807843 0.925490
0.003922 0.627451 0.901961
0.000000 0.635294 0.901961
0.309804 0.658824 0.901961
0.698039 0.733333 0.913725
0.898039 0.815686 0.925490
0.003922 0.678431 0.901961
0.003922 0.686275 0.898039
0.227451 0.701961 0.890196
0.686275 0.760784 0.909804
0.890196 0.835294 0.917647
0.000000 0.768627 0.898039
0.019608 0.768627 0.901961
0.356863 0.772549 0.890196
0.615686 0.784314 0.878431
0.878431 0.854902 0.909804
0.415686 0.858824 0.909804
0.470588 0.862745 0.909804
0.572549 0.858824 0.901961
0.694118 0.866667 0.890196
0.831373 0.862745 0.878431
