luts/Orange Teal.cube
#Generated by wwww.onlinelutcreator.com 
LUT_3D_SIZE 32 
0.113725 0.101961 0.090196
0.113725 0.101961 0.094118
0.117647 0.101961 0.094118
0.133333 0.101961 0.090196
0.156863 0.101961 0.090196
0.184314 0.101961 0.086275
0.211765 0.109804 0.086275
0.243137 0.113725 0.086275
0.274510 0.113725 0.082353
0.305882 0.117647 0.078431
0.341176 0.125490 0.074510
0.376471 0.137255 0.066667
0.419608 0.145098 0.058824
0.470588 0.156863 0.047059
0.513725 0.168627 0.031373
0.560784 0.184314 0.015686
0.607843 0.196078 0.003922
0.662745 0.215686 0.003922
0.717647 0.235294 0.000000
0.768627 0.250980 0.000000
0.811765 0.270588 0.000000
0.850980 0.286275 0.003922
0.882353 0.298039 0.003922
0.909804 0.309804 0.000000
0.937255 0.321569 0.000000
0.968627 0.329412 0.000000
0.988235 0.337255 0.000000
0.996078 0.345098 0.000000
0.996078 0.352941 0.000000
0.996078 0.360784 0.003922
1.000000 0.368627 0.003922
1.000000 0.380392 0.003922
0.113725 0.098039 0.090196
0.113725 0.098039 0.094118
0.121569 0.101961 0.090196
0.137255 0.101961 0.090196
0.164706 0.101961 0.090196
0.184314 0.105882 0.086275
0.211765 0.109804 0.086275
0.243137 0.113725 0.082353
0.270588 0.117647 0.082353
0.301961 0.117647 0.078431
0.337255 0.125490 0.070588
0.376471 0.137255 0.066667
0.415686 0.149020 0.062745
0.462745 0.156863 0.050980
0.505882 0.168627 0.035294
0.552941 0.180392 0.015686
0.600000 0.196078 0.007843
0.654902 0.215686 0.003922
0.709804 0.235294 0.003922
0.760784 0.250980 0.000000
0.803922 0.270588 0.003922
0.843137 0.286275 0.003922
0.878431 0.298039 0.003922
0.905882 0.309804 0.003922
0.937255 0.321569 0.000000
0.964706 0.329412 0.000000
0.984314 0.337255 0.003922
0.996078 0.345098 0.003922
0.996078 0.356863 0.003922
0.996078 0.360784 0.003922
0.996078 0.368627 0.003922
1.000000 0.376471 0.003922
0.113725 0.098039 0.090196
0.117647 0.101961 0.094118
0.129412 0.105882 0.090196
0.145098 0.109804 0.090196
0.168627 0.105882 0.090196
0.192157 0.109804 0.086275
0.215686 0.109804 0.086275
0.239216 0.113725 0.082353
0.270588 0.121569 0.078431
0.301961 0.121569 0.082353
0.333333 0.129412 0.074510
0.372549 0.137255 0.070588
0.411765 0.149020 0.062745
0.454902 0.156863 0.050980
0.501961 0.168627 0.035294
0.549020 0.180392 0.019608
0.596078 0.196078 0.007843
0.650980 0.215686 0.003922
0.701961 0.235294 0.000000
0.749020 0.254902 0.000000
0.796078 0.270588 0.000000
0.835294 0.282353 0.003922
0.870588 0.294118 0.003922
0.901961 0.305882 0.000000
0.929412 0.317647 0.000000
0.956863 0.329412 0.000000
0.980392 0.337255 0.000000
0.996078 0.345098 0.000000
0.996078 0.352941 0.003922
0.996078 0.360784 0.003922
0.996078 0.368627 0.003922
1.000000 0.376471 0.003922
0.113725 0.105882 0.090196
0.121569 0.105882 0.090196
0.133333 0.113725 0.090196
0.152941 0.113725 0.086275
0.172549 0.113725 0.090196
0.192157 0.113725 0.086275
0.219608 0.117647 0.086275
0.243137 0.117647 0.082353
0.270588 0.125490 0.078431
0.301961 0.125490 0.082353
0.333333 0.129412 0.074510
0.372549 0.137255 0.070588
0.411765 0.149020 0.062745
0.450980 0.160784 0.047059
0.498039 0.172549 0.035294
0.545098 0.184314 0.019608
0.596078 0.200000 0.007843
0.647059 0.219608 0.000000
0.694118 0.239216 0.000000
0.741176 0.254902 0.000000
0.784314 0.270588 0.000000
0.823529 0.282353 0.003922
0.858824 0.294118 0.003922
0.890196 0.301961 0.000000
0.921569 0.317647 0.003922
0.949020 0.325490 0.000000
0.972549 0.333333 0.000000
0.992157 0.341176 0.000000
0.996078 0.352941 0.003922
0.996078 0.360784 0.003922
0.996078 0.368627 0.003922
0.996078 0.376471 0.003922
0.113725 0.117647 0.090196
0.121569 0.117647 0.094118
0.133333 0.121569 0.090196
0.152941 0.125490 0.086275
0.172549 0.121569 0.086275
0.196078 0.125490 0.086275
0.219608 0.125490 0.086275
0.247059 0.125490 0.086275
0.270588 0.129412 0.082353
0.301961 0.129412 0.078431
0.333333 0.133333 0.074510
0.372549 0.141176 0.066667
0.411765 0.152941 0.058824
0.450980 0.164706 0.043137
0.494118 0.176471 0.031373
0.545098 0.188235 0.015686
0.592157 0.203922 0.007843
0.643137 0.219608 0.003922
0.690196 0.239216 0.000000
0.737255 0.254902 0.000000
0.776471 0.270588 0.000000
0.815686 0.282353 0.003922
0.850980 0.290196 0.003922
0.882353 0.301961 0.000000
0.909804 0.313725 0.003922
0.937255 0.321569 0.000000
0.964706 0.329412 0.000000
0.988235 0.341176 0.000000
0.996078 0.352941 0.000000
0.996078 0.356863 0.000000
0.996078 0.364706 0.000000
0.996078 0.372549 0.003922
0.117647 0.129412 0.094118
0.125490 0.129412 0.098039
0.137255 0.133333 0.098039
0.152941 0.137255 0.090196
0.172549 0.137255 0.086275
0.200000 0.137255 0.086275
0.223529 0.137255 0.086275
0.247059 0.141176 0.082353
0.274510 0.141176 0.082353
0.305882 0.141176 0.074510
0.341176 0.141176 0.070588
0.376471 0.149020 0.062745
0.415686 0.160784 0.054902
0.454902 0.168627 0.043137
0.498039 0.180392 0.027451
0.549020 0.192157 0.011765
0.600000 0.207843 0.003922
0.647059 0.223529 0.003922
0.694118 0.239216 0.000000
0.737255 0.254902 0.000000
0.776471 0.270588 0.000000
0.815686 0.282353 0.003922
0.847059 0.294118 0.003922
0.878431 0.305882 0.003922
0.909804 0.317647 0.003922
0.937255 0.329412 0.003922
0.960784 0.337255 0.000000
0.984314 0.341176 0.000000
0.992157 0.352941 0.000000
0.996078 0.360784 0.000000
1.000000 0.368627 0.000000
1.000000 0.376471 0.003922
0.125490 0.145098 0.101961
0.133333 0.145098 0.101961
0.145098 0.149020 0.101961
0.156863 0.152941 0.098039
0.180392 0.152941 0.094118
0.203922 0.152941 0.090196
0.231373 0.156863 0.086275
0.254902 0.156863 0.082353
0.286275 0.160784 0.078431
0.321569 0.164706 0.078431
0.356863 0.164706 0.066667
0.392157 0.168627 0.058824
0.431373 0.172549 0.050980
0.478431 0.180392 0.035294
0.525490 0.192157 0.019608
0.576471 0.207843 0.011765
0.627451 0.223529 0.003922
0.678431 0.243137 0.003922
0.721569 0.258824 0.000000
0.768627 0.274510 0.000000
0.807843 0.286275 0.000000
0.847059 0.298039 0.000000
0.874510 0.309804 0.003922
0.901961 0.321569 0.003922
0.929412 0.333333 0.003922
0.956863 0.341176 0.003922
0.976471 0.349020 0.003922
0.992157 0.352941 0.000000
0.996078 0.360784 0.000000
0.996078 0.368627 0.000000
1.000000 0.376471 0.000000
1.000000 0.384314 0.000000
0.133333 0.160784 0.109804
0.141176 0.160784 0.113725
0.149020 0.164706 0.109804
0.164706 0.168627 0.105882
0.180392 0.168627 0.101961
0.203922 0.168627 0.098039
0.235294 0.172549 0.094118
0.262745 0.176471 0.090196
0.294118 0.180392 0.086275
0.329412 0.184314 0.082353
0.364706 0.184314 0.070588
0.403922 0.188235 0.062745
0.443137 0.192157 0.050980
0.494118 0.196078 0.031373
0.541176 0.211765 0.015686
0.592157 0.223529 0.007843
0.643137 0.239216 0.003922
0.690196 0.254902 0.003922
0.737255 0.270588 0.000000
0.780392 0.286275 0.000000
0.823529 0.298039 0.000000
0.858824 0.309804 0.000000
0.886275 0.317647 0.003922
0.913725 0.329412 0.003922
0.941176 0.341176 0.003922
0.964706 0.349020 0.003922
0.984314 0.352941 0.003922
0.996078 0.360784 0.000000
0.996078 0.368627 0.000000
0.996078 0.376471 0.000000
1.000000 0.384314 0.003922
1.000000 0.388235 0.003922
0.137255 0.172549 0.121569
0.145098 0.176471 0.121569
0.152941 0.176471 0.121569
0.164706 0.180392 0.113725
0.180392 0.184314 0.109804
0.203922 0.188235 0.105882
0.231373 0.188235 0.105882
0.262745 0.192157 0.101961
0.290196 0.196078 0.094118
0.329412 0.200000 0.090196
0.364706 0.203922 0.082353
0.403922 0.207843 0.070588
0.447059 0.211765 0.054902
0.498039 0.215686 0.035294
0.545098 0.231373 0.015686
0.592157 0.239216 0.007843
0.643137 0.247059 0.003922
0.686275 0.258824 0.003922
0.733333 0.274510 0.000000
0.776471 0.286275 0.000000
0.815686 0.298039 0.000000
0.847059 0.309804 0.003922
0.878431 0.321569 0.003922
0.909804 0.333333 0.000000
0.937255 0.341176 0.000000
0.964706 0.349020 0.000000
0.984314 0.356863 0.000000
0.996078 0.360784 0.000000
0.996078 0.372549 0.000000
0.996078 0.380392 0.003922
0.996078 0.384314 0.007843
1.000000 0.388235 0.007843
0.145098 0.188235 0.129412
0.145098 0.188235 0.129412
0.152941 0.192157 0.129412
0.164706 0.196078 0.125490
0.188235 0.203922 0.125490
0.207843 0.203922 0.117647
0.231373 0.211765 0.109804
0.254902 0.211765 0.101961
0.290196 0.211765 0.098039
0.325490 0.211765 0.094118
0.364706 0.223529 0.086275
0.411765 0.231373 0.074510
0.454902 0.239216 0.058824
0.498039 0.247059 0.043137
0.545098 0.254902 0.023529
0.592157 0.262745 0.007843
0.639216 0.270588 0.003922
0.682353 0.274510 0.003922
0.725490 0.282353 0.003922
0.764706 0.290196 0.000000
0.807843 0.301961 0.000000
0.843137 0.313725 0.000000
0.874510 0.321569 0.003922
0.901961 0.333333 0.003922
0.929412 0.341176 0.003922
0.956863 0.352941 0.000000
0.980392 0.360784 0.000000
1.000000 0.364706 0.000000
1.000000 0.372549 0.003922
0.996078 0.380392 0.003922
0.996078 0.388235 0.000000
0.996078 0.396078 0.000000
0.149020 0.207843 0.137255
0.152941 0.207843 0.137255
0.160784 0.207843 0.137255
0.172549 0.211765 0.133333
0.188235 0.215686 0.129412
0.211765 0.223529 0.129412
0.235294 0.227451 0.121569
0.262745 0.235294 0.113725
0.298039 0.239216 0.109804
0.329412 0.235294 0.105882
0.368627 0.247059 0.090196
0.411765 0.254902 0.078431
0.458824 0.262745 0.062745
0.501961 0.270588 0.047059
0.545098 0.278431 0.023529
0.592157 0.286275 0.007843
0.639216 0.290196 0.003922
0.682353 0.298039 0.000000
0.725490 0.301961 0.000000
0.760784 0.305882 0.000000
0.800000 0.313725 0.000000
0.831373 0.317647 0.000000
0.862745 0.325490 0.003922
0.894118 0.333333 0.003922
0.921569 0.345098 0.003922
0.949020 0.352941 0.003922
0.972549 0.360784 0.003922
0.992157 0.368627 0.003922
1.000000 0.372549 0.003922
0.996078 0.380392 0.003922
0.996078 0.388235 0.000000
1.000000 0.396078 0.003922
0.156863 0.223529 0.141176
0.160784 0.223529 0.145098
0.172549 0.227451 0.145098
0.180392 0.231373 0.141176
0.192157 0.235294 0.137255
0.215686 0.243137 0.137255
0.239216 0.247059 0.129412
0.266667 0.254902 0.121569
0.301961 0.262745 0.113725
0.337255 0.262745 0.109804
0.372549 0.270588 0.098039
0.419608 0.278431 0.086275
0.462745 0.286275 0.070588
0.505882 0.294118 0.054902
0.545098 0.301961 0.031373
0.592157 0.309804 0.011765
0.635294 0.313725 0.003922
0.678431 0.321569 0.000000
0.717647 0.325490 0.000000
0.752941 0.325490 0.000000
0.788235 0.329412 0.000000
0.823529 0.333333 0.000000
0.854902 0.333333 0.003922
0.882353 0.341176 0.003922
0.913725 0.345098 0.003922
0.941176 0.352941 0.003922
0.964706 0.360784 0.003922
0.988235 0.372549 0.003922
0.996078 0.376471 0.003922
0.996078 0.384314 0.000000
0.996078 0.392157 0.000000
1.000000 0.396078 0.003922
0.164706 0.254902 0.152941
0.172549 0.254902 0.156863
0.180392 0.254902 0.156863
0.192157 0.258824 0.156863
0.203922 0.266667 0.152941
0.223529 0.270588 0.149020
0.247059 0.278431 0.141176
0.278431 0.290196 0.133333
0.313725 0.298039 0.121569
0.349020 0.301961 0.117647
0.392157 0.305882 0.105882
0.435294 0.313725 0.098039
0.478431 0.321569 0.082353
0.521569 0.329412 0.062745
0.564706 0.337255 0.039216
0.607843 0.341176 0.015686
0.650980 0.349020 0.003922
0.690196 0.352941 0.000000
0.729412 0.356863 0.000000
0.760784 0.356863 0.000000
0.792157 0.356863 0.000000
0.827451 0.356863 0.000000
0.858824 0.356863 0.000000
0.890196 0.356863 0.000000
0.917647 0.360784 0.000000
0.945098 0.364706 0.003922
0.968627 0.368627 0.003922
0.988235 0.376471 0.000000
0.992157 0.384314 0.000000
0.996078 0.392157 0.000000
0.996078 0.396078 0.000000
0.996078 0.403922 0.000000
0.176471 0.298039 0.176471
0.180392 0.301961 0.176471
0.192157 0.301961 0.176471
0.203922 0.305882 0.172549
0.223529 0.313725 0.172549
0.243137 0.317647 0.168627
0.266667 0.325490 0.160784
0.298039 0.337255 0.149020
0.337255 0.349020 0.137255
0.380392 0.356863 0.129412
0.423529 0.360784 0.117647
0.466667 0.364706 0.105882
0.509804 0.372549 0.090196
0.556863 0.380392 0.066667
0.603922 0.388235 0.035294
0.647059 0.396078 0.015686
0.690196 0.400000 0.003922
0.729412 0.400000 0.000000
0.764706 0.400000 0.000000
0.796078 0.400000 0.000000
0.827451 0.396078 0.000000
0.854902 0.396078 0.000000
0.886275 0.396078 0.000000
0.913725 0.392157 0.000000
0.941176 0.388235 0.003922
0.964706 0.384314 0.003922
0.984314 0.384314 0.003922
0.996078 0.388235 0.000000
0.996078 0.396078 0.000000
1.000000 0.400000 0.000000
0.996078 0.407843 0.000000
0.996078 0.415686 0.000000
0.180392 0.325490 0.188235
0.188235 0.329412 0.188235
0.196078 0.333333 0.184314
0.211765 0.337255 0.184314
0.227451 0.341176 0.184314
0.250980 0.345098 0.176471
0.278431 0.356863 0.172549
0.305882 0.368627 0.160784
0.341176 0.380392 0.149020
0.384314 0.388235 0.141176
0.427451 0.392157 0.129412
0.470588 0.400000 0.113725
0.513725 0.403922 0.098039
0.564706 0.411765 0.078431
0.611765 0.419608 0.050980
0.658824 0.427451 0.027451
0.698039 0.431373 0.007843
0.733333 0.431373 0.000000
0.772549 0.431373 0.000000
0.807843 0.427451 0.000000
0.835294 0.427451 0.003922
0.862745 0.427451 0.000000
0.890196 0.423529 0.000000
0.917647 0.419608 0.000000
0.945098 0.411765 0.000000
0.972549 0.407843 0.003922
0.988235 0.403922 0.003922
0.996078 0.400000 0.000000
1.000000 0.403922 0.000000
1.000000 0.407843 0.000000
1.000000 0.411765 0.003922
0.996078 0.423529 0.003922
0.184314 0.349020 0.192157
0.192157 0.352941 0.196078
0.200000 0.352941 0.196078
0.211765 0.360784 0.192157
0.231373 0.364706 0.192157
0.250980 0.372549 0.188235
0.278431 0.380392 0.184314
0.305882 0.392157 0.176471
0.341176 0.400000 0.164706
0.380392 0.407843 0.156863
0.423529 0.419608 0.141176
0.462745 0.427451 0.125490
0.509804 0.431373 0.109804
0.556863 0.431373 0.094118
0.603922 0.439216 0.066667
0.650980 0.447059 0.039216
0.690196 0.450980 0.019608
0.729412 0.454902 0.003922
0.764706 0.454902 0.000000
0.800000 0.450980 0.003922
0.831373 0.450980 0.003922
0.858824 0.447059 0.003922
0.886275 0.447059 0.000000
0.913725 0.443137 0.000000
0.941176 0.435294 0.000000
0.968627 0.431373 0.000000
0.988235 0.423529 0.003922
0.996078 0.419608 0.000000
0.996078 0.419608 0.000000
1.000000 0.415686 0.000000
1.000000 0.419608 0.003922
0.996078 0.427451 0.003922
0.188235 0.372549 0.203922
0.196078 0.376471 0.203922
0.203922 0.380392 0.207843
0.215686 0.384314 0.207843
0.231373 0.392157 0.203922
0.250980 0.400000 0.200000
0.278431 0.407843 0.196078
0.305882 0.415686 0.192157
0.341176 0.423529 0.180392
0.376471 0.431373 0.168627
0.415686 0.447059 0.156863
0.458824 0.454902 0.141176
0.505882 0.458824 0.121569
0.549020 0.458824 0.105882
0.596078 0.462745 0.082353
0.643137 0.466667 0.058824
0.686275 0.470588 0.031373
0.725490 0.474510 0.011765
0.760784 0.474510 0.003922
0.796078 0.474510 0.003922
0.827451 0.470588 0.003922
0.854902 0.470588 0.003922
0.882353 0.470588 0.000000
0.913725 0.466667 0.000000
0.937255 0.458824 0.000000
0.960784 0.454902 0.000000
0.984314 0.447059 0.000000
1.000000 0.439216 0.000000
0.996078 0.435294 0.000000
0.996078 0.431373 0.000000
1.000000 0.427451 0.003922
1.000000 0.431373 0.003922
0.196078 0.396078 0.215686
0.203922 0.400000 0.219608
0.211765 0.403922 0.219608
0.219608 0.411765 0.219608
0.231373 0.419608 0.219608
0.250980 0.423529 0.211765
0.278431 0.431373 0.207843
0.309804 0.439216 0.203922
0.341176 0.447059 0.196078
0.372549 0.454902 0.180392
0.411765 0.466667 0.172549
0.454902 0.478431 0.156863
0.498039 0.486275 0.137255
0.541176 0.490196 0.121569
0.588235 0.490196 0.101961
0.635294 0.490196 0.078431
0.678431 0.494118 0.050980
0.717647 0.494118 0.027451
0.752941 0.494118 0.011765
0.788235 0.494118 0.003922
0.819608 0.494118 0.003922
0.850980 0.494118 0.000000
0.878431 0.490196 0.000000
0.905882 0.486275 0.000000
0.933333 0.482353 0.000000
0.956863 0.474510 0.000000
0.980392 0.470588 0.003922
1.000000 0.462745 0.003922
0.996078 0.454902 0.000000
0.996078 0.450980 0.000000
0.996078 0.443137 0.000000
0.996078 0.443137 0.000000
0.200000 0.423529 0.231373
0.207843 0.427451 0.231373
0.215686 0.431373 0.231373
0.223529 0.435294 0.231373
0.235294 0.443137 0.231373
0.258824 0.450980 0.227451
0.282353 0.454902 0.223529
0.305882 0.462745 0.215686
0.337255 0.470588 0.211765
0.368627 0.478431 0.200000
0.407843 0.490196 0.188235
0.450980 0.501961 0.176471
0.494118 0.509804 0.160784
0.541176 0.517647 0.141176
0.584314 0.521569 0.117647
0.623529 0.517647 0.098039
0.666667 0.517647 0.070588
0.709804 0.517647 0.043137
0.749020 0.513725 0.019608
0.784314 0.517647 0.007843
0.815686 0.517647 0.003922
0.843137 0.513725 0.000000
0.870588 0.509804 0.000000
0.898039 0.505882 0.003922
0.925490 0.501961 0.003922
0.952941 0.498039 0.003922
0.976471 0.490196 0.003922
0.996078 0.486275 0.003922
1.000000 0.478431 0.000000
1.000000 0.474510 0.000000
1.000000 0.466667 0.000000
0.996078 0.454902 0.000000
0.211765 0.478431 0.262745
0.215686 0.482353 0.262745
0.223529 0.486275 0.262745
0.231373 0.486275 0.258824
0.247059 0.490196 0.258824
0.270588 0.498039 0.262745
0.290196 0.501961 0.254902
0.317647 0.509804 0.247059
0.345098 0.513725 0.239216
0.376471 0.525490 0.231373
0.419608 0.533333 0.219608
0.458824 0.541176 0.203922
0.501961 0.549020 0.188235
0.549020 0.560784 0.168627
0.592157 0.564706 0.145098
0.631373 0.564706 0.125490
0.674510 0.560784 0.101961
0.717647 0.556863 0.074510
0.756863 0.552941 0.047059
0.796078 0.549020 0.027451
0.827451 0.549020 0.015686
0.854902 0.545098 0.007843
0.878431 0.541176 0.000000
0.905882 0.537255 0.003922
0.933333 0.533333 0.003922
0.956863 0.525490 0.000000
0.980392 0.521569 0.000000
0.996078 0.513725 0.000000
1.000000 0.509804 0.000000
1.000000 0.498039 0.000000
1.000000 0.490196 0.000000
1.000000 0.482353 0.000000
0.227451 0.552941 0.305882
0.235294 0.552941 0.305882
0.239216 0.556863 0.305882
0.250980 0.556863 0.301961
0.266667 0.556863 0.301961
0.290196 0.560784 0.301961
0.309804 0.564706 0.298039
0.337255 0.572549 0.290196
0.368627 0.576471 0.278431
0.400000 0.584314 0.270588
0.439216 0.592157 0.258824
0.478431 0.600000 0.243137
0.517647 0.607843 0.227451
0.564706 0.615686 0.207843
0.611765 0.623529 0.188235
0.658824 0.627451 0.164706
0.701961 0.619608 0.141176
0.741176 0.615686 0.117647
0.780392 0.607843 0.094118
0.819608 0.600000 0.074510
0.850980 0.596078 0.054902
0.874510 0.588235 0.027451
0.901961 0.580392 0.007843
0.925490 0.572549 0.003922
0.949020 0.564706 0.000000
0.972549 0.560784 0.000000
0.988235 0.552941 0.000000
0.996078 0.545098 0.000000
0.996078 0.541176 0.000000
0.996078 0.529412 0.000000
1.000000 0.521569 0.003922
1.000000 0.513725 0.000000
0.231373 0.580392 0.317647
0.239216 0.584314 0.321569
0.247059 0.584314 0.325490
0.258824 0.588235 0.325490
0.270588 0.592157 0.321569
0.294118 0.596078 0.321569
0.313725 0.600000 0.317647
0.341176 0.607843 0.313725
0.372549 0.611765 0.305882
0.403922 0.619608 0.294118
0.443137 0.627451 0.286275
0.478431 0.631373 0.274510
0.517647 0.639216 0.258824
0.564706 0.647059 0.235294
0.615686 0.654902 0.219608
0.662745 0.662745 0.196078
0.705882 0.658824 0.172549
0.749020 0.654902 0.152941
0.784314 0.647059 0.133333
0.823529 0.639216 0.117647
0.854902 0.627451 0.094118
0.882353 0.619608 0.066667
0.909804 0.611765 0.035294
0.933333 0.600000 0.015686
0.956863 0.596078 0.003922
0.976471 0.588235 0.000000
0.992157 0.580392 0.000000
0.996078 0.572549 0.000000
0.996078 0.564706 0.000000
0.996078 0.556863 0.000000
1.000000 0.545098 0.000000
0.996078 0.537255 0.000000
0.235294 0.592157 0.325490
0.243137 0.600000 0.329412
0.250980 0.603922 0.333333
0.258824 0.603922 0.337255
0.270588 0.607843 0.333333
0.294118 0.615686 0.333333
0.317647 0.623529 0.333333
0.341176 0.627451 0.329412
0.368627 0.631373 0.321569
0.403922 0.639216 0.313725
0.435294 0.647059 0.305882
0.470588 0.654902 0.294118
0.513725 0.658824 0.278431
0.556863 0.662745 0.262745
0.603922 0.674510 0.247059
0.650980 0.682353 0.227451
0.698039 0.686275 0.203922
0.741176 0.686275 0.180392
0.776471 0.678431 0.164706
0.811765 0.666667 0.149020
0.847059 0.654902 0.129412
0.878431 0.647059 0.105882
0.905882 0.635294 0.074510
0.933333 0.627451 0.043137
0.952941 0.619608 0.023529
0.976471 0.611765 0.007843
0.992157 0.603922 0.003922
0.996078 0.596078 0.000000
0.996078 0.588235 0.003922
0.996078 0.580392 0.003922
1.000000 0.568627 0.000000
0.996078 0.560784 0.000000
0.243137 0.623529 0.352941
0.250980 0.627451 0.352941
0.254902 0.631373 0.356863
0.266667 0.635294 0.352941
0.282353 0.635294 0.352941
0.301961 0.643137 0.356863
0.325490 0.647059 0.356863
0.345098 0.650980 0.345098
0.372549 0.658824 0.337255
0.403922 0.662745 0.337255
0.439216 0.670588 0.329412
0.470588 0.674510 0.317647
0.509804 0.682353 0.301961
0.549020 0.686275 0.294118
0.596078 0.694118 0.278431
0.643137 0.705882 0.254902
0.686275 0.713725 0.231373
0.733333 0.717647 0.211765
0.768627 0.709804 0.192157
0.803922 0.698039 0.176471
0.839216 0.686275 0.160784
0.870588 0.674510 0.141176
0.901961 0.662745 0.117647
0.929412 0.650980 0.094118
0.952941 0.643137 0.058824
0.972549 0.635294 0.031373
0.988235 0.627451 0.011765
1.000000 0.615686 0.003922
0.996078 0.607843 0.003922
0.996078 0.600000 0.003922
1.000000 0.588235 0.003922
0.996078 0.580392 0.003922
0.250980 0.654902 0.376471
0.258824 0.658824 0.376471
0.266667 0.658824 0.380392
0.278431 0.662745 0.380392
0.294118 0.662745 0.376471
0.309804 0.670588 0.376471
0.329412 0.674510 0.376471
0.349020 0.678431 0.372549
0.372549 0.682353 0.364706
0.403922 0.690196 0.364706
0.435294 0.694118 0.352941
0.470588 0.701961 0.341176
0.505882 0.705882 0.333333
0.549020 0.713725 0.321569
0.588235 0.717647 0.305882
0.627451 0.725490 0.286275
0.674510 0.733333 0.266667
0.721569 0.737255 0.247059
0.764706 0.737255 0.227451
0.800000 0.729412 0.203922
0.831373 0.717647 0.188235
0.862745 0.701961 0.172549
0.894118 0.690196 0.156863
0.921569 0.678431 0.133333
0.949020 0.666667 0.109804
0.968627 0.654902 0.074510
0.984314 0.647059 0.039216
1.000000 0.635294 0.011765
1.000000 0.627451 0.003922
1.000000 0.619608 0.003922
1.000000 0.611765 0.003922
1.000000 0.600000 0.003922
0.270588 0.682353 0.396078
0.278431 0.686275 0.403922
0.286275 0.690196 0.403922
0.294118 0.690196 0.407843
0.309804 0.694118 0.407843
0.321569 0.698039 0.403922
0.337255 0.701961 0.400000
0.360784 0.701961 0.400000
0.384314 0.709804 0.396078
0.411765 0.713725 0.392157
0.439216 0.717647 0.380392
0.470588 0.721569 0.368627
0.505882 0.729412 0.360784
0.545098 0.733333 0.349020
0.580392 0.737255 0.337255
0.619608 0.745098 0.321569
0.662745 0.749020 0.305882
0.705882 0.756863 0.286275
0.752941 0.756863 0.262745
0.792157 0.756863 0.239216
0.827451 0.745098 0.219608
0.858824 0.733333 0.203922
0.890196 0.717647 0.184314
0.921569 0.705882 0.168627
0.949020 0.694118 0.149020
0.968627 0.682353 0.125490
0.984314 0.670588 0.098039
0.996078 0.662745 0.062745
0.996078 0.650980 0.039216
0.996078 0.643137 0.023529
1.000000 0.635294 0.011765
1.000000 0.623529 0.003922
0.325490 0.733333 0.458824
0.333333 0.733333 0.462745
0.337255 0.737255 0.466667
0.341176 0.737255 0.466667
0.349020 0.741176 0.462745
0.360784 0.741176 0.458824
0.376471 0.745098 0.454902
0.396078 0.745098 0.450980
0.415686 0.749020 0.447059
0.443137 0.749020 0.443137
0.466667 0.756863 0.431373
0.494118 0.760784 0.423529
0.521569 0.764706 0.411765
0.556863 0.764706 0.403922
0.592157 0.768627 0.392157
0.627451 0.776471 0.384314
0.666667 0.780392 0.368627
0.705882 0.784314 0.349020
0.752941 0.788235 0.329412
0.796078 0.788235 0.305882
0.831373 0.784314 0.282353
0.862745 0.772549 0.262745
0.894118 0.756863 0.243137
0.921569 0.741176 0.223529
0.952941 0.729412 0.211765
0.972549 0.713725 0.192157
0.988235 0.701961 0.168627
0.996078 0.694118 0.137255
0.996078 0.678431 0.109804
0.996078 0.670588 0.082353
1.000000 0.658824 0.058824
1.000000 0.650980 0.043137
0.411765 0.796078 0.552941
0.411765 0.796078 0.552941
0.407843 0.796078 0.549020
0.411765 0.800000 0.545098
0.415686 0.800000 0.537255
0.423529 0.800000 0.533333
0.435294 0.800000 0.529412
0.447059 0.800000 0.521569
0.466667 0.796078 0.517647
0.490196 0.796078 0.513725
0.509804 0.803922 0.509804
0.529412 0.807843 0.501961
0.552941 0.807843 0.490196
0.584314 0.807843 0.478431
0.615686 0.811765 0.470588
0.647059 0.815686 0.458824
0.682353 0.819608 0.447059
0.721569 0.823529 0.431373
0.760784 0.827451 0.411765
0.800000 0.827451 0.392157
0.839216 0.827451 0.372549
0.870588 0.819608 0.349020
