luts/Sepia.cube
#Created by: Affinity
TITLE "Sepia"
#LUT size
LUT_3D_SIZE 8
#data domain
DOMAIN_MIN 0.0 0.0 0.0
DOMAIN_MAX 1.0 1.0 1.0
#LUT data points
0.153758 0.079381 0.055313
0.191874 0.113188 0.082940
0.227748 0.147769 0.112622
0.261824 0.182901 0.144208
0.294400 0.218434 0.177581
0.325716 0.254259 0.212623
0.355981 0.290284 0.249204
0.385392 0.326437 0.287170
0.226463 0.146486 0.111496
0.260598 0.181601 0.143014
0.293225 0.217121 0.176323
0.324584 0.252937 0.211306
0.354884 0.288956 0.247832
0.384323 0.325105 0.285751
0.413087 0.361318 0.324889
0.441361 0.397539 0.365052
0.292049 0.215809 0.175067
0.323450 0.251615 0.209991
0.353786 0.287629 0.246463
0.383253 0.323774 0.284333
0.412039 0.359986 0.323429
0.440327 0.396207 0.363558
0.468300 0.432388 0.404508
0.496133 0.468487 0.446052
0.352686 0.286301 0.245095
0.382182 0.322443 0.282917
0.410989 0.358653 0.321972
0.439293 0.394875 0.362066
0.467275 0.431058 0.402990
0.495110 0.467161 0.444516
0.522971 0.503146 0.486407
0.551023 0.538982 0.528417
0.409940 0.357320 0.320515
0.438259 0.393542 0.360575
0.466249 0.429728 0.401472
0.494087 0.465834 0.442980
0.521943 0.501824 0.484862
0.549985 0.537666 0.526872
0.578369 0.573336 0.568764
0.609898 0.608614 0.605296
0.465223 0.428398 0.399955
0.493063 0.464508 0.441445
0.520916 0.500503 0.483317
0.548949 0.536351 0.525327
0.577317 0.572027 0.567228
0.608438 0.607341 0.604508
0.647769 0.641980 0.626562
0.686248 0.676656 0.650309
0.519889 0.499181 0.481773
0.547912 0.535035 0.523782
0.576266 0.570718 0.565691
0.606977 0.606067 0.603723
0.646336 0.640705 0.625723
0.684850 0.675381 0.649400
0.722384 0.710051 0.675199
0.758842 0.744674 0.703478
0.575215 0.569408 0.564154
0.605515 0.604794 0.602939
0.644902 0.639430 0.624887
0.683449 0.674105 0.648494
0.721021 0.708777 0.674208
0.757521 0.743402 0.702391
0.792894 0.777941 0.733300
0.827130 0.812360 0.767078
0.168594 0.092160 0.065590
0.205788 0.126296 0.094024
0.240934 0.161108 0.124447
0.274407 0.196408 0.156728
0.306476 0.232064 0.190751
0.337368 0.267975 0.226397
0.367285 0.304057 0.263525
0.396419 0.340240 0.301975
0.239673 0.159818 0.123295
0.273202 0.195102 0.155509
0.305319 0.230747 0.189470
0.336250 0.266650 0.225058
0.366200 0.302727 0.262134
0.395359 0.338908 0.300539
0.423915 0.375130 0.340092
0.452050 0.411340 0.380591
0.304160 0.229431 0.188191
0.335131 0.265326 0.223722
0.365113 0.301398 0.260746
0.394298 0.337576 0.299105
0.422873 0.373797 0.338619
0.451020 0.410009 0.379086
0.478919 0.446163 0.420290
0.506745 0.482221 0.461998
0.364025 0.300069 0.259359
0.393236 0.336244 0.297672
0.421830 0.372465 0.337147
0.449990 0.408677 0.377583
0.477895 0.444835 0.418764
0.505720 0.480896 0.460458
0.533635 0.516828 0.502423
0.561801 0.552601 0.544414
0.420787 0.371132 0.335676
0.448960 0.407346 0.376081
0.476871 0.443506 0.417238
0.504696 0.479572 0.458918
0.532604 0.515509 0.500878
0.560759 0.551288 0.542872
0.589312 0.586886 0.584653
0.624974 0.621815 0.613553
0.475847 0.442177 0.415714
0.503672 0.478247 0.457378
0.531574 0.514189 0.499332
0.559717 0.549974 0.541329
0.588253 0.585580 0.583123
0.623524 0.620541 0.612748
0.662548 0.655199 0.635390
0.700667 0.689878 0.659905
0.530545 0.512870 0.497786
0.558675 0.548661 0.539786
0.587194 0.584273 0.581592
0.622073 0.619266 0.611945
0.661128 0.653924 0.634527
0.699282 0.688603 0.658965
0.736415 0.723260 0.685672
0.772447 0.757854 0.714970
0.586137 0.582967 0.580060
0.620621 0.617992 0.611143
0.659706 0.652648 0.633666
0.697896 0.687327 0.658028
0.735068 0.721986 0.684646
0.771142 0.756583 0.713844
0.806080 0.791080 0.745836
0.839891 0.825445 0.780719
0.183047 0.105080 0.076186
0.219406 0.139501 0.105397
0.253878 0.174518 0.136542
0.286787 0.209967 0.169501
0.318382 0.245731 0.204158
0.348879 0.281716 0.240386
0.378475 0.317844 0.278038
0.407360 0.354049 0.316946
0.252639 0.173221 0.135363
0.285601 0.208656 0.168257
0.317241 0.244410 0.202854
0.347774 0.280389 0.239027
0.377400 0.316513 0.276630
0.406308 0.352716 0.315495
0.434682 0.388940 0.355433
0.462704 0.425133 0.396236
0.316097 0.243091 0.201552
0.346668 0.279062 0.237670
0.376324 0.315183 0.275223
0.405255 0.351384 0.314045
0.433645 0.387607 0.353947
0.461677 0.423802 0.394722
0.489528 0.459925 0.436146
0.517370 0.495936 0.477983
0.375247 0.313852 0.273818
0.404201 0.350051 0.312596
0.432608 0.386275 0.352462
0.460650 0.422472 0.393209
0.488504 0.458597 0.434613
0.516344 0.494613 0.476439
0.544336 0.530487 0.518444
0.572639 0.566193 0.560379
0.431571 0.384943 0.350978
0.459623 0.421141 0.391697
0.487481 0.457270 0.433081
0.515318 0.493290 0.474896
0.543301 0.529170 0.516898
0.571590 0.564883 0.558840
0.600458 0.600398 0.600243
0.639939 0.635025 0.622016
0.486457 0.455943 0.431549
0.514292 0.491968 0.473353
0.542267 0.527853 0.515352
0.570542 0.563572 0.557301
0.599266 0.599104 0.598953
0.638500 0.633750 0.621190
0.677196 0.668421 0.644492
0.714936 0.703097 0.669833
0.541234 0.526536 0.513807
0.569495 0.562261 0.555762
0.598200 0.597800 0.597428
0.637060 0.632475 0.620365
0.675789 0.667145 0.643601
0.713566 0.701821 0.668860
0.750286 0.736459 0.696523
0.785887 0.771019 0.726870
0.597135 0.596496 0.595903
0.635619 0.631200 0.619543
0.674380 0.665870 0.642713
0.712194 0.700546 0.667890
0.748955 0.735186 0.695459
0.784597 0.769749 0.725704
0.819102 0.804200 0.758794
0.852495 0.838508 0.794777
0.197158 0.118120 0.087086
0.232752 0.152792 0.117051
0.266595 0.187989 0.148900
0.298976 0.223571 0.182520
0.330128 0.259429 0.217793
0.360259 0.295477 0.254582
0.389562 0.331642 0.292734
0.418224 0.367861 0.332072
0.265377 0.186687 0.147697
0.297808 0.222256 0.181254
0.329002 0.258106 0.216467
0.359167 0.294149 0.253204
0.388496 0.330311 0.291309
0.417179 0.366528 0.330606
0.445398 0.402745 0.370900
0.473332 0.438915 0.411974
0.327874 0.256783 0.215144
0.358073 0.292820 0.251827
0.387430 0.328979 0.289885
0.416133 0.365195 0.329142
0.444366 0.401414 0.369402
0.472307 0.437586 0.410452
0.500135 0.473669 0.452062
0.528018 0.509629 0.493992
0.386363 0.327647 0.288462
0.415087 0.363863 0.327678
0.443333 0.400082 0.367905
0.471283 0.436256 0.408930
0.499111 0.472344 0.450524
0.526989 0.508309 0.492447
0.555082 0.544122 0.534454
0.583543 0.579758 0.576298
0.442300 0.398750 0.366410
0.470258 0.434927 0.407409
0.498087 0.471018 0.448986
0.525961 0.506988 0.490901
0.554043 0.542807 0.532910
0.582488 0.578450 0.574764
0.615597 0.613592 0.608388
0.654785 0.648241 0.630711
0.497064 0.469692 0.447449
0.524933 0.505668 0.489356
0.553004 0.541493 0.531366
0.581433 0.577142 0.573230
0.614141 0.612318 0.607595
0.653358 0.646966 0.629861
0.691704 0.681644 0.653891
0.729050 0.716309 0.680114
0.551966 0.540177 0.529821
0.580379 0.575834 0.571695
0.612683 0.611045 0.606803
0.651930 0.645690 0.629014
0.690310 0.680368 0.652970
0.727695 0.715035 0.679106
0.763994 0.749647 0.707766
0.799161 0.784167 0.739186
0.611225 0.609771 0.606013
0.650501 0.644415 0.628168
0.688915 0.679092 0.652053
0.726338 0.713760 0.678102
0.762678 0.748375 0.706663
0.797887 0.782899 0.737979
0.831962 0.817298 0.772174
0.864948 0.851547 0.809245
0.210958 0.131266 0.098281
0.245844 0.166158 0.128978
0.279100 0.201517 0.161516
0.310987 0.237215 0.195781
0.341726 0.273155 0.231648
0.371519 0.309256 0.268977
0.400555 0.345448 0.307603
0.429022 0.381672 0.347342
0.277902 0.200209 0.160288
0.309835 0.235897 0.194491
0.340613 0.271830 0.230302
0.370437 0.307926 0.267580
0.399499 0.344116 0.306161
0.427983 0.380339 0.345863
0.456072 0.416544 0.386480
0.483945 0.452684 0.427792
0.339499 0.270504 0.228958
0.369355 0.306596 0.266184
0.398441 0.342783 0.304721
0.426943 0.379007 0.344385
0.455044 0.415213 0.384972
0.482921 0.451356 0.426263
0.510750 0.487396 0.468024
0.538699 0.523301 0.510012
0.397382 0.341451 0.303282
0.425903 0.377674 0.342908
0.454015 0.413882 0.383465
0.481898 0.450028 0.424734
0.509725 0.486073 0.466482
0.537666 0.521983 0.508466
0.565882 0.557731 0.550441
0.594522 0.593294 0.592157
0.452986 0.412550 0.381959
0.480874 0.448700 0.423206
0.508701 0.484749 0.464940
0.536635 0.520664 0.506921
0.564837 0.556419 0.548900
0.593460 0.591990 0.590630
0.630632 0.626797 0.616720
0.669503 0.661462 0.639666
0.507676 0.483425 0.463399
0.535603 0.519346 0.505375
0.563793 0.555106 0.547358
0.592397 0.590684 0.589102
0.629186 0.625522 0.615907
0.668089 0.660186 0.638790
0.706067 0.694865 0.663610
0.743006 0.729514 0.690764
0.562749 0.553794 0.545816
0.591336 0.589379 0.587573
0.627739 0.624248 0.615096
0.666673 0.658910 0.637916
0.704687 0.693589 0.662657
0.741666 0.728240 0.689720
0.777536 0.762821 0.719410
0.812269 0.797297 0.751922
0.626291 0.622973 0.614287
0.665257 0.657635 0.637045
0.703307 0.692313 0.661708
0.740325 0.726966 0.688680
0.776237 0.761551 0.718269
0.811011 0.796031 0.750674
0.844664 0.830376 0.785973
0.877254 0.864562 0.824113
0.224471 0.144505 0.109760
0.258700 0.179592 0.141173
0.291406 0.215093 0.174383
0.322831 0.250894 0.209274
0.353186 0.286904 0.245717
0.382669 0.323048 0.283561
0.411466 0.359259 0.322634
0.439763 0.395480 0.362744
0.290227 0.213781 0.173131
0.321695 0.249573 0.207962
0.352086 0.285577 0.244350
0.381597 0.321716 0.282145
0.410417 0.357926 0.321177
0.438729 0.394148 0.361253
0.466715 0.430333 0.402162
0.494552 0.466437 0.443678
0.350985 0.284249 0.242986
0.380525 0.320385 0.280732
0.409367 0.356593 0.319721
0.437694 0.392816 0.359762
0.465689 0.429003 0.400644
0.493528 0.465111 0.442143
0.521383 0.501103 0.484019
0.549420 0.536949 0.526030
0.408316 0.355261 0.318267
0.436659 0.391483 0.358273
0.464663 0.427673 0.399128
0.492505 0.463784 0.440608
0.520356 0.499782 0.482475
0.548383 0.535633 0.524485
0.576744 0.571313 0.566390
0.607642 0.606646 0.604080
0.463637 0.426342 0.397613
0.491481 0.462458 0.439074
0.519329 0.498460 0.480931
0.547347 0.534317 0.522940
0.575693 0.570004 0.564853
0.606180 0.605373 0.603295
0.645554 0.640009 0.625267
0.684086 0.674685 0.648906
0.518303 0.497138 0.479387
0.546312 0.533001 0.521394
0.574642 0.568694 0.563315
0.604717 0.604100 0.602512
0.644119 0.638734 0.624432
0.682685 0.673409 0.648001
0.720278 0.708081 0.673669
0.756800 0.742708 0.701799
0.573592 0.567384 0.561777
0.603254 0.602827 0.601731
0.642683 0.637459 0.623599
0.681283 0.672133 0.647099
0.718913 0.706806 0.672683
0.755476 0.741435 0.700717
0.790913 0.775980 0.731466
0.825214 0.810407 0.765079
0.641247 0.636184 0.622769
0.679879 0.670857 0.646200
0.717547 0.705531 0.671700
0.754150 0.740162 0.699639
0.789630 0.774711 0.730285
0.823972 0.809143 0.763791
0.857210 0.843429 0.800187
0.889421 0.877552 0.839369
0.237719 0.157825 0.121518
0.271336 0.193086 0.153629
0.303527 0.228713 0.187494
0.334520 0.264603 0.222993
0.364520 0.300673 0.259989
0.393719 0.336849 0.298323
0.422304 0.373070 0.337816
0.450459 0.409282 0.378266
0.302365 0.227397 0.186219
0.333398 0.263279 0.221660
0.363431 0.299344 0.258603
0.392657 0.335517 0.296891
0.421262 0.371738 0.336345
0.449428 0.407951 0.376764
0.477337 0.444110 0.417932
0.505162 0.480174 0.459618
0.362342 0.298014 0.257219
0.391594 0.334185 0.295461
0.420218 0.370405 0.334875
0.448398 0.406619 0.375262
0.476312 0.442781 0.416407
0.504137 0.478849 0.458078
0.532043 0.514789 0.500035
0.560190 0.550571 0.542030
0.419174 0.369072 0.333406
0.447367 0.405288 0.373761
0.475288 0.441452 0.414882
0.503113 0.477524 0.456538
0.531013 0.513469 0.498489
0.559149 0.549258 0.540487
0.587675 0.584867 0.582288
0.622733 0.619846 0.612310
0.474264 0.440123 0.413358
0.502089 0.476200 0.454999
0.529983 0.512150 0.496943
0.558107 0.547944 0.538945
0.586617 0.583561 0.580756
0.621281 0.618572 0.611507
0.660352 0.653228 0.634057
0.698526 0.687907 0.658453
0.528954 0.510830 0.495397
0.557067 0.546631 0.537401
0.585560 0.582254 0.579224
0.619829 0.617297 0.610707
0.658930 0.651952 0.633197
0.697139 0.686631 0.657518
0.734333 0.721291 0.684087
0.770429 0.755889 0.713231
0.584503 0.580946 0.577692
0.618375 0.616024 0.609908
0.657506 0.650676 0.632340
0.695751 0.685355 0.656586
0.732983 0.720016 0.683066
0.769121 0.754618 0.712110
0.804124 0.789122 0.743940
0.837998 0.823496 0.778658
0.656082 0.649401 0.631486
0.694361 0.684079 0.655656
0.731633 0.718742 0.682048
0.767812 0.753347 0.710993
0.802857 0.787855 0.742718
0.836772 0.822234 0.777330
0.869606 0.856459 0.814807
0.901456 0.890518 0.854997
0.250720 0.171218 0.133547
0.283764 0.206632 0.166340
0.315473 0.242371 0.200843
0.346064 0.278339 0.236930
0.375737 0.314457 0.274456
0.404680 0.350657 0.313254
0.433080 0.386881 0.353137
0.461117 0.423077 0.393896
0.314328 0.241051 0.199545
0.344956 0.277012 0.235576
0.374659 0.313126 0.273052
0.403626 0.349324 0.311806
0.432042 0.385548 0.351653
0.460090 0.421746 0.392384
0.487946 0.457873 0.433777
0.515784 0.493892 0.475597
0.373581 0.311796 0.271650
0.402571 0.347992 0.310360
0.431005 0.384216 0.350170
0.459062 0.420415 0.390872
0.486923 0.456546 0.432245
0.514758 0.492569 0.474054
0.542737 0.528452 0.516055
0.571018 0.564168 0.558001
0.429966 0.382883 0.348688
0.458035 0.419085 0.389362
0.485899 0.455218 0.430714
0.513733 0.491246 0.472511
0.541704 0.527135 0.514509
0.569971 0.562857 0.556462
0.598685 0.598393 0.598121
0.637715 0.633054 0.620740
0.484876 0.453891 0.429183
0.512707 0.489923 0.470968
0.540670 0.525817 0.512964
0.568924 0.561546 0.554922
0.597619 0.597089 0.596597
0.636274 0.631779 0.619917
0.675020 0.666450 0.643116
0.712818 0.701126 0.668331
0.539637 0.524499 0.511418
0.567878 0.560235 0.553382
0.596554 0.595785 0.595071
0.634833 0.630505 0.619096
0.673611 0.665174 0.642230
0.711445 0.699850 0.667363
0.748228 0.734491 0.694881
0.783893 0.769057 0.725069
0.595489 0.594481 0.593545
0.633390 0.629230 0.618277
0.672200 0.663898 0.641346
0.710071 0.698575 0.666398
0.746894 0.733218 0.693823
0.782601 0.767787 0.723909
0.817171 0.802244 0.756835
0.850626 0.836562 0.792654
0.670788 0.662622 0.640465
0.708696 0.697300 0.665437
0.745559 0.731945 0.692768
0.781308 0.766517 0.722753
0.815919 0.800979 0.755572
0.849414 0.835302 0.791286
0.881860 0.869465 0.829823
0.913368 0.903457 0.870981
