luts/Sepia.cube
#Created by: Affinity
TITLE "Sepia"
#LUT size
LUT_3D_SIZE 4
#data domain
DOMAIN_MIN 0.0 0.0 0.0
DOMAIN_MAX 1.0 1.0 1.0
#LUT data points
0.153758 0.079381 0.055313
0.239290 0.159427 0.122946
0.315404 0.242291 0.200765
0.385392 0.326437 0.287170
0.312728 0.239213 0.197739
0.382896 0.323330 0.283861
0.449335 0.407830 0.376627
0.514354 0.492048 0.473446
0.446929 0.404723 0.373125
0.511962 0.488960 0.469847
0.577668 0.572463 0.567740
0.661171 0.653962 0.634553
0.575215 0.569408 0.564154
0.657852 0.650986 0.632548
0.745478 0.731868 0.692704
0.827130 0.812360 0.767078
0.187787 0.109414 0.079786
0.269208 0.190793 0.151498
0.342670 0.274280 0.232792
0.410989 0.358653 0.321972
0.340073 0.271187 0.229650
0.408539 0.355543 0.318575
0.474170 0.440002 0.413220
0.539231 0.523980 0.510809
0.471779 0.436901 0.409668
0.536822 0.520904 0.507202
0.604540 0.603946 0.602418
0.695161 0.684814 0.656191
0.601124 0.600976 0.600597
0.691915 0.681837 0.654031
0.777339 0.762629 0.719237
0.856663 0.842857 0.799554
0.219997 0.140083 0.105902
0.297985 0.222455 0.181445
0.369191 0.306394 0.265973
0.436189 0.390878 0.357596
0.366660 0.303291 0.262724
0.433771 0.387769 0.354127
0.498925 0.472103 0.450244
0.564331 0.555782 0.548152
0.496537 0.469009 0.446657
0.561896 0.552720 0.544554
0.639634 0.634754 0.621840
0.728352 0.715652 0.679595
0.636274 0.631779 0.619917
0.725186 0.712678 0.677252
0.808300 0.793306 0.748004
0.885381 0.873225 0.834242
0.250720 0.171218 0.133547
0.325785 0.254339 0.212703
0.395102 0.338585 0.300191
0.461117 0.423077 0.393896
0.392625 0.335477 0.296848
0.458720 0.419972 0.390368
0.523718 0.504106 0.487530
0.589761 0.587440 0.585302
0.521321 0.501023 0.483926
0.587290 0.584392 0.581731
0.674081 0.665599 0.642525
0.760682 0.746448 0.705001
0.670788 0.662622 0.640465
0.757601 0.743479 0.702457
0.838370 0.823878 0.779061
0.913368 0.903457 0.870981
