luts/Sepia.cube
#Created by: Affinity
TITLE "Sepia"
#LUT size
LUT_3D_SIZE 64
#data domain
DOMAIN_MIN 0.0 0.0 0.0
DOMAIN_MAX 1.0 1.0 1.0
#LUT data points
0.153758 0.079381 0.055313
0.158124 0.083089 0.058274
0.162454 0.086811 0.061263
0.166750 0.090545 0.064280
0.171014 0.094291 0.067324
0.175245 0.098050 0.070395
0.179446 0.101819 0.073492
0.183618 0.105599 0.076616
0.187760 0.109389 0.079765
0.191874 0.113188 0.082940
0.195961 0.116998 0.086140
0.200021 0.120816 0.089365
0.204055 0.124643 0.092615
0.208064 0.128478 0.095889
0.212048 0.132321 0.099188
0.216008 0.136172 0.102511
0.219944 0.140031 0.105857
0.223858 0.143897 0.109228
0.227748 0.147769 0.112622
0.231617 0.151649 0.116040
0.235464 0.155535 0.119481
0.239290 0.159427 0.122946
0.243095 0.163325 0.126433
0.246880 0.167230 0.129943
0.250645 0.171139 0.133476
0.254390 0.175055 0.137031
0.258116 0.178975 0.140608
0.261824 0.182901 0.144208
0.265512 0.186832 0.147830
0.269183 0.190767 0.151474
0.272836 0.194707 0.155140
0.276472 0.198651 0.158827
0.280090 0.202600 0.162535
0.283692 0.206553 0.166265
0.287277 0.210509 0.170016
0.290846 0.214470 0.173788
0.294400 0.218434 0.177581
0.297938 0.222402 0.181394
0.301460 0.226374 0.185228
0.304968 0.230348 0.189082
0.308461 0.234326 0.192956
0.311939 0.238307 0.196851
0.315404 0.242291 0.200765
0.318855 0.246277 0.204698
0.322292 0.250267 0.208651
0.325716 0.254259 0.212623
0.329127 0.258253 0.216614
0.332525 0.262250 0.220624
0.335911 0.266249 0.224653
0.339285 0.270250 0.228700
0.342647 0.274253 0.232765
0.345997 0.278258 0.236848
0.349336 0.282265 0.240949
0.352664 0.286274 0.245068
0.355981 0.290284 0.249204
0.359288 0.294296 0.253357
0.362584 0.298310 0.257527
0.365870 0.302324 0.261713
0.369147 0.306341 0.265916
0.372414 0.310358 0.270136
0.375672 0.314376 0.274371
0.378920 0.318395 0.278622
0.382160 0.322416 0.282889
0.385392 0.326437 0.287170
0.162295 0.086674 0.061153
0.166593 0.090407 0.064169
0.170857 0.094153 0.067212
0.175090 0.097911 0.070282
0.179292 0.101680 0.073378
0.183465 0.105459 0.076500
0.187608 0.109249 0.079649
0.191723 0.113048 0.082823
0.195811 0.116857 0.086022
0.199872 0.120675 0.089246
0.203907 0.124502 0.092495
0.207917 0.128337 0.095768
0.211902 0.132180 0.099066
0.215863 0.136030 0.102388
0.219800 0.139889 0.105734
0.223714 0.143754 0.109104
0.227606 0.147627 0.112497
0.231475 0.151506 0.115914
0.235323 0.155392 0.119354
0.239150 0.159284 0.122818
0.242956 0.163182 0.126304
0.246741 0.167086 0.129813
0.250507 0.170996 0.133345
0.254253 0.174911 0.136900
0.257980 0.178831 0.140476
0.261687 0.182756 0.144075
0.265377 0.186687 0.147697
0.269048 0.190622 0.151340
0.272702 0.194562 0.155004
0.276338 0.198506 0.158691
0.279957 0.202455 0.162398
0.283560 0.206407 0.166128
0.287146 0.210364 0.169878
0.290715 0.214324 0.173649
0.294269 0.218288 0.177441
0.297808 0.222256 0.181254
0.301331 0.226227 0.185087
0.304839 0.230202 0.188940
0.308332 0.234180 0.192814
0.311812 0.238160 0.196707
0.315277 0.242144 0.200620
0.318728 0.246131 0.204553
0.322166 0.250120 0.208505
0.325590 0.254112 0.212477
0.329002 0.258106 0.216467
0.332401 0.262103 0.220476
0.335787 0.266102 0.224504
0.339161 0.270103 0.228551
0.342524 0.274106 0.232615
0.345874 0.278111 0.236698
0.349214 0.282118 0.240798
0.352542 0.286127 0.244916
0.355860 0.290137 0.249051
0.359167 0.294149 0.253204
0.362463 0.298162 0.257373
0.365750 0.302177 0.261559
0.369027 0.306193 0.265762
0.372294 0.310210 0.269980
0.375552 0.314228 0.274215
0.378801 0.318247 0.278465
0.382041 0.322268 0.282731
0.385273 0.326289 0.287012
0.388496 0.330311 0.291309
0.391712 0.334333 0.295620
0.170701 0.094015 0.067099
0.174935 0.097773 0.070168
0.179138 0.101541 0.073264
0.183312 0.105320 0.076385
0.187456 0.109109 0.079532
0.191572 0.112908 0.082705
0.195661 0.116717 0.085903
0.199723 0.120535 0.089127
0.203759 0.124361 0.092375
0.207770 0.128195 0.095647
0.211756 0.132038 0.098944
0.215717 0.135889 0.102265
0.219655 0.139747 0.105610
0.223571 0.143612 0.108979
0.227463 0.147484 0.112372
0.231333 0.151363 0.115788
0.235182 0.155249 0.119227
0.239009 0.159141 0.122690
0.242816 0.163038 0.126176
0.246602 0.166942 0.129684
0.250369 0.170852 0.133215
0.254115 0.174766 0.136769
0.257843 0.178687 0.140345
0.261551 0.182612 0.143943
0.265242 0.186542 0.147563
0.268914 0.190477 0.151205
0.272568 0.194417 0.154869
0.276205 0.198361 0.158555
0.279825 0.202309 0.162262
0.283428 0.206262 0.165990
0.287014 0.210218 0.169739
0.290584 0.214179 0.173510
0.294139 0.218143 0.177301
0.297678 0.222110 0.181113
0.301201 0.226081 0.184945
0.304710 0.230056 0.188798
0.308204 0.234033 0.192671
0.311684 0.238014 0.196563
0.315149 0.241998 0.200476
0.318601 0.245984 0.204408
0.322039 0.249973 0.208359
0.325464 0.253965 0.212330
0.328876 0.257959 0.216320
0.332276 0.261956 0.220329
0.335663 0.265954 0.224356
0.339037 0.269956 0.228401
0.342400 0.273959 0.232465
0.345751 0.277964 0.236547
0.349091 0.281970 0.240647
0.352420 0.285979 0.244764
0.355738 0.289989 0.248899
0.359045 0.294001 0.253051
0.362342 0.298014 0.257219
0.365629 0.302029 0.261405
0.368906 0.306045 0.265607
0.372174 0.310062 0.269825
0.375432 0.314080 0.274059
0.378682 0.318100 0.278309
0.381922 0.322120 0.282574
0.385154 0.326141 0.286855
0.388378 0.330163 0.291150
0.391594 0.334185 0.295461
0.394802 0.338208 0.299786
0.398003 0.342232 0.304125
0.178984 0.101402 0.073149
0.183159 0.105181 0.076270
0.187304 0.108970 0.079416
0.191421 0.112768 0.082588
0.195511 0.116577 0.085785
0.199574 0.120394 0.089008
0.203611 0.124220 0.092255
0.207623 0.128054 0.095526
0.211609 0.131897 0.098822
0.215572 0.135747 0.102143
0.219511 0.139605 0.105487
0.223427 0.143470 0.108855
0.227320 0.147342 0.112247
0.231191 0.151220 0.115662
0.235041 0.155106 0.119100
0.238869 0.158997 0.122562
0.242676 0.162895 0.126047
0.246463 0.166799 0.129554
0.250230 0.170708 0.133085
0.253978 0.174622 0.136637
0.257706 0.178542 0.140213
0.261415 0.182467 0.143810
0.265106 0.186397 0.147429
0.268779 0.190332 0.151071
0.272434 0.194272 0.154734
0.276071 0.198216 0.158419
0.279692 0.202164 0.162125
0.283295 0.206116 0.165852
0.286882 0.210073 0.169601
0.290453 0.214033 0.173371
0.294008 0.217997 0.177161
0.297548 0.221964 0.180972
0.301072 0.225935 0.184804
0.304581 0.229909 0.188656
0.308076 0.233887 0.192528
0.311556 0.237867 0.196420
0.315022 0.241851 0.200332
0.318474 0.245837 0.204263
0.321913 0.249826 0.208214
0.325339 0.253818 0.212184
0.328751 0.257812 0.216173
0.332151 0.261809 0.220181
0.335538 0.265807 0.224207
0.338913 0.269808 0.228252
0.342277 0.273811 0.232315
0.345628 0.277816 0.236397
0.348968 0.281823 0.240496
0.352298 0.285832 0.244612
0.355616 0.289842 0.248746
0.358924 0.293854 0.252898
0.362221 0.297867 0.257066
0.365508 0.301881 0.261250
0.368786 0.305897 0.265452
0.372054 0.309914 0.269669
0.375312 0.313933 0.273903
0.378562 0.317952 0.278152
0.381803 0.321972 0.282417
0.385035 0.325993 0.286697
0.388260 0.330015 0.290992
0.391476 0.334037 0.295302
0.394684 0.338060 0.299626
0.397885 0.342084 0.303965
0.401078 0.346108 0.308317
0.404265 0.350132 0.312684
0.187152 0.108830 0.079300
0.191270 0.112629 0.082471
0.195361 0.116436 0.085667
0.199425 0.120253 0.088889
0.203463 0.124079 0.092135
0.207475 0.127913 0.095405
0.211463 0.131755 0.098701
0.215427 0.135605 0.102020
0.219367 0.139463 0.105363
0.223283 0.143327 0.108731
0.227177 0.147199 0.112122
0.231049 0.151078 0.115536
0.234899 0.154963 0.118974
0.238728 0.158854 0.122434
0.242537 0.162751 0.125918
0.246324 0.166655 0.129425
0.250092 0.170564 0.132954
0.253840 0.174478 0.136506
0.257569 0.178398 0.140081
0.261279 0.182323 0.143677
0.264971 0.186253 0.147296
0.268644 0.190188 0.150936
0.272300 0.194127 0.154599
0.275938 0.198070 0.158283
0.279559 0.202019 0.161988
0.283163 0.205971 0.165715
0.286751 0.209927 0.169463
0.290322 0.213887 0.173232
0.293878 0.217851 0.177021
0.297418 0.221818 0.180832
0.300943 0.225789 0.184663
0.304452 0.229763 0.188514
0.307948 0.233741 0.192385
0.311428 0.237721 0.196276
0.314895 0.241704 0.200187
0.318348 0.245691 0.204118
0.321787 0.249680 0.208068
0.325213 0.253671 0.212037
0.328626 0.257665 0.216026
0.332026 0.261662 0.220033
0.335414 0.265660 0.224059
0.338789 0.269661 0.228103
0.342153 0.273664 0.232166
0.345505 0.277669 0.236246
0.348846 0.281676 0.240345
0.352175 0.285684 0.244461
0.355494 0.289694 0.248594
0.358802 0.293706 0.252744
0.362100 0.297719 0.256912
0.365387 0.301734 0.261096
0.368665 0.305749 0.265297
0.371934 0.309767 0.269514
0.375193 0.313785 0.273747
0.378443 0.317804 0.277995
0.381684 0.321824 0.282260
0.384917 0.325845 0.286539
0.388141 0.329867 0.290834
0.391357 0.333889 0.295143
0.394566 0.337912 0.299467
0.397767 0.341936 0.303805
0.400961 0.345960 0.308157
0.404148 0.349984 0.312523
0.407328 0.354009 0.316902
0.410502 0.358034 0.321295
0.195211 0.116296 0.085549
0.199276 0.120113 0.088770
0.203315 0.123938 0.092015
0.207328 0.127772 0.095285
0.211317 0.131614 0.098579
0.215281 0.135463 0.101898
0.219222 0.139321 0.105240
0.223140 0.143185 0.108606
0.227034 0.147057 0.111996
0.230907 0.150935 0.115410
0.234758 0.154820 0.118847
0.238588 0.158711 0.122307
0.242397 0.162608 0.125790
0.246185 0.166511 0.129296
0.249954 0.170420 0.132824
0.253703 0.174334 0.136375
0.257432 0.178254 0.139949
0.261143 0.182179 0.143545
0.264835 0.186108 0.147162
0.268509 0.190043 0.150802
0.272166 0.193982 0.154464
0.275804 0.197925 0.158147
0.279426 0.201873 0.161851
0.283031 0.205825 0.165577
0.286619 0.209781 0.169325
0.290191 0.213741 0.173093
0.293747 0.217705 0.176882
0.297288 0.221672 0.180691
0.300813 0.225643 0.184521
0.304324 0.229617 0.188372
0.307819 0.233594 0.192242
0.311301 0.237574 0.196133
0.314768 0.241558 0.200043
0.318221 0.245544 0.203973
0.321661 0.249533 0.207922
0.325087 0.253524 0.211891
0.328500 0.257518 0.215879
0.331901 0.261514 0.219885
0.335289 0.265513 0.223910
0.338665 0.269514 0.227954
0.342029 0.273517 0.232016
0.345382 0.277521 0.236096
0.348723 0.281528 0.240194
0.352053 0.285536 0.244309
0.355372 0.289547 0.248442
0.358680 0.293558 0.252592
0.361979 0.297571 0.256758
0.365267 0.301586 0.260942
0.368545 0.305602 0.265142
0.371814 0.309619 0.269358
0.375073 0.313637 0.273591
0.378323 0.317656 0.277839
0.381565 0.321676 0.282103
0.384798 0.325697 0.286382
0.388023 0.329719 0.290675
0.391239 0.333741 0.294984
0.394448 0.337764 0.299308
0.397650 0.341788 0.303645
0.400844 0.345812 0.307997
0.404031 0.349836 0.312362
0.407211 0.353860 0.316741
0.410385 0.357885 0.321133
0.413553 0.361910 0.325538
0.416714 0.365936 0.329955
0.203167 0.123797 0.091895
0.207181 0.127631 0.095164
0.211171 0.131472 0.098457
0.215136 0.135322 0.101775
0.219077 0.139179 0.105117
0.222996 0.143043 0.108482
0.226892 0.146914 0.111871
0.230765 0.150792 0.115284
0.234617 0.154677 0.118720
0.238447 0.158567 0.122179
0.242257 0.162464 0.125661
0.246046 0.166367 0.129166
0.249815 0.170276 0.132694
0.253565 0.174190 0.136244
0.257295 0.178109 0.139817
0.261007 0.182034 0.143412
0.264700 0.185964 0.147029
0.268374 0.189898 0.150668
0.272031 0.193837 0.154329
0.275671 0.197780 0.158011
0.279293 0.201728 0.161715
0.282898 0.205680 0.165440
0.286487 0.209636 0.169186
0.290060 0.213595 0.172954
0.293617 0.217559 0.176742
0.297158 0.221526 0.180551
0.300684 0.225497 0.184380
0.304195 0.229471 0.188230
0.307691 0.233448 0.192100
0.311173 0.237428 0.195989
0.314640 0.241411 0.199899
0.318094 0.245397 0.203828
0.321534 0.249386 0.207777
0.324961 0.253377 0.211745
0.328375 0.257371 0.215732
0.331776 0.261367 0.219738
0.335165 0.265366 0.223762
0.338542 0.269367 0.227805
0.341906 0.273369 0.231866
0.345259 0.277374 0.235945
0.348600 0.281381 0.240042
0.351931 0.285389 0.244157
0.355250 0.289399 0.248289
0.358559 0.293411 0.252439
0.361858 0.297424 0.256605
0.365146 0.301438 0.260788
0.368425 0.305454 0.264987
0.371694 0.309471 0.269203
0.374953 0.313489 0.273435
0.378204 0.317508 0.277682
0.381446 0.321528 0.281945
0.384679 0.325549 0.286224
0.387904 0.329571 0.290517
0.391121 0.333593 0.294826
0.394330 0.337616 0.299148
0.397532 0.341640 0.303485
0.400726 0.345664 0.307836
0.403914 0.349688 0.312201
0.407094 0.353712 0.316579
0.410268 0.357737 0.320971
0.413436 0.361762 0.325375
0.416598 0.365787 0.329792
0.419754 0.369813 0.334222
0.422905 0.373838 0.338663
0.211024 0.131331 0.098336
0.214990 0.135180 0.101653
0.218933 0.139036 0.104993
0.222852 0.142900 0.108358
0.226749 0.146771 0.111746
0.230623 0.150649 0.115158
0.234476 0.154534 0.118593
0.238307 0.158424 0.122051
0.242117 0.162321 0.125533
0.245907 0.166224 0.129037
0.249677 0.170132 0.132564
0.253427 0.174046 0.136113
0.257158 0.177965 0.139685
0.260871 0.181890 0.143279
0.264564 0.185819 0.146895
0.268239 0.189753 0.150533
0.271897 0.193692 0.154193
0.275537 0.197635 0.157875
0.279160 0.201583 0.161578
0.282766 0.205534 0.165303
0.286356 0.209490 0.169048
0.289929 0.213450 0.172815
0.293486 0.217413 0.176602
0.297028 0.221380 0.180410
0.300554 0.225351 0.184239
0.304066 0.229324 0.188088
0.307563 0.233301 0.191957
0.311045 0.237282 0.195846
0.314513 0.241265 0.199755
0.317967 0.245250 0.203683
0.321408 0.249239 0.207631
0.324835 0.253230 0.211598
0.328250 0.257224 0.215585
0.331651 0.261220 0.219590
0.335041 0.265219 0.223614
0.338417 0.269219 0.227656
0.341782 0.273222 0.231716
0.345136 0.277227 0.235795
0.348478 0.281233 0.239891
0.351808 0.285242 0.244005
0.355128 0.289252 0.248137
0.358437 0.293263 0.252286
0.361736 0.297276 0.256451
0.365025 0.301290 0.260634
0.368304 0.305306 0.264832
0.371573 0.309323 0.269048
0.374834 0.313341 0.273279
0.378085 0.317360 0.277526
0.381327 0.321380 0.281788
0.384560 0.325401 0.286066
0.387786 0.329423 0.290359
0.391003 0.333445 0.294667
0.394212 0.337468 0.298989
0.397414 0.341492 0.303326
0.400609 0.345515 0.307676
0.403797 0.349540 0.312041
0.406977 0.353564 0.316418
0.410152 0.357589 0.320809
0.413320 0.361614 0.325213
0.416482 0.365639 0.329630
0.419638 0.369665 0.334059
0.422789 0.373689 0.338500
0.425934 0.377714 0.342953
0.429075 0.381739 0.347417
0.218788 0.138894 0.104870
0.222708 0.142758 0.108234
0.226606 0.146629 0.111621
0.230481 0.150506 0.115032
0.234334 0.154391 0.118466
0.238166 0.158281 0.121924
0.241977 0.162178 0.125404
0.245768 0.166080 0.128908
0.249539 0.169988 0.132434
0.253290 0.173902 0.135982
0.257022 0.177821 0.139553
0.260734 0.181745 0.143147
0.264429 0.185674 0.146762
0.268105 0.189608 0.150399
0.271763 0.193547 0.154058
0.275404 0.197490 0.157739
0.279027 0.201437 0.161442
0.282634 0.205389 0.165165
0.286224 0.209345 0.168910
0.289798 0.213304 0.172676
0.293356 0.217267 0.176462
0.296898 0.221234 0.180270
0.300425 0.225204 0.184098
0.303937 0.229178 0.187946
0.307434 0.233155 0.191814
0.310917 0.237135 0.195702
0.314386 0.241118 0.199611
0.317840 0.245104 0.203538
0.321282 0.249092 0.207486
0.324710 0.253084 0.211452
0.328124 0.257077 0.215438
0.331526 0.261073 0.219442
0.334916 0.265072 0.223465
0.338293 0.269072 0.227507
0.341659 0.273075 0.231567
0.345013 0.277079 0.235645
0.348355 0.281086 0.239740
0.351686 0.285094 0.243854
0.355006 0.289104 0.247985
0.358316 0.293115 0.252133
0.361615 0.297128 0.256298
0.364904 0.301143 0.260480
0.368184 0.305158 0.264678
0.371453 0.309175 0.268892
0.374714 0.313193 0.273123
0.377965 0.317212 0.277369
0.381207 0.321232 0.281631
0.384441 0.325253 0.285909
0.387667 0.329275 0.290201
0.390885 0.333297 0.294508
0.394094 0.337320 0.298830
0.397297 0.341344 0.303166
0.400491 0.345367 0.307516
0.403679 0.349392 0.311880
0.406861 0.353416 0.316257
0.410035 0.357441 0.320647
0.413203 0.361466 0.325051
0.416366 0.365491 0.329467
0.419522 0.369516 0.333895
0.422673 0.373541 0.338336
0.425818 0.377566 0.342788
0.428959 0.381591 0.347252
0.432095 0.385616 0.351728
0.435226 0.389640 0.356214
0.226463 0.146486 0.111496
0.230339 0.150364 0.114906
0.234193 0.154248 0.118339
0.238026 0.158138 0.121796
0.241838 0.162034 0.125276
0.245629 0.165936 0.128778
0.249400 0.169844 0.132303
0.253152 0.173758 0.135851
0.256885 0.177677 0.139421
0.260598 0.181601 0.143014
0.264293 0.185530 0.146629
0.267970 0.189463 0.150265
0.271629 0.193402 0.153923
0.275270 0.197345 0.157603
0.278894 0.201292 0.161305
0.282501 0.205243 0.165028
0.286092 0.209199 0.168772
0.289666 0.213158 0.172537
0.293225 0.217121 0.176323
0.296768 0.221088 0.180129
0.300295 0.225058 0.183956
0.303808 0.229032 0.187804
0.307306 0.233009 0.191671
0.310789 0.236989 0.195559
0.314258 0.240971 0.199466
0.317714 0.244957 0.203394
0.321155 0.248946 0.207340
0.324584 0.252937 0.211306
0.327999 0.256930 0.215291
0.331402 0.260926 0.219294
0.334792 0.264924 0.223317
0.338169 0.268925 0.227358
0.341535 0.272927 0.231417
0.344889 0.276932 0.235494
0.348232 0.280938 0.239589
0.351564 0.284947 0.243702
0.354884 0.288956 0.247832
0.358194 0.292968 0.251980
0.361494 0.296981 0.256144
0.364784 0.300995 0.260325
0.368063 0.305011 0.264523
0.371333 0.309028 0.268737
0.374594 0.313046 0.272967
0.377846 0.317064 0.277213
0.381088 0.321084 0.281474
0.384323 0.325105 0.285751
0.387548 0.329127 0.290043
0.390766 0.333149 0.294349
0.393976 0.337172 0.298671
0.397179 0.341195 0.303006
0.400374 0.345219 0.307356
0.403562 0.349244 0.311719
0.406744 0.353268 0.316096
0.409918 0.357293 0.320486
0.413087 0.361318 0.324889
0.416249 0.365343 0.329304
0.419406 0.369368 0.333732
0.422557 0.373393 0.338173
0.425703 0.377418 0.342624
0.428844 0.381443 0.347088
0.431980 0.385468 0.351563
0.435111 0.389492 0.356048
0.438238 0.393515 0.360545
0.441361 0.397539 0.365052
0.234051 0.154105 0.118213
0.237885 0.157995 0.121669
0.241698 0.161891 0.125147
0.245490 0.165793 0.128649
0.249262 0.169700 0.132173
0.253014 0.173614 0.135720
0.256748 0.177532 0.139290
0.260462 0.181456 0.142881
0.264157 0.185385 0.146495
0.267835 0.189319 0.150131
0.271494 0.193257 0.153788
0.275136 0.197200 0.157468
0.278761 0.201147 0.161168
0.282369 0.205098 0.164890
0.285960 0.209053 0.168634
0.289535 0.213013 0.172398
0.293094 0.216976 0.176183
0.296638 0.220942 0.179989
0.300166 0.224912 0.183815
0.303679 0.228886 0.187662
0.307177 0.232862 0.191529
0.310661 0.236842 0.195416
0.314131 0.240825 0.199322
0.317587 0.244810 0.203249
0.321029 0.248799 0.207195
0.324458 0.252790 0.211160
0.327873 0.256783 0.215144
0.331277 0.260779 0.219147
0.334667 0.264777 0.223169
0.338045 0.268778 0.227209
0.341412 0.272780 0.231267
0.344766 0.276785 0.235344
0.348109 0.280791 0.239438
0.351441 0.284799 0.243551
0.354762 0.288809 0.247680
0.358073 0.292820 0.251827
0.361373 0.296833 0.255991
0.364663 0.300847 0.260171
0.367943 0.304863 0.264368
0.371213 0.308880 0.268582
0.374474 0.312898 0.272811
0.377726 0.316917 0.277056
0.380969 0.320937 0.281317
0.384204 0.324957 0.285593
0.387430 0.328979 0.289885
0.390648 0.333001 0.294191
0.393858 0.337024 0.298511
0.397061 0.341047 0.302846
0.400257 0.345071 0.307195
0.403445 0.349096 0.311558
0.406627 0.353120 0.315934
0.409802 0.357145 0.320324
0.412970 0.361170 0.324726
0.416133 0.365195 0.329142
0.419290 0.369220 0.333569
0.422441 0.373245 0.338009
0.425587 0.377270 0.342460
0.428728 0.381295 0.346924
0.431864 0.385320 0.351398
0.434996 0.389344 0.355883
0.438123 0.393367 0.360379
0.441246 0.397391 0.364886
0.444366 0.401414 0.369402
0.447481 0.405436 0.373928
0.241558 0.161747 0.125019
0.245351 0.165649 0.128520
0.249124 0.169557 0.132043
0.252877 0.173470 0.135589
0.256611 0.177388 0.139158
0.260325 0.181312 0.142749
0.264022 0.185240 0.146362
0.267700 0.189174 0.149997
0.271360 0.193112 0.153654
0.275003 0.197055 0.157332
0.278628 0.201001 0.161032
0.282236 0.204953 0.164753
0.285828 0.208908 0.168496
0.289404 0.212867 0.172259
0.292964 0.216830 0.176043
0.296508 0.220796 0.179848
0.300036 0.224766 0.183674
0.303550 0.228739 0.187520
0.307049 0.232716 0.191386
0.310533 0.236696 0.195272
0.314004 0.240678 0.199178
0.317460 0.244664 0.203104
0.320903 0.248652 0.207049
0.324332 0.252643 0.211013
0.327748 0.256636 0.214997
0.331152 0.260632 0.218999
0.334543 0.264630 0.223020
0.337921 0.268631 0.227060
0.341288 0.272633 0.231118
0.344643 0.276637 0.235194
0.347986 0.280644 0.239287
0.351319 0.284652 0.243399
0.354640 0.288661 0.247528
0.357951 0.292673 0.251674
0.361252 0.296685 0.255837
0.364542 0.300700 0.260017
0.367822 0.304715 0.264214
0.371093 0.308732 0.268426
0.374354 0.312750 0.272655
0.377607 0.316769 0.276900
0.380850 0.320789 0.281160
0.384085 0.324809 0.285436
0.387311 0.328831 0.289726
0.390530 0.332853 0.294032
0.393740 0.336876 0.298352
0.396944 0.340899 0.302687
0.400139 0.344923 0.307035
0.403328 0.348948 0.311397
0.406510 0.352972 0.315773
0.409685 0.356997 0.320162
0.412854 0.361022 0.324564
0.416017 0.365047 0.328979
0.419174 0.369072 0.333406
0.422325 0.373097 0.337845
0.425472 0.377122 0.342296
0.428613 0.381147 0.346759
0.431749 0.385171 0.351233
0.434881 0.389196 0.355718
0.438008 0.393219 0.360214
0.441131 0.397243 0.364720
0.444251 0.401266 0.369236
0.447367 0.405288 0.373761
0.450479 0.409309 0.378297
0.453589 0.413330 0.382841
0.248985 0.169413 0.131913
0.252739 0.173326 0.135459
0.256474 0.177244 0.139026
0.260189 0.181167 0.142616
0.263886 0.185096 0.146229
0.267565 0.189029 0.149863
0.271226 0.192967 0.153519
0.274869 0.196909 0.157196
0.278495 0.200856 0.160895
0.282104 0.204807 0.164616
0.285697 0.208762 0.168358
0.289273 0.212721 0.172120
0.292833 0.216684 0.175904
0.296378 0.220650 0.179708
0.299907 0.224620 0.183533
0.303421 0.228593 0.187378
0.306920 0.232570 0.191244
0.310405 0.236549 0.195129
0.313876 0.240532 0.199034
0.317333 0.244517 0.202959
0.320776 0.248505 0.206904
0.324206 0.252496 0.210867
0.327623 0.256489 0.214850
0.331027 0.260485 0.218852
0.334418 0.264483 0.222872
0.337797 0.268483 0.226911
0.341164 0.272486 0.230968
0.344520 0.276490 0.235043
0.347864 0.280496 0.239137
0.351196 0.284504 0.243247
0.354518 0.288514 0.247376
0.357829 0.292525 0.251521
0.361130 0.296538 0.255684
0.364421 0.300552 0.259863
0.367702 0.304567 0.264059
0.370973 0.308584 0.268271
0.374235 0.312602 0.272499
0.377487 0.316621 0.276743
0.380731 0.320641 0.281003
0.383966 0.324661 0.285278
0.387193 0.328683 0.289568
0.390412 0.332705 0.293873
0.393622 0.336728 0.298193
0.396826 0.340751 0.302527
0.400022 0.344775 0.306875
0.403211 0.348800 0.311237
0.406393 0.352824 0.315612
0.409568 0.356849 0.320000
0.412737 0.360874 0.324402
0.415901 0.364899 0.328816
0.419058 0.368924 0.333243
0.422210 0.372949 0.337682
0.425356 0.376974 0.342133
0.428497 0.380999 0.346595
0.431634 0.385023 0.351068
0.434766 0.389048 0.355553
0.437893 0.393071 0.360048
0.441017 0.397095 0.364554
0.444136 0.401118 0.369069
0.447252 0.405140 0.373595
0.450365 0.409161 0.378130
0.453474 0.413182 0.382674
0.456581 0.417203 0.387227
0.459685 0.421222 0.391788
0.256337 0.177100 0.138895
0.260053 0.181023 0.142484
0.263750 0.184951 0.146095
0.267430 0.188884 0.149729
0.271091 0.192822 0.153384
0.274735 0.196764 0.157061
0.278362 0.200711 0.160759
0.281971 0.204662 0.164479
0.285565 0.208617 0.168220
0.289141 0.212575 0.171981
0.292702 0.216538 0.175764
0.296247 0.220504 0.179568
0.299777 0.224474 0.183392
0.303292 0.228447 0.187236
0.306792 0.232423 0.191101
0.310277 0.236403 0.194986
0.313749 0.240385 0.198890
0.317206 0.244370 0.202814
0.320650 0.248358 0.206758
0.324080 0.252349 0.210721
0.327497 0.256342 0.214703
0.330902 0.260338 0.218704
0.334293 0.264336 0.222724
0.337673 0.268336 0.226762
0.341041 0.272338 0.230819
0.344396 0.276343 0.234893
0.347741 0.280349 0.238986
0.351074 0.284357 0.243096
0.354396 0.288366 0.247223
0.357708 0.292377 0.251368
0.361009 0.296390 0.255530
0.364300 0.300404 0.259709
0.367581 0.304420 0.263904
0.370853 0.308436 0.268116
0.374115 0.312454 0.272344
0.377368 0.316473 0.276587
0.380612 0.320493 0.280846
0.383847 0.324513 0.285121
0.387074 0.328535 0.289410
0.390293 0.332557 0.293715
0.393505 0.336580 0.298034
0.396708 0.340603 0.302367
0.399904 0.344627 0.306715
0.403094 0.348651 0.311076
0.406276 0.352676 0.315451
0.409452 0.356701 0.319839
0.412621 0.360726 0.324240
0.415784 0.364751 0.328654
0.418942 0.368776 0.333080
0.422094 0.372801 0.337518
0.425240 0.376826 0.341969
