luts/Vintage Look.cube
#Generated by wwww.onlinelutcreator.com 
LUT_3D_SIZE 8 
DOMAIN_MIN 0.000000 0.000000 0.000000
DOMAIN_MAX 0.903226 0.903226 0.903226
0.000000 0.000000 0.000000
0.082353 0.043137 0.031373
0.196078 0.113725 0.078431
0.372549 0.141176 0.101961
0.552941 0.196078 0.152941
0.682353 0.258824 0.215686
0.788235 0.313725 0.270588
0.874510 0.360784 0.313725
0.031373 0.101961 0.035294
0.090196 0.105882 0.047059
0.200000 0.137255 0.082353
0.376471 0.172549 0.105882
0.552941 0.223529 0.156863
0.682353 0.278431 0.215686
0.788235 0.329412 0.270588
0.874510 0.372549 0.313725
0.117647 0.180392 0.086275
0.141176 0.180392 0.086275
0.211765 0.188235 0.090196
0.380392 0.239216 0.117647
0.556863 0.294118 0.168627
0.686275 0.337255 0.223529
0.788235 0.380392 0.278431
0.874510 0.411765 0.321569
0.184314 0.313725 0.125490
0.211765 0.313725 0.125490
0.290196 0.317647 0.129412
0.400000 0.333333 0.137255
0.564706 0.384314 0.184314
0.690196 0.423529 0.243137
0.796078 0.454902 0.294118
0.878431 0.474510 0.333333
0.290196 0.486275 0.192157
0.313725 0.486275 0.192157
0.384314 0.486275 0.196078
0.478431 0.490196 0.200000
0.580392 0.494118 0.215686
0.698039 0.521569 0.266667
0.800000 0.545098 0.313725
0.886275 0.556863 0.349020
0.380392 0.627451 0.270588
0.400000 0.627451 0.270588
0.454902 0.631373 0.274510
0.533333 0.631373 0.278431
0.623529 0.631373 0.286275
0.709804 0.631373 0.301961
0.807843 0.647059 0.341176
0.890196 0.650980 0.372549
0.454902 0.745098 0.341176
0.466667 0.745098 0.341176
0.505882 0.745098 0.345098
0.568627 0.745098 0.349020
0.647059 0.749020 0.352941
0.733333 0.749020 0.360784
0.819608 0.752941 0.376471
0.898039 0.749020 0.400000
0.513725 0.839216 0.396078
0.521569 0.839216 0.396078
0.552941 0.839216 0.396078
0.600000 0.839216 0.400000
0.666667 0.843137 0.403922
0.741176 0.843137 0.411765
0.823529 0.847059 0.415686
0.909804 0.850980 0.431373
0.000000 0.003922 0.054902
0.086275 0.058824 0.058824
0.196078 0.117647 0.090196
0.372549 0.137255 0.117647
0.552941 0.196078 0.168627
0.682353 0.258824 0.223529
0.788235 0.317647 0.278431
0.874510 0.360784 0.321569
0.039216 0.105882 0.062745
0.094118 0.105882 0.066667
0.200000 0.133333 0.090196
0.372549 0.160784 0.113725
0.552941 0.211765 0.160784
0.682353 0.270588 0.219608
0.788235 0.325490 0.274510
0.874510 0.368627 0.317647
0.117647 0.180392 0.094118
0.137255 0.176471 0.094118
0.207843 0.184314 0.098039
0.380392 0.231373 0.121569
0.552941 0.286275 0.172549
0.686275 0.329412 0.227451
0.788235 0.372549 0.282353
0.874510 0.403922 0.325490
0.180392 0.313725 0.137255
0.203922 0.313725 0.133333
0.282353 0.313725 0.133333
0.400000 0.329412 0.145098
0.560784 0.380392 0.188235
0.690196 0.419608 0.247059
0.792157 0.450980 0.298039
0.878431 0.470588 0.333333
0.286275 0.486275 0.203922
0.301961 0.482353 0.200000
0.372549 0.486275 0.200000
0.474510 0.486275 0.203922
0.580392 0.494118 0.219608
0.698039 0.517647 0.270588
0.800000 0.541176 0.317647
0.882353 0.552941 0.352941
0.380392 0.627451 0.282353
0.392157 0.627451 0.274510
0.447059 0.631373 0.278431
0.529412 0.631373 0.282353
0.619608 0.631373 0.290196
0.709804 0.631373 0.305882
0.807843 0.643137 0.345098
0.890196 0.647059 0.376471
0.454902 0.745098 0.349020
0.462745 0.745098 0.345098
0.501961 0.745098 0.345098
0.564706 0.745098 0.349020
0.647059 0.749020 0.356863
0.729412 0.749020 0.364706
0.819608 0.752941 0.376471
0.898039 0.749020 0.400000
0.513725 0.839216 0.400000
0.517647 0.839216 0.396078
0.549020 0.835294 0.400000
0.600000 0.839216 0.400000
0.666667 0.839216 0.407843
0.741176 0.843137 0.411765
0.823529 0.847059 0.419608
0.909804 0.850980 0.431373
0.086275 0.101961 0.109804
0.117647 0.105882 0.109804
0.200000 0.117647 0.121569
0.372549 0.141176 0.164706
0.552941 0.196078 0.211765
0.682353 0.258824 0.262745
0.788235 0.321569 0.309804
0.874510 0.364706 0.345098
0.094118 0.125490 0.113725
0.121569 0.125490 0.109804
0.200000 0.133333 0.121569
0.372549 0.152941 0.156863
0.549020 0.203922 0.203922
0.682353 0.266667 0.254902
0.788235 0.325490 0.305882
0.874510 0.372549 0.345098
0.117647 0.180392 0.125490
0.141176 0.176471 0.125490
0.203922 0.180392 0.125490
0.368627 0.207843 0.145098
0.549020 0.250980 0.188235
0.682353 0.301961 0.243137
0.788235 0.352941 0.298039
0.874510 0.392157 0.337255
0.176471 0.313725 0.168627
0.196078 0.309804 0.164706
0.254902 0.305882 0.152941
0.388235 0.317647 0.160784
0.556863 0.364706 0.203922
0.686275 0.400000 0.258824
0.792157 0.435294 0.309804
0.878431 0.462745 0.349020
0.286275 0.486275 0.239216
0.298039 0.482353 0.231373
0.341176 0.478431 0.215686
0.454902 0.482353 0.219608
0.576471 0.486275 0.235294
0.694118 0.509804 0.282353
0.800000 0.533333 0.329412
0.882353 0.549020 0.364706
0.384314 0.627451 0.309804
0.392157 0.627451 0.305882
0.419608 0.627451 0.290196
0.509804 0.627451 0.294118
0.611765 0.631373 0.301961
0.705882 0.627451 0.317647
0.807843 0.639216 0.356863
0.890196 0.643137 0.388235
0.458824 0.745098 0.372549
0.466667 0.745098 0.372549
0.486275 0.741176 0.360784
0.552941 0.745098 0.360784
0.635294 0.745098 0.368627
0.725490 0.749020 0.376471
0.819608 0.749020 0.388235
0.898039 0.749020 0.415686
0.517647 0.839216 0.419608
0.521569 0.839216 0.415686
0.537255 0.839216 0.411765
0.588235 0.839216 0.411765
0.658824 0.839216 0.415686
0.737255 0.843137 0.423529
0.819608 0.847059 0.431373
0.909804 0.850980 0.443137
0.109804 0.117647 0.200000
0.152941 0.117647 0.200000
0.247059 0.125490 0.207843
0.380392 0.141176 0.231373
0.552941 0.196078 0.274510
0.682353 0.262745 0.313725
0.788235 0.321569 0.352941
0.874510 0.368627 0.384314
0.113725 0.145098 0.200000
0.141176 0.137255 0.200000
0.239216 0.141176 0.203922
0.376471 0.156863 0.227451
0.552941 0.207843 0.270588
0.682353 0.270588 0.313725
0.788235 0.329412 0.352941
0.874510 0.376471 0.384314
0.137255 0.215686 0.207843
0.152941 0.207843 0.203922
0.215686 0.188235 0.196078
0.364706 0.200000 0.211765
0.545098 0.243137 0.258824
0.682353 0.301961 0.305882
0.788235 0.360784 0.352941
0.874510 0.403922 0.384314
0.180392 0.317647 0.231373
0.196078 0.317647 0.227451
0.250980 0.301961 0.215686
0.376471 0.309804 0.223529
0.545098 0.341176 0.254902
0.678431 0.384314 0.305882
0.788235 0.427451 0.356863
0.878431 0.466667 0.396078
0.282353 0.486275 0.294118
0.294118 0.482353 0.290196
0.333333 0.474510 0.278431
0.435294 0.470588 0.270588
0.564706 0.474510 0.282353
0.686275 0.498039 0.325490
0.796078 0.529412 0.372549
0.882353 0.552941 0.407843
0.388235 0.631373 0.360784
0.396078 0.627451 0.356863
0.419608 0.627451 0.345098
0.494118 0.623529 0.337255
0.600000 0.623529 0.341176
0.701961 0.623529 0.356863
0.803922 0.635294 0.396078
0.890196 0.647059 0.427451
0.466667 0.745098 0.415686
0.470588 0.741176 0.415686
0.490196 0.741176 0.407843
0.545098 0.741176 0.400000
0.631373 0.741176 0.403922
0.721569 0.745098 0.411765
0.815686 0.749020 0.427451
0.898039 0.749020 0.450980
0.521569 0.839216 0.454902
0.525490 0.839216 0.450980
0.545098 0.839216 0.447059
0.592157 0.839216 0.450980
0.658824 0.839216 0.454902
0.737255 0.843137 0.458824
0.819608 0.843137 0.466667
0.909804 0.850980 0.478431
0.164706 0.149020 0.321569
0.207843 0.149020 0.321569
0.305882 0.156863 0.325490
0.431373 0.164706 0.337255
0.560784 0.200000 0.352941
0.682353 0.262745 0.380392
0.788235 0.321569 0.407843
0.874510 0.368627 0.427451
0.164706 0.180392 0.325490
0.188235 0.164706 0.321569
0.294118 0.168627 0.321569
0.427451 0.176471 0.333333
0.556863 0.211765 0.349020
0.682353 0.270588 0.380392
0.788235 0.329412 0.407843
0.874510 0.376471 0.427451
0.184314 0.262745 0.329412
0.200000 0.250980 0.325490
0.254902 0.211765 0.317647
0.403922 0.215686 0.325490
0.552941 0.247059 0.345098
0.682353 0.305882 0.376471
0.788235 0.364706 0.407843
0.874510 0.407843 0.435294
0.219608 0.364706 0.341176
0.231373 0.360784 0.337255
0.274510 0.337255 0.325490
0.396078 0.321569 0.321569
0.545098 0.345098 0.345098
0.678431 0.392157 0.384314
0.788235 0.443137 0.427451
0.878431 0.486275 0.458824
0.290196 0.494118 0.368627
0.301961 0.490196 0.364706
0.337255 0.482353 0.360784
0.435294 0.470588 0.352941
0.560784 0.474510 0.368627
0.682353 0.501961 0.403922
0.792157 0.541176 0.447059
0.882353 0.576471 0.482353
0.392157 0.631373 0.419608
0.400000 0.631373 0.419608
0.427451 0.627451 0.415686
0.498039 0.619608 0.411765
0.596078 0.615686 0.415686
0.694118 0.619608 0.427451
0.800000 0.643137 0.466667
0.890196 0.662745 0.498039
0.478431 0.745098 0.470588
0.482353 0.745098 0.470588
0.501961 0.741176 0.466667
0.556863 0.737255 0.462745
0.635294 0.737255 0.470588
0.721569 0.741176 0.474510
0.811765 0.749020 0.486275
0.898039 0.756863 0.513725
0.529412 0.839216 0.498039
0.533333 0.839216 0.498039
0.552941 0.839216 0.494118
0.603922 0.835294 0.501961
0.674510 0.835294 0.513725
0.745098 0.839216 0.517647
0.819608 0.843137 0.521569
0.905882 0.850980 0.533333
0.227451 0.192157 0.447059
0.266667 0.192157 0.447059
0.360784 0.196078 0.447059
0.478431 0.203922 0.450980
0.588235 0.219608 0.447059
0.686275 0.266667 0.450980
0.788235 0.325490 0.470588
0.874510 0.372549 0.482353
0.227451 0.219608 0.447059
0.247059 0.207843 0.447059
0.349020 0.207843 0.447059
0.470588 0.215686 0.450980
0.584314 0.231373 0.447059
0.686275 0.274510 0.450980
0.788235 0.333333 0.470588
0.874510 0.380392 0.482353
0.243137 0.301961 0.450980
0.254902 0.286275 0.450980
0.301961 0.247059 0.443137
0.447059 0.250980 0.447059
0.572549 0.262745 0.443137
0.682353 0.305882 0.450980
0.788235 0.364706 0.474510
0.874510 0.411765 0.490196
0.274510 0.407843 0.458824
0.286275 0.400000 0.458824
0.321569 0.376471 0.450980
0.431373 0.349020 0.439216
0.560784 0.356863 0.439216
0.678431 0.396078 0.458824
0.788235 0.450980 0.490196
0.878431 0.490196 0.513725
0.321569 0.521569 0.470588
0.329412 0.521569 0.466667
0.360784 0.505882 0.462745
0.454902 0.486275 0.450980
0.572549 0.490196 0.458824
0.678431 0.517647 0.486275
0.788235 0.560784 0.521569
0.882353 0.596078 0.545098
0.400000 0.631373 0.486275
0.407843 0.631373 0.486275
0.435294 0.627451 0.486275
0.505882 0.619608 0.486275
0.603922 0.615686 0.494118
0.694118 0.623529 0.505882
0.796078 0.658824 0.541176
0.890196 0.690196 0.568627
0.482353 0.745098 0.521569
0.486275 0.745098 0.521569
0.509804 0.741176 0.521569
0.564706 0.737255 0.525490
0.647059 0.733333 0.537255
0.729412 0.737255 0.545098
0.807843 0.745098 0.556863
0.898039 0.772549 0.580392
0.537255 0.839216 0.545098
0.541176 0.839216 0.545098
0.560784 0.839216 0.545098
0.607843 0.835294 0.552941
0.690196 0.835294 0.568627
0.764706 0.839216 0.580392
0.831373 0.839216 0.584314
0.905882 0.850980 0.596078
0.282353 0.231373 0.541176
0.309804 0.231373 0.541176
0.392157 0.239216 0.545098
0.498039 0.243137 0.545098
0.603922 0.254902 0.537255
0.690196 0.274510 0.529412
0.788235 0.329412 0.537255
0.874510 0.372549 0.545098
0.282353 0.254902 0.541176
0.298039 0.243137 0.541176
0.384314 0.247059 0.541176
0.494118 0.250980 0.545098
0.600000 0.262745 0.537255
0.690196 0.282353 0.529412
0.788235 0.337255 0.537255
0.874510 0.380392 0.545098
0.294118 0.329412 0.545098
0.305882 0.317647 0.545098
0.345098 0.282353 0.541176
0.470588 0.286275 0.541176
0.588235 0.294118 0.537255
0.686275 0.313725 0.529412
0.788235 0.368627 0.541176
0.878431 0.411765 0.549020
0.321569 0.427451 0.549020
0.333333 0.423529 0.549020
0.364706 0.400000 0.545098
0.462745 0.380392 0.537255
0.580392 0.388235 0.537255
0.678431 0.403922 0.529412
0.788235 0.450980 0.552941
0.878431 0.494118 0.568627
0.360784 0.537255 0.556863
0.368627 0.533333 0.556863
0.400000 0.521569 0.552941
0.482353 0.509804 0.545098
0.592157 0.513725 0.541176
0.678431 0.525490 0.545098
0.788235 0.564706 0.576471
0.882353 0.600000 0.596078
0.411765 0.639216 0.560784
0.415686 0.639216 0.556863
0.443137 0.631373 0.556863
0.513725 0.619608 0.556863
0.611765 0.615686 0.556863
0.701961 0.635294 0.572549
0.800000 0.666667 0.596078
0.890196 0.705882 0.619608
0.482353 0.745098 0.576471
0.490196 0.745098 0.576471
0.509804 0.741176 0.580392
0.568627 0.737255 0.584314
0.650980 0.733333 0.588235
0.733333 0.737255 0.600000
0.811765 0.749020 0.611765
0.898039 0.788235 0.635294
0.537255 0.839216 0.596078
0.545098 0.839216 0.596078
0.560784 0.839216 0.596078
0.611765 0.839216 0.600000
0.690196 0.835294 0.611765
0.776471 0.839216 0.627451
0.843137 0.839216 0.635294
0.905882 0.854902 0.643137
0.317647 0.262745 0.603922
0.341176 0.266667 0.603922
0.407843 0.266667 0.603922
0.498039 0.274510 0.603922
0.600000 0.282353 0.603922
0.686275 0.294118 0.596078
0.772549 0.321569 0.592157
0.874510 0.376471 0.607843
0.321569 0.286275 0.603922
0.333333 0.278431 0.603922
0.400000 0.274510 0.603922
0.494118 0.282353 0.603922
0.596078 0.290196 0.603922
0.682353 0.301961 0.596078
0.772549 0.329412 0.592157
0.874510 0.384314 0.607843
0.333333 0.345098 0.603922
0.341176 0.337255 0.603922
0.376471 0.313725 0.600000
0.478431 0.317647 0.603922
0.588235 0.325490 0.603922
0.678431 0.333333 0.596078
0.768627 0.356863 0.592157
0.874510 0.411765 0.611765
0.356863 0.431373 0.607843
0.364706 0.427451 0.607843
0.400000 0.411765 0.603922
0.482353 0.407843 0.600000
0.584314 0.415686 0.603922
0.674510 0.423529 0.596078
0.764706 0.443137 0.600000
0.878431 0.494118 0.627451
0.388235 0.529412 0.611765
0.396078 0.525490 0.611765
0.427451 0.517647 0.611765
0.509804 0.517647 0.607843
0.607843 0.533333 0.603922
0.686275 0.541176 0.603922
0.768627 0.556863 0.611765
0.882353 0.600000 0.643137
0.427451 0.631373 0.619608
0.435294 0.631373 0.619608
0.458824 0.623529 0.615686
0.529412 0.615686 0.611765
0.623529 0.623529 0.611765
0.713725 0.647059 0.615686
0.784314 0.666667 0.627451
0.890196 0.705882 0.658824
0.474510 0.729412 0.623529
0.478431 0.725490 0.623529
0.501961 0.721569 0.623529
0.560784 0.713725 0.623529
0.643137 0.709804 0.623529
0.733333 0.725490 0.631373
0.815686 0.756863 0.647059
0.901961 0.792157 0.674510
0.541176 0.839216 0.647059
0.545098 0.839216 0.647059
0.564706 0.835294 0.650980
0.611765 0.835294 0.650980
0.690196 0.835294 0.654902
0.776471 0.835294 0.666667
0.847059 0.843137 0.670588
0.909804 0.854902 0.678431
