luts/Vintage Look.cube
#Generated by wwww.onlinelutcreator.com 
LUT_3D_SIZE 32 
0.000000 0.000000 0.000000
0.000000 0.000000 0.000000
0.007843 0.000000 0.000000
0.047059 0.015686 0.007843
0.082353 0.043137 0.031373
0.105882 0.070588 0.047059
0.133333 0.094118 0.058824
0.164706 0.105882 0.070588
0.196078 0.113725 0.078431
0.235294 0.117647 0.082353
0.278431 0.121569 0.086275
0.325490 0.129412 0.090196
0.372549 0.141176 0.101961
0.419608 0.152941 0.113725
0.466667 0.168627 0.125490
0.509804 0.180392 0.137255
0.552941 0.196078 0.152941
0.588235 0.211765 0.168627
0.623529 0.227451 0.184314
0.650980 0.243137 0.200000
0.682353 0.258824 0.215686
0.709804 0.274510 0.227451
0.737255 0.290196 0.243137
0.764706 0.301961 0.254902
0.788235 0.313725 0.270588
0.811765 0.325490 0.282353
0.835294 0.337255 0.294118
0.854902 0.349020 0.301961
0.874510 0.360784 0.313725
0.890196 0.368627 0.321569
0.905882 0.376471 0.329412
0.917647 0.384314 0.333333
0.000000 0.019608 0.000000
0.000000 0.019608 0.000000
0.019608 0.027451 0.000000
0.050980 0.043137 0.011765
0.082353 0.062745 0.035294
0.109804 0.082353 0.047059
0.133333 0.098039 0.058824
0.164706 0.109804 0.070588
0.196078 0.117647 0.078431
0.235294 0.121569 0.082353
0.278431 0.125490 0.086275
0.325490 0.133333 0.094118
0.372549 0.145098 0.101961
0.419608 0.156863 0.113725
0.466667 0.168627 0.125490
0.509804 0.184314 0.141176
0.552941 0.200000 0.152941
0.588235 0.215686 0.168627
0.623529 0.231373 0.184314
0.650980 0.247059 0.200000
0.682353 0.258824 0.215686
0.709804 0.274510 0.227451
0.737255 0.290196 0.243137
0.764706 0.301961 0.258824
0.788235 0.317647 0.270588
0.811765 0.329412 0.282353
0.835294 0.341176 0.294118
0.854902 0.349020 0.301961
0.874510 0.360784 0.313725
0.890196 0.368627 0.321569
0.905882 0.376471 0.329412
0.917647 0.384314 0.333333
0.000000 0.054902 0.000000
0.003922 0.054902 0.000000
0.031373 0.058824 0.000000
0.058824 0.070588 0.015686
0.086275 0.078431 0.039216
0.109804 0.090196 0.050980
0.133333 0.101961 0.062745
0.164706 0.113725 0.070588
0.196078 0.121569 0.078431
0.235294 0.125490 0.082353
0.278431 0.129412 0.086275
0.325490 0.137255 0.094118
0.372549 0.149020 0.101961
0.419608 0.160784 0.113725
0.466667 0.176471 0.125490
0.509804 0.188235 0.141176
0.552941 0.203922 0.152941
0.588235 0.219608 0.168627
0.623529 0.235294 0.184314
0.654902 0.250980 0.200000
0.682353 0.262745 0.215686
0.709804 0.278431 0.227451
0.737255 0.294118 0.243137
0.764706 0.305882 0.258824
0.788235 0.317647 0.270588
0.811765 0.329412 0.282353
0.835294 0.341176 0.294118
0.854902 0.352941 0.301961
0.874510 0.360784 0.313725
0.890196 0.372549 0.321569
0.905882 0.380392 0.329412
0.917647 0.384314 0.333333
0.003922 0.082353 0.011765
0.023529 0.082353 0.015686
0.043137 0.082353 0.019608
0.066667 0.086275 0.031373
0.086275 0.094118 0.043137
0.109804 0.101961 0.054902
0.137255 0.109804 0.062745
0.164706 0.117647 0.070588
0.200000 0.129412 0.078431
0.239216 0.133333 0.082353
0.282353 0.141176 0.086275
0.325490 0.149020 0.094118
0.372549 0.160784 0.101961
0.419608 0.172549 0.113725
0.466667 0.184314 0.125490
0.509804 0.200000 0.141176
0.552941 0.211765 0.156863
0.588235 0.227451 0.168627
0.623529 0.243137 0.184314
0.654902 0.254902 0.200000
0.682353 0.270588 0.215686
0.709804 0.286275 0.231373
0.737255 0.298039 0.243137
0.764706 0.313725 0.258824
0.788235 0.325490 0.270588
0.811765 0.337255 0.282353
0.835294 0.349020 0.294118
0.854902 0.356863 0.301961
0.874510 0.364706 0.313725
0.890196 0.376471 0.321569
0.905882 0.384314 0.329412
0.917647 0.388235 0.337255
0.031373 0.101961 0.035294
0.043137 0.101961 0.039216
0.058824 0.101961 0.043137
0.074510 0.101961 0.043137
0.090196 0.105882 0.047059
0.113725 0.109804 0.054902
0.137255 0.117647 0.066667
0.168627 0.125490 0.074510
0.200000 0.137255 0.082353
0.239216 0.141176 0.086275
0.282353 0.149020 0.090196
0.325490 0.160784 0.094118
0.376471 0.172549 0.105882
0.423529 0.184314 0.117647
0.466667 0.196078 0.129412
0.513725 0.211765 0.141176
0.552941 0.223529 0.156863
0.588235 0.239216 0.172549
0.623529 0.250980 0.188235
0.654902 0.266667 0.200000
0.682353 0.278431 0.215686
0.709804 0.294118 0.231373
0.737255 0.305882 0.247059
0.764706 0.317647 0.258824
0.788235 0.329412 0.270588
0.811765 0.341176 0.282353
0.835294 0.352941 0.294118
0.854902 0.360784 0.305882
0.874510 0.372549 0.313725
0.890196 0.380392 0.321569
0.905882 0.388235 0.329412
0.917647 0.392157 0.337255
0.054902 0.117647 0.050980
0.066667 0.117647 0.054902
0.074510 0.117647 0.054902
0.086275 0.117647 0.054902
0.101961 0.121569 0.058824
0.117647 0.125490 0.062745
0.141176 0.129412 0.066667
0.168627 0.137255 0.074510
0.200000 0.145098 0.082353
0.239216 0.156863 0.086275
0.282353 0.164706 0.090196
0.329412 0.172549 0.098039
0.376471 0.184314 0.105882
0.423529 0.200000 0.117647
0.470588 0.211765 0.129412
0.513725 0.223529 0.145098
0.552941 0.239216 0.156863
0.588235 0.250980 0.172549
0.623529 0.266667 0.188235
0.654902 0.278431 0.203922
0.682353 0.290196 0.219608
0.709804 0.301961 0.231373
0.737255 0.317647 0.247059
0.764706 0.329412 0.258824
0.788235 0.341176 0.274510
0.811765 0.352941 0.286275
0.835294 0.360784 0.298039
0.854902 0.368627 0.305882
0.874510 0.380392 0.313725
0.890196 0.388235 0.325490
0.905882 0.396078 0.333333
0.917647 0.400000 0.337255
0.082353 0.137255 0.066667
0.086275 0.137255 0.066667
0.090196 0.137255 0.066667
0.101961 0.137255 0.066667
0.113725 0.137255 0.066667
0.125490 0.137255 0.070588
0.145098 0.141176 0.070588
0.172549 0.149020 0.078431
0.203922 0.156863 0.086275
0.243137 0.168627 0.090196
0.286275 0.176471 0.094118
0.329412 0.188235 0.098039
0.376471 0.203922 0.109804
0.423529 0.215686 0.121569
0.470588 0.227451 0.133333
0.513725 0.243137 0.145098
0.552941 0.254902 0.160784
0.592157 0.266667 0.176471
0.623529 0.278431 0.192157
0.654902 0.290196 0.203922
0.682353 0.305882 0.219608
0.709804 0.317647 0.235294
0.737255 0.329412 0.247059
0.764706 0.341176 0.262745
0.788235 0.349020 0.274510
0.811765 0.360784 0.286275
0.835294 0.368627 0.298039
0.854902 0.380392 0.305882
0.874510 0.388235 0.317647
0.890196 0.396078 0.325490
0.905882 0.403922 0.333333
0.917647 0.407843 0.337255
0.098039 0.156863 0.074510
0.101961 0.156863 0.074510
0.109804 0.156863 0.078431
0.117647 0.156863 0.078431
0.125490 0.156863 0.078431
0.141176 0.156863 0.078431
0.156863 0.160784 0.078431
0.180392 0.164706 0.082353
0.207843 0.172549 0.090196
0.243137 0.184314 0.094118
0.286275 0.196078 0.094118
0.333333 0.207843 0.101961
0.380392 0.219608 0.113725
0.427451 0.235294 0.121569
0.470588 0.247059 0.137255
0.513725 0.262745 0.149020
0.556863 0.274510 0.164706
0.592157 0.286275 0.176471
0.623529 0.298039 0.192157
0.654902 0.309804 0.207843
0.686275 0.321569 0.223529
0.713725 0.333333 0.235294
0.737255 0.341176 0.250980
0.764706 0.352941 0.262745
0.788235 0.364706 0.278431
0.811765 0.372549 0.290196
0.835294 0.384314 0.298039
0.854902 0.392157 0.309804
0.874510 0.400000 0.317647
0.890196 0.403922 0.325490
0.909804 0.411765 0.333333
0.917647 0.415686 0.341176
0.117647 0.180392 0.086275
0.117647 0.180392 0.086275
0.125490 0.180392 0.086275
0.133333 0.180392 0.086275
0.141176 0.180392 0.086275
0.152941 0.180392 0.086275
0.168627 0.180392 0.086275
0.188235 0.184314 0.090196
0.211765 0.188235 0.090196
0.247059 0.200000 0.094118
0.290196 0.211765 0.098039
0.333333 0.227451 0.105882
0.380392 0.239216 0.117647
0.427451 0.254902 0.125490
0.474510 0.266667 0.137255
0.517647 0.282353 0.152941
0.556863 0.294118 0.168627
0.592157 0.305882 0.180392
0.627451 0.317647 0.196078
0.654902 0.325490 0.211765
0.686275 0.337255 0.223529
0.713725 0.349020 0.239216
0.741176 0.356863 0.254902
0.764706 0.368627 0.266667
0.788235 0.380392 0.278431
0.811765 0.388235 0.290196
0.835294 0.396078 0.301961
0.854902 0.403922 0.309804
0.874510 0.411765 0.321569
0.894118 0.415686 0.329412
0.909804 0.423529 0.337255
0.917647 0.427451 0.341176
0.129412 0.207843 0.094118
0.133333 0.207843 0.094118
0.137255 0.207843 0.094118
0.145098 0.207843 0.094118
0.156863 0.207843 0.094118
0.172549 0.207843 0.094118
0.188235 0.207843 0.094118
0.203922 0.211765 0.098039
0.227451 0.211765 0.098039
0.258824 0.219608 0.101961
0.294118 0.231373 0.105882
0.337255 0.247059 0.109804
0.384314 0.258824 0.121569
0.431373 0.274510 0.129412
0.474510 0.290196 0.145098
0.517647 0.301961 0.156863
0.556863 0.313725 0.172549
0.592157 0.325490 0.184314
0.627451 0.337255 0.200000
0.658824 0.349020 0.215686
0.686275 0.356863 0.227451
0.713725 0.368627 0.243137
0.741176 0.376471 0.254902
0.764706 0.388235 0.270588
0.792157 0.396078 0.282353
0.815686 0.403922 0.294118
0.835294 0.411765 0.305882
0.858824 0.419608 0.313725
0.878431 0.423529 0.321569
0.894118 0.431373 0.333333
0.909804 0.435294 0.337255
0.917647 0.439216 0.345098
0.145098 0.239216 0.101961
0.145098 0.239216 0.101961
0.152941 0.239216 0.101961
0.160784 0.239216 0.101961
0.172549 0.239216 0.101961
0.188235 0.239216 0.101961
0.203922 0.239216 0.101961
0.223529 0.239216 0.105882
0.243137 0.243137 0.105882
0.270588 0.247059 0.105882
0.301961 0.254902 0.109804
0.341176 0.266667 0.113725
0.388235 0.282353 0.125490
0.431373 0.298039 0.133333
0.478431 0.313725 0.149020
0.521569 0.325490 0.160784
0.560784 0.337255 0.176471
0.596078 0.349020 0.188235
0.627451 0.360784 0.203922
0.658824 0.368627 0.219608
0.686275 0.376471 0.231373
0.713725 0.388235 0.247059
0.741176 0.396078 0.258824
0.764706 0.403922 0.274510
0.792157 0.411765 0.286275
0.815686 0.419608 0.298039
0.835294 0.427451 0.305882
0.858824 0.435294 0.317647
0.878431 0.439216 0.325490
0.894118 0.447059 0.333333
0.909804 0.450980 0.341176
0.917647 0.450980 0.345098
0.160784 0.274510 0.109804
0.164706 0.274510 0.109804
0.168627 0.274510 0.113725
0.180392 0.274510 0.113725
0.192157 0.274510 0.113725
0.207843 0.274510 0.113725
0.223529 0.274510 0.113725
0.243137 0.274510 0.113725
0.266667 0.278431 0.117647
0.290196 0.282353 0.117647
0.317647 0.282353 0.117647
0.352941 0.294118 0.125490
0.392157 0.305882 0.129412
0.435294 0.321569 0.141176
0.482353 0.333333 0.152941
0.521569 0.349020 0.164706
0.560784 0.360784 0.180392
0.596078 0.372549 0.196078
0.627451 0.380392 0.207843
0.658824 0.392157 0.223529
0.690196 0.400000 0.239216
0.713725 0.407843 0.250980
0.741176 0.415686 0.266667
0.768627 0.423529 0.278431
0.792157 0.431373 0.290196
0.815686 0.439216 0.301961
0.839216 0.447059 0.309804
0.858824 0.450980 0.321569
0.878431 0.458824 0.329412
0.894118 0.462745 0.337255
0.909804 0.466667 0.345098
0.917647 0.466667 0.349020
0.184314 0.313725 0.125490
0.188235 0.313725 0.125490
0.192157 0.313725 0.125490
0.200000 0.313725 0.125490
0.211765 0.313725 0.125490
0.231373 0.313725 0.125490
0.247059 0.313725 0.125490
0.266667 0.313725 0.125490
0.290196 0.317647 0.129412
0.313725 0.317647 0.129412
0.337255 0.321569 0.129412
0.368627 0.325490 0.133333
0.400000 0.333333 0.137255
0.439216 0.345098 0.145098
0.482353 0.356863 0.156863
0.525490 0.372549 0.172549
0.564706 0.384314 0.184314
0.600000 0.396078 0.200000
0.631373 0.403922 0.215686
0.662745 0.415686 0.227451
0.690196 0.423529 0.243137
0.717647 0.431373 0.254902
0.745098 0.439216 0.270588
0.768627 0.447059 0.282353
0.796078 0.454902 0.294118
0.815686 0.458824 0.305882
0.839216 0.466667 0.313725
0.858824 0.470588 0.325490
0.878431 0.474510 0.333333
0.894118 0.478431 0.341176
0.909804 0.482353 0.349020
0.917647 0.482353 0.352941
0.207843 0.352941 0.137255
0.211765 0.352941 0.137255
0.215686 0.352941 0.141176
0.227451 0.352941 0.141176
0.239216 0.356863 0.141176
0.254902 0.356863 0.141176
0.270588 0.356863 0.141176
0.290196 0.356863 0.141176
0.313725 0.356863 0.141176
0.337255 0.356863 0.145098
0.360784 0.360784 0.145098
0.388235 0.364706 0.149020
0.415686 0.364706 0.149020
0.450980 0.372549 0.156863
0.490196 0.384314 0.164706
0.529412 0.400000 0.176471
0.564706 0.411765 0.192157
0.600000 0.419608 0.203922
0.631373 0.431373 0.219608
0.662745 0.439216 0.235294
0.690196 0.447059 0.247059
0.717647 0.454902 0.262745
0.745098 0.462745 0.274510
0.772549 0.466667 0.286275
0.796078 0.474510 0.298039
0.819608 0.482353 0.309804
0.839216 0.486275 0.317647
0.858824 0.490196 0.329412
0.878431 0.494118 0.337255
0.898039 0.498039 0.345098
0.909804 0.498039 0.349020
0.917647 0.498039 0.356863
0.235294 0.400000 0.156863
0.239216 0.400000 0.156863
0.243137 0.400000 0.156863
0.250980 0.400000 0.156863
0.262745 0.400000 0.156863
0.278431 0.400000 0.156863
0.294118 0.400000 0.156863
0.313725 0.400000 0.156863
0.337255 0.400000 0.160784
0.360784 0.400000 0.160784
0.384314 0.400000 0.160784
0.411765 0.403922 0.164706
0.435294 0.403922 0.164706
0.466667 0.411765 0.168627
0.498039 0.415686 0.176471
0.533333 0.423529 0.184314
0.568627 0.435294 0.196078
0.603922 0.447059 0.211765
0.635294 0.454902 0.227451
0.662745 0.462745 0.239216
0.694118 0.470588 0.254902
0.721569 0.478431 0.266667
0.749020 0.486275 0.282353
0.772549 0.490196 0.294118
0.796078 0.498039 0.305882
0.819608 0.501961 0.313725
0.843137 0.505882 0.325490
0.862745 0.509804 0.333333
0.882353 0.513725 0.341176
0.898039 0.517647 0.349020
0.913725 0.517647 0.352941
0.921569 0.517647 0.356863
0.262745 0.443137 0.172549
0.262745 0.443137 0.172549
0.270588 0.443137 0.172549
0.278431 0.443137 0.176471
0.290196 0.443137 0.176471
0.301961 0.443137 0.176471
0.321569 0.443137 0.176471
0.341176 0.443137 0.176471
0.360784 0.443137 0.176471
0.384314 0.443137 0.180392
0.407843 0.443137 0.180392
0.431373 0.447059 0.180392
0.458824 0.447059 0.184314
0.486275 0.447059 0.184314
0.509804 0.450980 0.188235
0.541176 0.454902 0.196078
0.572549 0.462745 0.207843
0.603922 0.470588 0.219608
0.635294 0.482353 0.231373
0.666667 0.490196 0.247059
0.694118 0.494118 0.258824
0.721569 0.501961 0.274510
0.749020 0.509804 0.286275
0.776471 0.513725 0.298039
0.800000 0.521569 0.309804
0.823529 0.525490 0.317647
0.843137 0.529412 0.329412
0.862745 0.533333 0.337255
0.882353 0.533333 0.345098
0.898039 0.537255 0.352941
0.913725 0.537255 0.356863
0.921569 0.537255 0.360784
0.290196 0.486275 0.192157
0.290196 0.486275 0.192157
0.294118 0.486275 0.192157
0.301961 0.486275 0.192157
0.313725 0.486275 0.192157
0.329412 0.486275 0.196078
0.345098 0.486275 0.196078
0.360784 0.486275 0.196078
0.384314 0.486275 0.196078
0.403922 0.486275 0.196078
0.427451 0.486275 0.200000
0.450980 0.486275 0.200000
0.478431 0.490196 0.200000
0.501961 0.490196 0.203922
0.529412 0.490196 0.207843
0.552941 0.490196 0.211765
0.580392 0.494118 0.215686
0.611765 0.498039 0.227451
0.639216 0.505882 0.239216
0.670588 0.513725 0.254902
0.698039 0.521569 0.266667
0.725490 0.529412 0.282353
0.749020 0.533333 0.294118
0.776471 0.541176 0.301961
0.800000 0.545098 0.313725
0.823529 0.549020 0.325490
0.847059 0.552941 0.333333
0.866667 0.552941 0.341176
0.886275 0.556863 0.349020
0.898039 0.556863 0.356863
0.913725 0.556863 0.364706
0.921569 0.556863 0.364706
0.313725 0.525490 0.211765
0.317647 0.525490 0.211765
0.321569 0.525490 0.211765
0.325490 0.525490 0.211765
0.337255 0.525490 0.211765
0.349020 0.525490 0.215686
0.364706 0.525490 0.215686
0.384314 0.525490 0.215686
0.403922 0.525490 0.215686
0.423529 0.525490 0.215686
0.447059 0.525490 0.219608
0.470588 0.529412 0.219608
0.494118 0.529412 0.219608
0.521569 0.529412 0.223529
0.545098 0.529412 0.223529
0.568627 0.529412 0.227451
0.592157 0.529412 0.231373
0.615686 0.529412 0.239216
0.643137 0.533333 0.247059
0.670588 0.541176 0.262745
0.698039 0.549020 0.274510
0.725490 0.552941 0.286275
0.752941 0.560784 0.298039
0.776471 0.564706 0.309804
0.803922 0.568627 0.321569
0.827451 0.572549 0.329412
0.847059 0.576471 0.337255
0.866667 0.576471 0.349020
0.886275 0.576471 0.356863
0.901961 0.580392 0.360784
0.913725 0.580392 0.368627
0.921569 0.576471 0.372549
0.337255 0.560784 0.231373
0.341176 0.560784 0.231373
0.345098 0.560784 0.231373
0.349020 0.560784 0.231373
0.356863 0.560784 0.231373
0.372549 0.564706 0.235294
0.384314 0.564706 0.235294
0.403922 0.564706 0.235294
0.419608 0.564706 0.235294
0.443137 0.564706 0.235294
0.462745 0.564706 0.239216
0.486275 0.564706 0.239216
0.509804 0.564706 0.239216
0.533333 0.564706 0.243137
0.556863 0.564706 0.243137
0.580392 0.564706 0.247059
0.603922 0.564706 0.247059
0.623529 0.564706 0.254902
0.650980 0.564706 0.258824
0.674510 0.568627 0.270588
0.701961 0.572549 0.282353
0.729412 0.580392 0.294118
0.752941 0.584314 0.305882
0.780392 0.588235 0.317647
0.803922 0.592157 0.325490
0.827451 0.596078 0.337255
0.850980 0.600000 0.345098
0.870588 0.600000 0.352941
0.886275 0.600000 0.360784
0.901961 0.600000 0.368627
0.917647 0.600000 0.372549
0.921569 0.596078 0.376471
0.360784 0.596078 0.250980
0.360784 0.596078 0.250980
0.364706 0.596078 0.250980
0.372549 0.596078 0.250980
0.380392 0.596078 0.250980
0.392157 0.596078 0.254902
0.403922 0.596078 0.254902
0.419608 0.596078 0.254902
0.439216 0.600000 0.254902
0.458824 0.600000 0.254902
0.478431 0.600000 0.258824
0.498039 0.600000 0.258824
0.521569 0.600000 0.258824
0.545098 0.600000 0.262745
0.568627 0.600000 0.262745
0.592157 0.600000 0.266667
0.611765 0.600000 0.266667
0.635294 0.596078 0.270588
0.658824 0.596078 0.274510
0.678431 0.596078 0.282353
0.705882 0.600000 0.290196
0.729412 0.607843 0.301961
0.756863 0.611765 0.313725
0.780392 0.615686 0.325490
0.807843 0.619608 0.333333
0.827451 0.623529 0.341176
0.850980 0.623529 0.352941
0.870588 0.623529 0.360784
0.890196 0.623529 0.368627
0.901961 0.623529 0.372549
0.917647 0.623529 0.376471
0.921569 0.619608 0.380392
0.380392 0.627451 0.270588
0.384314 0.627451 0.270588
0.384314 0.627451 0.270588
0.392157 0.627451 0.270588
0.400000 0.627451 0.270588
0.411765 0.631373 0.270588
0.419608 0.631373 0.270588
0.435294 0.631373 0.274510
0.454902 0.631373 0.274510
0.470588 0.631373 0.274510
0.490196 0.631373 0.274510
0.513725 0.631373 0.278431
0.533333 0.631373 0.278431
0.556863 0.631373 0.278431
0.576471 0.631373 0.282353
0.600000 0.631373 0.282353
0.623529 0.631373 0.286275
0.643137 0.631373 0.286275
0.666667 0.631373 0.290196
0.686275 0.627451 0.294118
0.709804 0.631373 0.301961
0.733333 0.635294 0.309804
0.760784 0.639216 0.321569
0.784314 0.643137 0.333333
0.807843 0.647059 0.341176
0.831373 0.647059 0.349020
0.850980 0.650980 0.356863
0.870588 0.650980 0.364706
0.890196 0.650980 0.372549
0.905882 0.647059 0.380392
0.917647 0.647059 0.384314
0.921569 0.643137 0.388235
0.400000 0.658824 0.290196
0.403922 0.658824 0.290196
0.403922 0.658824 0.290196
0.411765 0.658824 0.290196
0.415686 0.658824 0.290196
0.427451 0.658824 0.290196
0.439216 0.658824 0.290196
0.450980 0.658824 0.290196
0.466667 0.658824 0.294118
0.486275 0.658824 0.294118
0.501961 0.658824 0.294118
0.521569 0.658824 0.294118
0.541176 0.662745 0.298039
0.564706 0.662745 0.298039
0.584314 0.662745 0.301961
0.607843 0.662745 0.301961
0.631373 0.662745 0.301961
0.650980 0.662745 0.305882
0.674510 0.662745 0.309804
0.694118 0.662745 0.309804
0.717647 0.662745 0.317647
0.741176 0.662745 0.321569
0.764706 0.666667 0.329412
0.788235 0.670588 0.341176
0.811765 0.670588 0.349020
0.835294 0.674510 0.356863
0.854902 0.674510 0.364706
0.874510 0.674510 0.372549
0.894118 0.674510 0.376471
0.905882 0.670588 0.384314
0.921569 0.670588 0.388235
0.925490 0.662745 0.392157
0.419608 0.690196 0.309804
0.423529 0.690196 0.309804
0.423529 0.690196 0.309804
0.427451 0.690196 0.309804
0.435294 0.690196 0.309804
0.443137 0.690196 0.309804
0.454902 0.690196 0.309804
0.466667 0.690196 0.309804
0.482353 0.690196 0.309804
0.498039 0.690196 0.309804
0.513725 0.690196 0.313725
0.533333 0.690196 0.313725
0.552941 0.690196 0.313725
0.572549 0.690196 0.317647
0.592157 0.690196 0.317647
0.615686 0.694118 0.317647
0.635294 0.694118 0.321569
0.658824 0.694118 0.321569
0.678431 0.694118 0.325490
0.701961 0.694118 0.329412
0.721569 0.694118 0.329412
0.745098 0.694118 0.333333
0.768627 0.694118 0.341176
0.792157 0.694118 0.349020
0.815686 0.698039 0.356863
0.835294 0.698039 0.364706
0.858824 0.701961 0.372549
0.878431 0.698039 0.380392
0.894118 0.698039 0.384314
0.909804 0.694118 0.388235
0.921569 0.694118 0.396078
0.925490 0.686275 0.396078
0.439216 0.717647 0.325490
0.439216 0.717647 0.325490
0.443137 0.717647 0.325490
0.447059 0.717647 0.325490
0.450980 0.717647 0.325490
0.458824 0.717647 0.325490
0.470588 0.717647 0.325490
0.482353 0.717647 0.325490
0.494118 0.717647 0.325490
0.509804 0.717647 0.329412
0.525490 0.717647 0.329412
0.545098 0.717647 0.329412
0.560784 0.717647 0.333333
0.580392 0.717647 0.333333
0.600000 0.717647 0.333333
0.619608 0.721569 0.337255
0.643137 0.721569 0.337255
0.662745 0.721569 0.341176
0.686275 0.721569 0.341176
0.705882 0.721569 0.345098
0.729412 0.721569 0.345098
0.749020 0.721569 0.349020
0.772549 0.721569 0.352941
0.796078 0.725490 0.360784
0.815686 0.725490 0.364706
0.839216 0.725490 0.372549
0.858824 0.725490 0.380392
0.878431 0.725490 0.388235
0.898039 0.725490 0.392157
0.909804 0.721569 0.396078
0.921569 0.717647 0.400000
0.925490 0.709804 0.403922
0.454902 0.745098 0.341176
0.454902 0.745098 0.341176
0.458824 0.745098 0.341176
0.462745 0.745098 0.341176
0.466667 0.745098 0.341176
0.474510 0.745098 0.341176
0.486275 0.745098 0.345098
0.494118 0.745098 0.345098
0.505882 0.745098 0.345098
0.521569 0.745098 0.345098
0.537255 0.745098 0.345098
0.552941 0.745098 0.345098
0.568627 0.745098 0.349020
0.588235 0.745098 0.349020
0.607843 0.745098 0.349020
0.627451 0.745098 0.352941
0.647059 0.749020 0.352941
0.666667 0.749020 0.356863
0.690196 0.749020 0.356863
0.709804 0.749020 0.360784
0.733333 0.749020 0.360784
0.752941 0.749020 0.364706
0.776471 0.752941 0.368627
0.796078 0.752941 0.372549
0.819608 0.752941 0.376471
0.843137 0.752941 0.380392
0.862745 0.752941 0.388235
0.882353 0.752941 0.392157
0.898039 0.749020 0.400000
0.913725 0.745098 0.403922
0.921569 0.741176 0.407843
0.925490 0.733333 0.411765
0.470588 0.768627 0.356863
0.470588 0.768627 0.356863
0.474510 0.768627 0.356863
0.478431 0.768627 0.356863
0.482353 0.768627 0.356863
0.490196 0.768627 0.356863
0.498039 0.768627 0.356863
0.509804 0.768627 0.356863
0.521569 0.768627 0.356863
0.533333 0.768627 0.360784
0.545098 0.768627 0.360784
0.560784 0.772549 0.360784
0.580392 0.772549 0.360784
0.596078 0.772549 0.364706
0.615686 0.772549 0.364706
0.635294 0.772549 0.364706
0.654902 0.772549 0.368627
0.674510 0.772549 0.368627
0.694118 0.772549 0.372549
0.713725 0.776471 0.372549
0.737255 0.776471 0.376471
0.756863 0.776471 0.376471
0.776471 0.776471 0.380392
0.800000 0.776471 0.384314
0.823529 0.780392 0.388235
0.843137 0.780392 0.392157
0.866667 0.780392 0.396078
0.886275 0.776471 0.400000
0.901961 0.776471 0.407843
0.913725 0.772549 0.411765
0.921569 0.764706 0.415686
0.925490 0.756863 0.415686
0.486275 0.792157 0.368627
0.486275 0.792157 0.368627
0.490196 0.792157 0.372549
0.494118 0.792157 0.372549
0.498039 0.792157 0.372549
0.505882 0.792157 0.372549
0.513725 0.792157 0.372549
0.521569 0.792157 0.372549
0.533333 0.792157 0.372549
0.545098 0.796078 0.372549
0.556863 0.796078 0.372549
0.572549 0.796078 0.376471
0.588235 0.796078 0.376471
0.603922 0.796078 0.376471
0.623529 0.796078 0.376471
0.639216 0.796078 0.380392
0.658824 0.796078 0.380392
0.678431 0.800000 0.384314
0.698039 0.800000 0.384314
0.717647 0.800000 0.384314
0.737255 0.800000 0.388235
0.760784 0.800000 0.388235
0.780392 0.803922 0.392157
0.800000 0.803922 0.396078
0.823529 0.803922 0.396078
0.847059 0.803922 0.400000
0.866667 0.807843 0.403922
0.886275 0.803922 0.407843
0.905882 0.800000 0.415686
0.913725 0.796078 0.419608
0.925490 0.788235 0.423529
0.925490 0.780392 0.423529
0.498039 0.815686 0.384314
0.501961 0.815686 0.384314
0.501961 0.815686 0.384314
0.505882 0.815686 0.384314
0.509804 0.815686 0.384314
0.517647 0.815686 0.384314
0.521569 0.815686 0.384314
0.533333 0.815686 0.384314
0.541176 0.815686 0.384314
0.552941 0.815686 0.384314
0.564706 0.815686 0.384314
0.580392 0.815686 0.388235
0.596078 0.819608 0.388235
0.611765 0.819608 0.388235
0.627451 0.819608 0.388235
0.643137 0.819608 0.392157
0.662745 0.819608 0.392157
0.682353 0.819608 0.392157
0.701961 0.819608 0.396078
0.721569 0.823529 0.396078
0.741176 0.823529 0.400000
0.760784 0.823529 0.400000
