luts/Vintage Look.cube
#Generated by wwww.onlinelutcreator.com 
LUT_3D_SIZE 5 
DOMAIN_MIN 0.000000 0.000000 0.000000
DOMAIN_MAX 0.903226 0.903226 0.903226
0.000000 0.000000 0.000000
0.164706 0.105882 0.070588
0.466667 0.168627 0.125490
0.709804 0.274510 0.227451
0.874510 0.360784 0.313725
0.098039 0.156863 0.074510
0.180392 0.164706 0.082353
0.470588 0.247059 0.137255
0.713725 0.333333 0.235294
0.874510 0.400000 0.317647
0.235294 0.400000 0.156863
0.313725 0.400000 0.156863
0.498039 0.415686 0.176471
0.721569 0.478431 0.266667
0.882353 0.513725 0.341176
0.400000 0.658824 0.290196
0.450980 0.658824 0.290196
0.584314 0.662745 0.301961
0.741176 0.662745 0.321569
0.894118 0.674510 0.376471
0.513725 0.839216 0.396078
0.541176 0.839216 0.396078
0.631373 0.839216 0.400000
0.760784 0.843137 0.411765
0.909804 0.850980 0.431373
0.070588 0.094118 0.094118
0.168627 0.109804 0.105882
0.466667 0.164706 0.176471
0.709804 0.274510 0.262745
0.874510 0.364706 0.337255
0.105882 0.160784 0.109804
0.176471 0.160784 0.109804
0.466667 0.215686 0.156863
0.709804 0.305882 0.250980
0.874510 0.388235 0.333333
0.231373 0.400000 0.192157
0.282353 0.392157 0.176471
0.490196 0.407843 0.192157
0.717647 0.466667 0.278431
0.878431 0.505882 0.352941
0.403922 0.658824 0.317647
0.431373 0.658824 0.305882
0.572549 0.662745 0.309804
0.737255 0.662745 0.333333
0.894118 0.670588 0.388235
0.513725 0.839216 0.411765
0.533333 0.839216 0.407843
0.623529 0.839216 0.411765
0.756863 0.843137 0.419608
0.909804 0.850980 0.439216
0.129412 0.129412 0.258824
0.250980 0.133333 0.262745
0.474510 0.168627 0.294118
0.709804 0.278431 0.352941
0.874510 0.368627 0.403922
0.149020 0.215686 0.262745
0.211765 0.184314 0.254902
0.466667 0.207843 0.282353
0.709804 0.305882 0.352941
0.874510 0.396078 0.407843
0.235294 0.407843 0.298039
0.274510 0.396078 0.290196
0.474510 0.392157 0.294118
0.709804 0.450980 0.364706
0.878431 0.517647 0.439216
0.415686 0.658824 0.403922
0.435294 0.658824 0.396078
0.552941 0.650980 0.388235
0.729412 0.654902 0.407843
0.890196 0.678431 0.466667
0.525490 0.839216 0.474510
0.541176 0.839216 0.470588
0.631373 0.835294 0.478431
0.756863 0.843137 0.486275
0.909804 0.850980 0.501961
0.243137 0.203922 0.474510
0.345098 0.203922 0.474510
0.541176 0.219608 0.474510
0.713725 0.282353 0.474510
0.874510 0.372549 0.498039
0.250980 0.286275 0.478431
0.301961 0.247059 0.474510
0.525490 0.250980 0.474510
0.709804 0.313725 0.474510
0.874510 0.400000 0.501961
0.309804 0.474510 0.490196
0.337255 0.454902 0.486275
0.509804 0.427451 0.470588
0.705882 0.470588 0.498039
0.878431 0.545098 0.541176
0.423529 0.662745 0.509804
0.447059 0.658824 0.509804
0.568627 0.647059 0.517647
0.725490 0.654902 0.537255
0.894118 0.717647 0.588235
0.537255 0.839216 0.556863
0.552941 0.839216 0.556863
0.647059 0.835294 0.568627
0.784314 0.839216 0.596078
0.905882 0.850980 0.607843
0.317647 0.262745 0.603922
0.388235 0.266667 0.603922
0.549020 0.278431 0.603922
0.705882 0.298039 0.592157
0.874510 0.376471 0.607843
0.329412 0.329412 0.603922
0.364706 0.301961 0.603922
0.537255 0.309804 0.603922
0.701961 0.325490 0.592157
0.874510 0.403922 0.611765
0.372549 0.478431 0.611765
0.400000 0.466667 0.607843
0.549020 0.470588 0.603922
0.698039 0.482353 0.596078
0.878431 0.545098 0.635294
0.435294 0.654902 0.619608
0.458824 0.650980 0.615686
0.580392 0.639216 0.611765
0.737255 0.674510 0.623529
0.894118 0.729412 0.662745
0.541176 0.839216 0.647059
0.556863 0.835294 0.647059
0.650980 0.835294 0.654902
0.796078 0.839216 0.666667
0.909804 0.854902 0.678431
